; generated by Slic3r 1.0.0RC2 on 2014-02-19 at 17:41:49

; layer_height = 0.25
; perimeters = 3
; top_solid_layers = 3
; bottom_solid_layers = 3
; fill_density = 0.4
; perimeter_speed = 40
; infill_speed = 60
; travel_speed = 90
; nozzle_diameter = 0.4
; filament_diameter = 1.75
; extrusion_multiplier = 1.0
; perimeters extrusion width = 0.40mm
; infill extrusion width = 0.53mm
; solid infill extrusion width = 0.53mm
; top infill extrusion width = 0.53mm
; first layer extrusion width = 0.50mm

G21 ; set units to millimeters
M107
M190 S60 ; wait for bed temperature to be reached
M104 S190 ; set temperature
G28 ; home all axes
G1 Z5 F5000 ; lift nozzle
M207 S1 F30 Z1
M208 S1 F30
M109 S190 ; wait for temperature to be reached
G90 ; use absolute coordinates
G92 E0
M82 ; use absolute distances for extrusion
M204 S9000
G1 Z0.250 F5400.000
G1 X17.410 Y2.580 F5400.000
G1 X18.280 Y3.640 E0.06821 F960.000
G1 X18.920 Y4.840 E0.13585
G1 X19.310 Y6.140 E0.20336
G1 X19.450 Y7.500 E0.27136
G1 X19.450 Y12.500 E0.52005
G1 X19.310 Y13.860 E0.58805
G1 X18.920 Y15.160 E0.65556
G1 X18.270 Y16.370 E0.72388
G1 X17.410 Y17.420 E0.79139
G1 X16.360 Y18.280 E0.85889
G1 X15.150 Y18.930 E0.92721
G1 X13.850 Y19.320 E0.99472
G1 X12.490 Y19.460 E1.06272
G1 X-12.500 Y19.460 E2.30568
G1 X-13.860 Y19.320 E2.37368
G1 X-15.160 Y18.930 E2.44119
G1 X-16.370 Y18.280 E2.50951
G1 X-17.420 Y17.420 E2.57702
G1 X-18.280 Y16.370 E2.64452
G1 X-18.930 Y15.160 E2.71284
G1 X-19.320 Y13.860 E2.78035
G1 X-19.460 Y12.500 E2.84835
G1 X-19.460 Y-12.500 E4.09181
G1 X-19.320 Y-13.860 E4.15981
G1 X-18.930 Y-15.160 E4.22732
G1 X-18.280 Y-16.370 E4.29564
G1 X-17.420 Y-17.420 E4.36314
G1 X-16.370 Y-18.280 E4.43065
G1 X-15.160 Y-18.930 E4.49897
G1 X-13.860 Y-19.320 E4.56647
G1 X-12.500 Y-19.460 E4.63448
G1 X-7.500 Y-19.460 E4.88317
G1 X-6.140 Y-19.320 E4.95117
G1 X-4.840 Y-18.930 E5.01868
G1 X-3.630 Y-18.280 E5.08699
G1 X-2.580 Y-17.420 E5.15450
G1 X17.359 Y2.529 E6.55739
G1 X17.070 Y2.920 F5400.000
G1 X17.880 Y3.900 E6.62063 F960.000
G1 X18.480 Y5.020 E6.68383
G1 X18.840 Y6.240 E6.74710
G1 X18.970 Y7.500 E6.81010
G1 X18.970 Y12.500 E7.05879
G1 X18.840 Y13.760 E7.12180
G1 X18.480 Y14.980 E7.18506
G1 X17.880 Y16.100 E7.24826
G1 X17.070 Y17.080 E7.31150
G1 X16.090 Y17.890 E7.37474
G1 X14.970 Y18.490 E7.43793
G1 X13.750 Y18.850 E7.50120
G1 X12.490 Y18.980 E7.56421
G1 X-12.500 Y18.980 E8.80717
G1 X-13.760 Y18.850 E8.87017
G1 X-14.980 Y18.490 E8.93344
G1 X-16.100 Y17.890 E8.99664
G1 X-17.080 Y17.080 E9.05987
G1 X-17.890 Y16.100 E9.12311
G1 X-18.490 Y14.980 E9.18631
G1 X-18.850 Y13.760 E9.24958
G1 X-18.980 Y12.500 E9.31258
G1 X-18.980 Y-12.500 E10.55604
G1 X-18.850 Y-13.760 E10.61904
G1 X-18.490 Y-14.980 E10.68231
G1 X-17.890 Y-16.100 E10.74551
G1 X-17.080 Y-17.080 E10.80875
G1 X-16.100 Y-17.890 E10.87199
G1 X-14.980 Y-18.490 E10.93518
G1 X-13.760 Y-18.850 E10.99845
G1 X-12.500 Y-18.980 E11.06145
G1 X-7.500 Y-18.980 E11.31015
G1 X-6.240 Y-18.850 E11.37315
G1 X-5.020 Y-18.490 E11.43642
G1 X-3.900 Y-17.890 E11.49961
G1 X-2.920 Y-17.080 E11.56285
G1 X17.019 Y2.869 E12.96575
G1 X11.293 Y8.707 F5400.000
G1 X11.293 Y11.293 E13.09436 F960.000
G1 X3.707 Y11.293 E13.47167
G1 X3.707 Y6.293 E13.72036
G1 X-8.707 Y6.293 E14.33782
G1 X-8.707 Y11.293 E14.58651
G1 X-11.293 Y11.293 E14.71513
G1 X-11.293 Y-11.293 E15.83851
G1 X-8.707 Y-11.293 E15.96713
G1 X-8.707 Y-6.293 E16.21582
G1 X-3.707 Y-6.293 E16.46451
G1 X-3.707 Y-1.293 E16.71321
G1 X1.293 Y-1.293 E16.96190
G1 X1.293 Y3.707 E17.21059
G1 X6.293 Y3.707 E17.45928
G1 X6.293 Y8.707 E17.70798
G1 X11.221 Y8.707 E17.95310
G1 X11.771 Y8.229 F5400.000
G1 X11.771 Y11.771 E18.12932 F960.000
G1 X3.229 Y11.771 E18.55423
G1 X3.229 Y6.771 E18.80292
G1 X-8.229 Y6.771 E19.37278
G1 X-8.229 Y11.771 E19.62147
G1 X-11.771 Y11.771 E19.79769
G1 X-11.771 Y-11.771 E20.96868
G1 X-8.229 Y-11.771 E21.14490
G1 X-8.229 Y-6.771 E21.39359
G1 X-3.229 Y-6.771 E21.64228
G1 X-3.229 Y-1.771 E21.89097
G1 X1.771 Y-1.771 E22.13966
G1 X1.771 Y3.229 E22.38836
G1 X6.771 Y3.229 E22.63705
G1 X6.771 Y8.229 E22.88574
G1 X11.700 Y8.229 E23.13086
G1 X12.250 Y7.750 F5400.000
G1 X12.250 Y12.250 E23.35469 F672.000
G1 X2.750 Y12.250 E23.82720
G1 X2.750 Y7.250 E24.07589
G1 X-7.750 Y7.250 E24.59815
G1 X-7.750 Y12.250 E24.84684
G1 X-12.250 Y12.250 E25.07066
G1 X-12.250 Y-12.250 E26.28925
G1 X-7.750 Y-12.250 E26.51308
G1 X-7.750 Y-7.250 E26.76177
G1 X-2.750 Y-7.250 E27.01046
G1 X-2.750 Y-2.250 E27.25915
G1 X2.250 Y-2.250 E27.50785
G1 X2.250 Y2.750 E27.75654
G1 X7.250 Y2.750 E28.00523
G1 X7.250 Y7.750 E28.25392
G1 X12.178 Y7.750 E28.49904
G1 X12.011 Y8.164 F5400.000
G1 X10.970 Y9.078 F5400.000
G1 X10.922 Y9.030 E28.50243 F1200.000
G1 X10.242 Y9.030 E28.53637
G1 X10.970 Y9.758 E28.58776
G1 X10.970 Y10.437 E28.62170
G1 X9.563 Y9.030 E28.72108
G1 X8.883 Y9.030 E28.75502
G1 X10.823 Y10.970 E28.89205
G1 X10.144 Y10.970 E28.92599
G1 X8.204 Y9.030 E29.06301
G1 X7.524 Y9.030 E29.09695
G1 X9.464 Y10.970 E29.23398
G1 X8.785 Y10.970 E29.26792
G1 X6.845 Y9.030 E29.40494
G1 X6.165 Y9.030 E29.43888
G1 X8.105 Y10.970 E29.57591
G1 X7.426 Y10.970 E29.60985
G1 X4.030 Y7.574 E29.84969
G1 X4.030 Y6.895 E29.88363
G1 X5.970 Y8.835 E30.02065
G1 X5.970 Y8.155 E30.05459
G1 X1.845 Y4.030 E30.34596
G1 X5.970 Y4.078 F5400.000
G1 X5.922 Y4.030 E30.34935 F1200.000
G1 X5.242 Y4.030 E30.38329
G1 X5.970 Y4.758 E30.43468
G1 X5.970 Y5.437 E30.46862
G1 X4.563 Y4.030 E30.56800
G1 X3.883 Y4.030 E30.60194
G1 X5.970 Y6.117 E30.74932
G1 X5.970 Y6.796 E30.78326
G1 X3.204 Y4.030 E30.97864
G1 X2.524 Y4.030 E31.01257
G1 X5.970 Y7.476 E31.25595
G1 X6.746 Y10.970 F5400.000
G1 X4.030 Y8.254 E31.44779 F1200.000
G1 X4.030 Y8.933 E31.48173
G1 X6.067 Y10.970 E31.62558
G1 X5.387 Y10.970 E31.65952
G1 X4.030 Y9.613 E31.75537
G1 X4.030 Y10.292 E31.78931
G1 X4.708 Y10.970 E31.83717
G1 X0.970 Y-0.922 F5400.000
G1 X0.922 Y-0.970 E31.84056 F1200.000
G1 X0.242 Y-0.970 E31.87450
G1 X0.970 Y-0.242 E31.92589
G1 X0.970 Y0.437 E31.95982
G1 X-0.437 Y-0.970 E32.05921
G1 X-1.117 Y-0.970 E32.09315
G1 X0.970 Y1.117 E32.24053
G1 X0.970 Y1.796 E32.27447
G1 X-1.796 Y-0.970 E32.46984
G1 X-2.476 Y-0.970 E32.50378
G1 X0.970 Y2.476 E32.74715
G1 X0.970 Y3.155 E32.78109
G1 X-3.155 Y-0.970 E33.07246
G1 X-4.030 Y-5.922 F5400.000
G1 X-4.078 Y-5.970 E33.07585 F1200.000
G1 X-4.758 Y-5.970 E33.10979
G1 X-4.030 Y-5.242 E33.16118
G1 X-4.030 Y-4.563 E33.19512
G1 X-5.437 Y-5.970 E33.29450
G1 X-6.117 Y-5.970 E33.32844
G1 X-4.030 Y-3.883 E33.47582
G1 X-4.030 Y-3.204 E33.50976
G1 X-6.796 Y-5.970 E33.70514
G1 X-7.476 Y-5.970 E33.73907
G1 X-4.030 Y-2.524 E33.98245
G1 X-4.030 Y-1.845 E34.01639
G1 X-8.155 Y-5.970 E34.30776
G1 X-9.030 Y-10.922 F5400.000
G1 X-9.078 Y-10.970 E34.31115 F1200.000
G1 X-9.758 Y-10.970 E34.34509
G1 X-9.030 Y-10.242 E34.39647
G1 X-9.030 Y-9.563 E34.43041
G1 X-10.437 Y-10.970 E34.52980
G1 X-10.970 Y-10.823 E34.55740
G1 X-9.030 Y-8.883 E34.69443
G1 X-9.030 Y-8.204 E34.72837
G1 X-10.970 Y-10.144 E34.86539
G1 X-10.970 Y-9.464 E34.89933
G1 X-9.030 Y-7.524 E35.03636
G1 X-9.030 Y-6.845 E35.07030
G1 X-10.970 Y-8.785 E35.20732
G1 X-10.970 Y-8.105 E35.24126
G1 X3.105 Y5.970 E36.23541
G1 X2.426 Y5.970 E36.26934
G1 X-10.970 Y-7.426 E37.21549
G1 X-10.970 Y-6.746 E37.24943
G1 X1.746 Y5.970 E38.14758
G1 X1.067 Y5.970 E38.18152
G1 X-10.970 Y-6.067 E39.03167
G1 X-10.970 Y-5.387 E39.06561
G1 X0.387 Y5.970 E39.86777
G1 X-0.292 Y5.970 E39.90171
G1 X-10.970 Y-4.708 E40.65587
G1 X-10.970 Y-4.028 E40.68980
G1 X-0.972 Y5.970 E41.39597
G1 X-1.652 Y5.970 E41.42991
G1 X-10.970 Y-3.348 E42.08808
G1 X-10.970 Y-2.669 E42.12201
G1 X-2.331 Y5.970 E42.73219
G1 X-3.011 Y5.970 E42.76612
G1 X-10.970 Y-1.989 E43.32830
G1 X-10.970 Y-1.310 E43.36224
G1 X-3.690 Y5.970 E43.87642
G1 X-4.370 Y5.970 E43.91035
G1 X-10.970 Y-0.630 E44.37654
G1 X-10.970 Y0.049 E44.41047
G1 X-5.049 Y5.970 E44.82866
G1 X-5.729 Y5.970 E44.86260
G1 X-10.970 Y0.729 E45.23279
G1 X-10.970 Y1.408 E45.26673
G1 X-6.408 Y5.970 E45.58892
G1 X-7.088 Y5.970 E45.62286
G1 X-10.970 Y2.088 E45.89705
G1 X-10.970 Y2.767 E45.93099
G1 X-7.767 Y5.970 E46.15719
G1 X-8.447 Y5.970 E46.19113
G1 X-10.970 Y3.447 E46.36933
G1 X-10.970 Y4.127 E46.40327
G1 X-9.030 Y6.067 E46.54030
G1 X-9.030 Y6.746 E46.57424
G1 X-10.970 Y4.806 E46.71126
G1 X-10.970 Y5.486 E46.74520
G1 X-9.030 Y7.426 E46.88223
G1 X-9.030 Y8.105 E46.91617
G1 X-10.970 Y6.165 E47.05319
G1 X-10.970 Y6.845 E47.08713
G1 X-9.030 Y8.785 E47.22416
G1 X-9.030 Y9.464 E47.25810
G1 X-10.970 Y7.524 E47.39512
G1 X-10.970 Y8.204 E47.42906
G1 X-9.030 Y10.144 E47.56609
G1 X-9.030 Y10.823 E47.60003
G1 X-10.970 Y8.883 E47.73705
G1 X-10.970 Y9.563 E47.77099
G1 X-9.563 Y10.970 E47.87038
G1 X-10.242 Y10.970 E47.90432
G1 X-10.970 Y10.242 E47.95571
G1 X-10.970 Y10.922 E47.98965
G1 X-10.922 Y10.970 E47.99304
M106 S255
M104 S185 ; set temperature
M140 S58 ; set bed temperature
M204 S9000
G1 Z0.500 F5400.000
G1 X-11.500 Y11.500 F5400.000
M204 S9000
G1 X-11.500 Y-11.500 E48.94927 F1396.450
G1 X-8.500 Y-11.500 E49.07400
G1 X-8.500 Y-6.500 E49.28187
G1 X-3.500 Y-6.500 E49.48975
G1 X-3.500 Y-1.500 E49.69762
G1 X1.500 Y-1.500 E49.90550
G1 X1.500 Y3.500 E50.11337
G1 X6.500 Y3.500 E50.32125
G1 X6.500 Y8.500 E50.52913
G1 X11.500 Y8.500 E50.73700
G1 X11.500 Y11.500 E50.86173
G1 X3.500 Y11.500 E51.19433
G1 X3.500 Y6.500 E51.40220
G1 X-8.500 Y6.500 E51.90111
G1 X-8.500 Y11.500 E52.10898
G1 X-11.440 Y11.500 E52.23121
M204 S9000
G1 X-11.900 Y11.900 F5400.000
M204 S9000
G1 X-11.900 Y-11.900 E53.22070 F1396.450
G1 X-8.100 Y-11.900 E53.37869
G1 X-8.100 Y-6.900 E53.58656
G1 X-3.100 Y-6.900 E53.79444
G1 X-3.100 Y-1.900 E54.00232
G1 X1.900 Y-1.900 E54.21019
G1 X1.900 Y3.100 E54.41807
G1 X6.900 Y3.100 E54.62594
G1 X6.900 Y8.100 E54.83382
G1 X11.900 Y8.100 E55.04170
G1 X11.900 Y11.900 E55.19968
G1 X3.100 Y11.900 E55.56554
G1 X3.100 Y6.900 E55.77342
G1 X-8.100 Y6.900 E56.23906
G1 X-8.100 Y11.900 E56.44694
G1 X-11.840 Y11.900 E56.60243
M204 S9000
G1 X-12.300 Y12.300 F5400.000
M204 S9000
G1 X-12.300 Y-12.300 E57.62518 F977.515
G1 X-7.700 Y-12.300 E57.81642
G1 X-7.700 Y-7.300 E58.02430
G1 X-2.700 Y-7.300 E58.23217
G1 X-2.700 Y-2.300 E58.44005
G1 X2.300 Y-2.300 E58.64793
G1 X2.300 Y2.700 E58.85580
G1 X7.300 Y2.700 E59.06368
G1 X7.300 Y7.700 E59.27155
G1 X12.300 Y7.700 E59.47943
G1 X12.300 Y12.300 E59.67067
G1 X2.700 Y12.300 E60.06980
G1 X2.700 Y7.300 E60.27767
G1 X-7.700 Y7.300 E60.71005
G1 X-7.700 Y12.300 E60.91793
G1 X-12.240 Y12.300 E61.10668
M204 S9000
G1 X-12.100 Y11.954 F5400.000
G1 X-8.788 Y10.953 F5400.000
M204 S9000
G1 X-9.047 Y11.212 E61.12616 F1745.563
G1 X-9.769 Y11.212 E61.16445
G1 X-8.788 Y10.231 E61.23807
G1 X-8.788 Y9.509 E61.27635
G1 X-10.491 Y11.212 E61.40412
G1 X-11.187 Y11.187 E61.44107
G1 X-8.788 Y8.788 E61.62107
G1 X-8.788 Y8.066 E61.65935
G1 X-11.212 Y10.491 E61.84125
G1 X-11.212 Y9.769 E61.87954
G1 X-8.788 Y7.344 E62.06144
M204 S9000
G1 X-11.212 Y-11.161 F5400.000
M204 S9000
G1 X-11.161 Y-11.212 E62.06527 F1745.563
G1 X-10.440 Y-11.212 E62.10355
G1 X-11.212 Y-10.440 E62.16152
G1 X-11.212 Y-9.718 E62.19980
G1 X-9.718 Y-11.212 E62.31191
G1 X-8.996 Y-11.212 E62.35019
G1 X-11.212 Y-8.996 E62.51644
G1 X-11.212 Y-8.275 E62.55472
G1 X-8.788 Y-10.699 E62.73663
G1 X-8.788 Y-9.978 E62.77491
G1 X-11.212 Y-7.553 E62.95682
G1 X-11.212 Y-6.831 E62.99510
G1 X-8.788 Y-9.256 E63.17700
G1 X-8.788 Y-8.534 E63.21529
G1 X-11.212 Y-6.109 E63.39719
G1 X-11.212 Y-5.388 E63.43548
G1 X-8.788 Y-7.812 E63.61738
G1 X-8.788 Y-7.091 E63.65567
G1 X-11.212 Y-4.666 E63.83757
G1 X-11.212 Y-3.944 E63.87585
G1 X-8.788 Y-6.369 E64.05776
G1 X-8.222 Y-6.212 E64.08887
G1 X-11.212 Y-3.222 E64.31317
G1 X-11.212 Y-2.501 E64.35146
G1 X-7.501 Y-6.212 E64.62990
G1 X-6.779 Y-6.212 E64.66819
G1 X-11.212 Y-1.779 E65.00077
G1 X-11.212 Y-1.057 E65.03906
G1 X-6.057 Y-6.212 E65.42579
G1 X-5.335 Y-6.212 E65.46407
G1 X-11.212 Y-0.335 E65.90494
G1 X-11.212 Y0.386 E65.94323
G1 X-4.614 Y-6.212 E66.43824
G1 X-3.892 Y-6.212 E66.47652
G1 X-11.212 Y1.108 E67.02568
G1 X-11.212 Y1.830 E67.06396
G1 X-3.788 Y-5.595 E67.62095
G1 X-3.788 Y-4.873 E67.65923
G1 X-11.212 Y2.552 E68.21621
G1 X-11.212 Y3.273 E68.25450
G1 X-3.788 Y-4.152 E68.81148
G1 X-3.788 Y-3.430 E68.84977
G1 X-11.212 Y3.995 E69.40675
G1 X-11.212 Y4.717 E69.44504
G1 X-3.788 Y-2.708 E70.00202
G1 X-3.788 Y-1.986 E70.04030
G1 X-11.212 Y5.438 E70.59729
G1 X-11.212 Y6.160 E70.63557
G1 X-3.788 Y-1.265 E71.19256
G1 X-3.118 Y-1.212 E71.22818
G1 X-11.212 Y6.882 E71.83539
G1 X-11.212 Y7.604 E71.87367
G1 X-2.396 Y-1.212 E72.53503
G1 X-1.675 Y-1.212 E72.57331
G1 X-11.212 Y8.325 E73.28880
G1 X-11.212 Y9.047 E73.32709
G1 X-0.953 Y-1.212 E74.09672
G1 X-0.231 Y-1.212 E74.13501
G1 X-7.656 Y6.212 E74.69199
G1 X-6.934 Y6.212 E74.73028
G1 X0.491 Y-1.212 E75.28726
G1 X1.187 Y-1.187 E75.32422
G1 X-6.212 Y6.212 E75.87929
G1 X-5.491 Y6.212 E75.91757
G1 X1.212 Y-0.491 E76.42042
G1 X1.212 Y0.231 E76.45870
G1 X-4.769 Y6.212 E76.90741
G1 X-4.047 Y6.212 E76.94569
G1 X1.212 Y0.953 E77.34025
G1 X1.212 Y1.674 E77.37854
G1 X-3.326 Y6.212 E77.71895
G1 X-2.604 Y6.212 E77.75724
G1 X1.212 Y2.396 E78.04352
G1 X1.212 Y3.118 E78.08180
G1 X-1.882 Y6.212 E78.31394
G1 X-1.160 Y6.212 E78.35222
G1 X1.265 Y3.788 E78.53413
G1 X1.986 Y3.788 E78.57241
G1 X-0.439 Y6.212 E78.75431
G1 X0.283 Y6.212 E78.79260
G1 X2.708 Y3.788 E78.97450
G1 X3.430 Y3.788 E79.01279
G1 X1.005 Y6.212 E79.19469
G1 X1.727 Y6.212 E79.23298
G1 X4.152 Y3.788 E79.41488
G1 X4.873 Y3.788 E79.45316
G1 X2.448 Y6.212 E79.63507
G1 X3.170 Y6.212 E79.67335
G1 X5.595 Y3.788 E79.85526
G1 X6.212 Y3.892 E79.88847
G1 X3.788 Y6.317 E80.07038
G1 X3.788 Y7.038 E80.10866
G1 X6.212 Y4.614 E80.29057
G1 X6.212 Y5.335 E80.32885
G1 X3.788 Y7.760 E80.51076
G1 X3.788 Y8.482 E80.54904
G1 X6.212 Y6.057 E80.73094
G1 X6.212 Y6.779 E80.76923
G1 X3.788 Y9.204 E80.95113
G1 X3.788 Y9.925 E80.98942
G1 X6.212 Y7.501 E81.17132
G1 X6.212 Y8.222 E81.20961
G1 X3.788 Y10.647 E81.39151
G1 X3.944 Y11.212 E81.42262
G1 X6.369 Y8.788 E81.60453
G1 X7.091 Y8.788 E81.64281
G1 X4.666 Y11.212 E81.82471
G1 X5.387 Y11.212 E81.86300
G1 X7.812 Y8.788 E82.04490
G1 X8.534 Y8.788 E82.08319
G1 X6.109 Y11.212 E82.26509
G1 X6.831 Y11.212 E82.30338
G1 X9.256 Y8.788 E82.48528
G1 X9.978 Y8.788 E82.52357
G1 X7.553 Y11.212 E82.70547
G1 X8.274 Y11.212 E82.74375
G1 X10.699 Y8.788 E82.92566
G1 X11.212 Y8.996 E82.95504
G1 X8.996 Y11.212 E83.12129
G1 X9.718 Y11.212 E83.15958
G1 X11.212 Y9.718 E83.27169
G1 X11.212 Y10.440 E83.30997
G1 X10.440 Y11.212 E83.36794
G1 X11.161 Y11.212 E83.40623
G1 X11.212 Y11.161 E83.41006
M204 S9000
G1 Z0.750 F5400.000
G1 X11.500 Y11.500 F5400.000
M204 S9000
G1 X3.500 Y11.500 E83.74266 F1387.374
G1 X3.500 Y6.500 E83.95053
G1 X-8.500 Y6.500 E84.44944
G1 X-8.500 Y11.500 E84.65731
G1 X-11.500 Y11.500 E84.78204
G1 X-11.500 Y-11.500 E85.73827
G1 X-8.500 Y-11.500 E85.86299
G1 X-8.500 Y-6.500 E86.07087
G1 X-3.500 Y-6.500 E86.27874
G1 X-3.500 Y-1.500 E86.48662
G1 X1.500 Y-1.500 E86.69449
G1 X1.500 Y3.500 E86.90237
G1 X6.500 Y3.500 E87.11025
G1 X6.500 Y8.500 E87.31812
G1 X11.500 Y8.500 E87.52600
G1 X11.500 Y11.440 E87.64823
M204 S9000
G1 X11.900 Y11.900 F5400.000
M204 S9000
G1 X3.100 Y11.900 E88.01409 F1387.374
G1 X3.100 Y6.900 E88.22197
G1 X-8.100 Y6.900 E88.68761
G1 X-8.100 Y11.900 E88.89548
G1 X-11.900 Y11.900 E89.05347
G1 X-11.900 Y-11.900 E90.04296
G1 X-8.100 Y-11.900 E90.20094
G1 X-8.100 Y-6.900 E90.40882
G1 X-3.100 Y-6.900 E90.61670
G1 X-3.100 Y-1.900 E90.82457
G1 X1.900 Y-1.900 E91.03245
G1 X1.900 Y3.100 E91.24032
G1 X6.900 Y3.100 E91.44820
G1 X6.900 Y8.100 E91.65608
G1 X11.900 Y8.100 E91.86395
G1 X11.900 Y11.840 E92.01944
M204 S9000
G1 X12.300 Y12.300 F5400.000
M204 S9000
G1 X2.700 Y12.300 E92.41856 F971.162
G1 X2.700 Y7.300 E92.62644
G1 X-7.700 Y7.300 E93.05882
G1 X-7.700 Y12.300 E93.26670
G1 X-12.300 Y12.300 E93.45794
G1 X-12.300 Y-12.300 E94.48069
G1 X-7.700 Y-12.300 E94.67194
G1 X-7.700 Y-7.300 E94.87981
G1 X-2.700 Y-7.300 E95.08769
G1 X-2.700 Y-2.300 E95.29557
G1 X2.300 Y-2.300 E95.50344
G1 X2.300 Y2.700 E95.71132
G1 X7.300 Y2.700 E95.91919
G1 X7.300 Y7.700 E96.12707
G1 X12.300 Y7.700 E96.33494
G1 X12.300 Y12.240 E96.52370
M204 S9000
G1 X11.954 Y12.100 F5400.000
G1 X11.161 Y8.787 F5400.000
M204 S9000
