; generated by Slic3r 1.0.0RC2 on 2014-02-04 at 21:31:48

; layer_height = 0.3
; perimeters = 3
; top_solid_layers = 3
; bottom_solid_layers = 3
; fill_density = 0.4
; perimeter_speed = 30
; infill_speed = 60
; travel_speed = 130
; nozzle_diameter = 0.4
; filament_diameter = 1.75
; extrusion_multiplier = 1
; perimeters extrusion width = 0.40mm
; infill extrusion width = 0.42mm
; solid infill extrusion width = 0.42mm
; top infill extrusion width = 0.42mm
; first layer extrusion width = 0.80mm

G21 ; set units to millimeters
M107
M190 S65 ; wait for bed temperature to be reached
M104 S200 ; set temperature
G28 ; home all axes
G1 Z5 F5000 ; lift nozzle

M109 S200 ; wait for temperature to be reached
G90 ; use absolute coordinates
G92 E0
M82 ; use absolute distances for extrusion
G1 F1800.000 E-1.00000
G92 E0
G1 Z0.400 F7800.000
G1 X17.240 Y2.750 F7800.000
G1 E1.00000 F1800.000
G1 X18.070 Y3.770 E1.15618 F540.000
G1 X18.690 Y4.930 E1.31239
G1 X19.080 Y6.190 E1.46904
G1 X19.200 Y7.500 E1.62527
G1 X19.200 Y12.500 E2.21910
G1 X19.080 Y13.810 E2.37533
G1 X18.690 Y15.070 E2.53198
G1 X18.070 Y16.230 E2.68819
G1 X17.240 Y17.250 E2.84437
G1 X16.220 Y18.080 E3.00055
G1 X15.060 Y18.700 E3.15676
G1 X13.800 Y19.090 E3.31341
G1 X12.490 Y19.210 E3.46964
G1 X-12.500 Y19.210 E6.43759
G1 X-13.810 Y19.090 E6.59382
G1 X-15.070 Y18.700 E6.75047
G1 X-16.230 Y18.080 E6.90668
G1 X-17.250 Y17.250 E7.06286
G1 X-18.080 Y16.230 E7.21904
G1 X-18.700 Y15.070 E7.37525
G1 X-19.090 Y13.810 E7.53190
G1 X-19.210 Y12.500 E7.68813
G1 X-19.210 Y-12.500 E10.65726
G1 X-19.090 Y-13.810 E10.81350
G1 X-18.700 Y-15.070 E10.97014
G1 X-18.080 Y-16.230 E11.12636
G1 X-17.250 Y-17.250 E11.28253
G1 X-16.230 Y-18.080 E11.43871
G1 X-15.070 Y-18.700 E11.59493
G1 X-13.810 Y-19.090 E11.75157
G1 X-12.500 Y-19.210 E11.90781
G1 X-7.500 Y-19.210 E12.50163
G1 X-6.190 Y-19.090 E12.65787
G1 X-4.930 Y-18.700 E12.81452
G1 X-3.770 Y-18.080 E12.97073
G1 X-2.750 Y-17.250 E13.12691
G1 X17.164 Y2.674 E16.47253
G1 F1800.000 E15.47253
G92 E0
G1 X10.672 Y9.328 F7800.000
G1 E1.00000 F1800.000
G1 X10.672 Y10.672 E1.15954 F540.000
G1 X4.328 Y10.672 E1.91291
G1 X4.328 Y5.672 E2.50674
G1 X-9.328 Y5.672 E4.12867
G1 X-9.328 Y10.672 E4.72250
G1 X-10.672 Y10.672 E4.88204
G1 X-10.672 Y-10.672 E7.41689
G1 X-9.328 Y-10.672 E7.57644
G1 X-9.328 Y-5.672 E8.17026
G1 X-4.328 Y-5.672 E8.76409
G1 X-4.328 Y-0.672 E9.35791
G1 X0.672 Y-0.672 E9.95174
G1 X0.672 Y4.328 E10.54557
G1 X5.672 Y4.328 E11.13939
G1 X5.672 Y9.328 E11.73322
G1 X10.565 Y9.328 E12.31432
G1 X11.386 Y8.614 F7800.000
G1 X11.386 Y11.386 E12.64350 F540.000
G1 X3.614 Y11.386 E13.56650
G1 X3.614 Y6.386 E14.16033
G1 X-8.614 Y6.386 E15.61263
G1 X-8.614 Y11.386 E16.20645
G1 X-11.386 Y11.386 E16.53563
G1 X-11.386 Y-11.386 E19.24012
G1 X-8.614 Y-11.386 E19.56930
G1 X-8.614 Y-6.386 E20.16312
G1 X-3.614 Y-6.386 E20.75695
G1 X-3.614 Y-1.386 E21.35077
G1 X1.386 Y-1.386 E21.94460
G1 X1.386 Y3.614 E22.53842
G1 X6.386 Y3.614 E23.13225
G1 X6.386 Y8.614 E23.72608
G1 X11.279 Y8.614 E24.30718
G1 X12.100 Y7.900 F7800.000
G1 X12.100 Y12.100 E24.80599 F378.000
G1 X2.900 Y12.100 E25.89863
G1 X2.900 Y7.100 E26.49246
G1 X-7.900 Y7.100 E27.77512
G1 X-7.900 Y12.100 E28.36895
G1 X-12.100 Y12.100 E28.86776
G1 X-12.100 Y-12.100 E31.74188
G1 X-7.900 Y-12.100 E32.24069
G1 X-7.900 Y-7.100 E32.83452
G1 X-2.900 Y-7.100 E33.42834
G1 X-2.900 Y-2.100 E34.02217
G1 X2.100 Y-2.100 E34.61600
G1 X2.100 Y2.900 E35.20982
G1 X7.100 Y2.900 E35.80365
G1 X7.100 Y7.900 E36.39747
G1 X11.993 Y7.900 E36.97858
G1 X11.743 Y8.518 F7800.000
G1 F1800.000 E35.97858
G92 E0
G1 X-0.166 Y0.591 F7800.000
G1 E1.00000 F1800.000
G1 X-0.948 Y-0.192 E1.13852 F1080.000
G1 X-2.012 Y-0.192 E1.27175
G1 X-0.166 Y1.655 E1.59868
G1 X-0.166 Y2.720 E1.73191
G1 X-3.077 Y-0.192 E2.24725
G1 X-4.141 Y-0.192 F7800.000
G1 X-0.166 Y3.784 E2.95101 F1080.000
G1 X-0.210 Y4.804 E3.07876
G1 X-9.804 Y-4.790 E4.77695
G1 X-9.834 Y-3.756 E4.90640
G1 X-1.244 Y4.834 E6.42700
G1 X-2.308 Y4.834 E6.56023
G1 X-9.834 Y-2.692 E7.89242
G1 X-9.834 Y-1.627 E8.02564
G1 X-3.373 Y4.834 E9.16942
G1 X-4.437 Y4.834 E9.30265
G1 X-9.834 Y-0.563 E10.25802
G1 X-9.834 Y0.502 E10.39125
G1 X-5.502 Y4.834 E11.15821
G1 X-6.566 Y4.834 E11.29143
G1 X-9.834 Y1.566 E11.86998
G1 X-9.834 Y2.630 E12.00321
G1 X-7.630 Y4.834 E12.39335
G1 X-8.695 Y4.834 E12.52658
G1 X-9.834 Y3.695 E12.72831
G1 X-9.834 Y4.759 E12.86153
G1 X-9.759 Y4.834 E12.87486
G1 X-4.808 Y-0.859 F7800.000
G1 X-9.141 Y-5.192 E13.64182 F1080.000
G1 X-8.077 Y-5.192 E13.77504
G1 X-4.808 Y-1.923 E14.35359
G1 X-4.808 Y-2.988 E14.48682
G1 X-7.012 Y-5.192 E14.87696
G1 X-5.948 Y-5.192 E15.01019
G1 X-4.808 Y-4.052 E15.21192
G1 X-4.808 Y-5.116 E15.34514
G1 X-4.884 Y-5.192 E15.35846
G1 X-9.828 Y-5.647 F7800.000
G1 X-10.172 Y-5.991 E15.38705 F360.000
G1 X-9.828 Y-6.146 E15.40919 F360.000
G1 X-10.172 Y-6.490 E15.43778 F360.000
G1 X-9.828 Y-6.645 E15.45993 F360.000
G1 X-10.172 Y-6.989 E15.48851 F360.000
G1 X-9.828 Y-7.143 E15.51066 F360.000
G1 X-10.172 Y-7.488 E15.53924 F360.000
G1 X-9.828 Y-7.642 E15.56139 F360.000
G1 X-10.172 Y-7.987 E15.58997 F360.000
G1 X-9.828 Y-8.141 E15.61212 F360.000
G1 X-10.172 Y-8.486 E15.64070 F360.000
G1 X-9.828 Y-8.640 E15.66285 F360.000
G1 X-10.172 Y-8.985 E15.69143 F360.000
G1 X-9.828 Y-9.139 E15.71358 F360.000
G1 X-10.172 Y-9.484 E15.74216 F360.000
G1 X-9.828 Y-9.638 E15.76431 F360.000
G1 X-10.172 Y-9.983 E15.79289 F360.000
G1 X-9.863 Y-10.172 E15.81418 F360.000
G1 X-9.828 Y-10.137 E15.81710 F360.000
G1 X-9.828 Y-5.647 F7800.000
G1 X-10.172 Y-5.492 E15.83925 F360.000
G1 X-10.137 Y-5.457 E15.84218 F360.000
G1 X-9.863 Y5.457 F7800.000
G1 X-9.828 Y5.492 E15.84511 F360.000
G1 X-9.863 Y5.457 F7800.000
G1 X-10.172 Y5.647 E15.86639 F360.000
G1 X-9.828 Y5.991 E15.89497 F360.000
G1 X-10.172 Y6.146 E15.91712 F360.000
G1 X-9.828 Y6.490 E15.94570 F360.000
G1 X-10.172 Y6.645 E15.96785 F360.000
G1 X-9.828 Y6.989 E15.99643 F360.000
G1 X-10.172 Y7.143 E16.01858 F360.000
G1 X-9.828 Y7.488 E16.04716 F360.000
G1 X-10.172 Y7.642 E16.06931 F360.000
G1 X-9.828 Y7.987 E16.09790 F360.000
G1 X-10.172 Y8.141 E16.12004 F360.000
G1 X-9.828 Y8.486 E16.14863 F360.000
G1 X-10.172 Y8.640 E16.17078 F360.000
G1 X-9.828 Y8.985 E16.19936 F360.000
G1 X-10.172 Y9.139 E16.22151 F360.000
G1 X-9.828 Y9.484 E16.25009 F360.000
G1 X-10.172 Y9.638 E16.27224 F360.000
G1 X-9.828 Y9.983 E16.30082 F360.000
G1 X-10.172 Y10.137 E16.32297 F360.000
G1 X-10.137 Y10.172 E16.32590 F360.000
G1 X-11.500 Y7.500 F7800.000
G1 X1.500 Y-1.500 F7800.000
G1 X0.540 Y4.827 F7800.000
G1 X0.885 Y5.173 E16.35523 F360.000
G1 X1.050 Y4.827 E16.37823 F360.000
G1 X1.396 Y5.173 E16.40756 F360.000
G1 X1.561 Y4.827 E16.43056 F360.000
G1 X1.907 Y5.173 E16.45989 F360.000
G1 X2.072 Y4.827 E16.48289 F360.000
G1 X2.417 Y5.173 E16.51222 F360.000
G1 X2.583 Y4.827 E16.53522 F360.000
G1 X2.928 Y5.173 E16.56455 F360.000
G1 X3.093 Y4.827 E16.58755 F360.000
G1 X3.439 Y5.173 E16.61688 F360.000
G1 X3.604 Y4.827 E16.63988 F360.000
G1 X3.950 Y5.173 E16.66921 F360.000
G1 X4.115 Y4.827 E16.69221 F360.000
G1 X4.460 Y5.173 E16.72154 F360.000
G1 X4.626 Y4.827 E16.74454 F360.000
G1 X5.173 Y5.374 E16.79099 F360.000
G1 X4.827 Y5.540 E16.81399 F360.000
G1 X5.173 Y5.885 E16.84332 F360.000
G1 X4.827 Y6.050 E16.86632 F360.000
G1 X5.173 Y6.396 E16.89565 F360.000
G1 X4.827 Y6.561 E16.91865 F360.000
G1 X5.173 Y6.907 E16.94798 F360.000
G1 X4.827 Y7.072 E16.97098 F360.000
G1 X5.173 Y7.417 E17.00031 F360.000
G1 X4.827 Y7.583 E17.02331 F360.000
G1 X5.173 Y7.928 E17.05264 F360.000
G1 X4.827 Y8.093 E17.07564 F360.000
G1 X5.173 Y8.439 E17.10497 F360.000
G1 X4.827 Y8.604 E17.12797 F360.000
G1 X5.173 Y8.950 E17.15730 F360.000
G1 X4.827 Y9.115 E17.18030 F360.000
G1 X5.173 Y9.460 E17.20963 F360.000
G1 X4.827 Y9.626 F7800.000
G1 X5.374 Y10.173 E17.25608 F360.000
G1 X5.540 Y9.827 E17.27908 F360.000
G1 X5.885 Y10.173 E17.30841 F360.000
G1 X6.050 Y9.827 E17.33141 F360.000
G1 X6.396 Y10.173 E17.36074 F360.000
G1 X6.561 Y9.827 E17.38374 F360.000
G1 X6.907 Y10.173 E17.41307 F360.000
G1 X7.072 Y9.827 E17.43607 F360.000
G1 X7.417 Y10.173 E17.46540 F360.000
G1 X7.583 Y9.827 E17.48840 F360.000
G1 X7.928 Y10.173 E17.51773 F360.000
G1 X8.093 Y9.827 E17.54073 F360.000
G1 X8.439 Y10.173 E17.57006 F360.000
G1 X8.604 Y9.827 E17.59306 F360.000
G1 X8.950 Y10.173 E17.62239 F360.000
G1 X9.115 Y9.827 E17.64539 F360.000
G1 X9.460 Y10.173 E17.67472 F360.000
G1 X9.626 Y9.827 E17.69772 F360.000
G1 X9.971 Y10.173 E17.72705 F360.000
G1 X10.173 Y9.863 E17.74922 F360.000
G1 X10.137 Y9.827 E17.75229 F360.000
G1 X4.863 Y10.173 F7800.000
G1 X4.827 Y10.137 E17.75535 F360.000
G1 X4.827 Y9.626 E17.78603 F360.000
G1 X5.173 Y4.863 F7800.000
G1 X5.137 Y4.827 E17.78910 F360.000
M106 S255
M104 S195 ; set temperature
M140 S60 ; set bed temperature
G1 F1800.000 E16.78910
G92 E0
G1 Z0.700 F7800.000
G1 X6.500 Y3.500 F7800.000
G1 E1.00000 F1800.000
G1 X6.500 Y8.500 E1.24945 F1225.029
G1 X11.500 Y8.500 E1.49890
G1 X11.500 Y11.500 E1.64857
G1 X3.500 Y11.500 E2.04769
G1 X3.500 Y6.500 E2.29715
G1 X-8.500 Y6.500 E2.89583
G1 X-8.500 Y11.500 E3.14528
G1 X-11.500 Y11.500 E3.29495
G1 X-11.500 Y-11.500 E4.44242
G1 X-8.500 Y-11.500 E4.59209
G1 X-8.500 Y-6.500 E4.84155
G1 X-3.500 Y-6.500 E5.09100
G1 X-3.500 Y-1.500 E5.34045
G1 X1.500 Y-1.500 E5.58990
G1 X1.500 Y3.500 E5.83935
G1 X6.440 Y3.500 E6.08581
G1 X6.900 Y3.100 F7800.000
G1 X6.900 Y8.100 E6.33526 F1225.029
G1 X11.900 Y8.100 E6.58471
G1 X11.900 Y11.900 E6.77429
G1 X3.100 Y11.900 E7.21333
G1 X3.100 Y6.900 E7.46278
G1 X-8.100 Y6.900 E8.02155
G1 X-8.100 Y11.900 E8.27100
G1 X-11.900 Y11.900 E8.46058
G1 X-11.900 Y-11.900 E9.64797
G1 X-8.100 Y-11.900 E9.83755
G1 X-8.100 Y-6.900 E10.08700
G1 X-3.100 Y-6.900 E10.33645
G1 X-3.100 Y-1.900 E10.58590
G1 X1.900 Y-1.900 E10.83535
G1 X1.900 Y3.100 E11.08481
G1 X6.840 Y3.100 E11.33126
G1 X7.300 Y2.700 F7800.000
G1 X7.300 Y7.700 E11.58071 F857.520
G1 X12.300 Y7.700 E11.83016
G1 X12.300 Y12.300 E12.05966
G1 X2.700 Y12.300 E12.53861
G1 X2.700 Y7.300 E12.78806
G1 X-7.700 Y7.300 E13.30691
G1 X-7.700 Y12.300 E13.55637
G1 X-12.300 Y12.300 E13.78586
G1 X-12.300 Y-12.300 E15.01316
G1 X-7.700 Y-12.300 E15.24265
G1 X-7.700 Y-7.300 E15.49211
G1 X-2.700 Y-7.300 E15.74156
G1 X-2.700 Y-2.300 E15.99101
G1 X2.300 Y-2.300 E16.24046
G1 X2.300 Y2.700 E16.48991
G1 X7.240 Y2.700 E16.73637
G1 X7.100 Y3.046 F7800.000
G1 X4.500 Y11.500 F7800.000
G1 X11.227 Y11.185 F7800.000
G1 X11.185 Y11.227 E16.73952 F2450.058
G1 X10.587 Y11.227 E16.77102
G1 X11.227 Y10.587 E16.81872
G1 X11.227 Y9.989 E16.85022
G1 X9.989 Y11.227 E16.94247
G1 X9.392 Y11.227 E16.97397
G1 X11.227 Y9.392 E17.11076
G1 X11.216 Y8.805 E17.14171
G1 X8.794 Y11.227 E17.32226
G1 X8.196 Y11.227 E17.35376
G1 X10.650 Y8.773 E17.53667
G1 X10.053 Y8.773 E17.56817
G1 X7.599 Y11.227 E17.75108
G1 X7.001 Y11.227 E17.78258
G1 X9.455 Y8.773 E17.96549
G1 X8.857 Y8.773 E17.99699
G1 X6.404 Y11.227 E18.17990
G1 X5.806 Y11.227 E18.21140
G1 X8.260 Y8.773 E18.39431
G1 X7.662 Y8.773 E18.42581
G1 X5.208 Y11.227 E18.60872
G1 X4.611 Y11.227 E18.64022
G1 X7.064 Y8.773 E18.82313
G1 X6.467 Y8.773 E18.85463
G1 X4.013 Y11.227 E19.03754
G1 X3.773 Y10.869 E19.06025
G1 X6.227 Y8.415 E19.24316
G1 X6.227 Y7.818 E19.27466
G1 X3.773 Y10.271 E19.45757
G1 X3.773 Y9.674 E19.48907
G1 X6.227 Y7.220 E19.67198
G1 X6.227 Y6.622 E19.70348
G1 X3.773 Y9.076 E19.88639
G1 X3.773 Y8.479 E19.91789
G1 X6.227 Y6.025 E20.10080
G1 X6.227 Y5.427 E20.13230
G1 X3.773 Y7.881 E20.31521
G1 X3.773 Y7.283 E20.34671
G1 X6.227 Y4.829 E20.52962
G1 X6.227 Y4.232 E20.56112
G1 X3.773 Y6.686 E20.74403
G1 X3.634 Y6.227 E20.76929
G1 X6.088 Y3.773 E20.95220
G1 X5.490 Y3.773 E20.98370
G1 X3.037 Y6.227 E21.16661
G1 X2.439 Y6.227 E21.19811
G1 X4.893 Y3.773 E21.38102
G1 X4.295 Y3.773 E21.41252
G1 X1.841 Y6.227 E21.59543
G1 X1.244 Y6.227 E21.62693
G1 X3.697 Y3.773 E21.80984
G1 X3.100 Y3.773 E21.84134
G1 X0.646 Y6.227 E22.02425
G1 X0.048 Y6.227 E22.05575
G1 X2.502 Y3.773 E22.23866
G1 X1.904 Y3.773 E22.27016
G1 X-0.549 Y6.227 E22.45307
G1 X-1.147 Y6.227 E22.48457
G1 X1.307 Y3.773 E22.66748
G1 X1.227 Y3.255 E22.69509
G1 X-1.745 Y6.227 E22.91659
G1 X-2.342 Y6.227 E22.94809
G1 X1.227 Y2.658 E23.21414
G1 X1.227 Y2.060 E23.24564
G1 X-2.940 Y6.227 E23.55624
G1 X-3.538 Y6.227 E23.58774
G1 X1.227 Y1.462 E23.94288
G1 X1.227 Y0.865 E23.97438
G1 X-4.135 Y6.227 E24.37408
G1 X-4.733 Y6.227 E24.40558
G1 X1.227 Y0.267 E24.84982
G1 X1.227 Y-0.330 E24.88132
G1 X-5.330 Y6.227 E25.37011
G1 X-5.928 Y6.227 E25.40161
G1 X1.227 Y-0.928 E25.93496
G1 X0.928 Y-1.227 E25.95723
G1 X-6.526 Y6.227 E26.51284
G1 X-7.123 Y6.227 E26.54435
G1 X0.330 Y-1.227 E27.09996
G1 X-0.267 Y-1.227 E27.13146
G1 X-7.721 Y6.227 E27.68708
G1 X-8.319 Y6.227 E27.71858
G1 X-0.865 Y-1.227 E28.27419
G1 X-1.462 Y-1.227 E28.30569
G1 X-11.227 Y8.538 E29.03354
G1 X-11.227 Y7.940 E29.06504
G1 X-2.060 Y-1.227 E29.74835
G1 X-2.658 Y-1.227 E29.77985
G1 X-11.227 Y7.342 E30.41860
G1 X-11.227 Y6.745 E30.45010
G1 X-3.255 Y-1.227 E31.04430
G1 X-3.773 Y-1.307 E31.07191
G1 X-11.227 Y6.147 E31.62753
G1 X-11.227 Y5.549 E31.65903
G1 X-3.773 Y-1.904 E32.21464
G1 X-3.773 Y-2.502 E32.24615
G1 X-11.227 Y4.952 E32.80176
G1 X-11.227 Y4.354 E32.83326
G1 X-3.773 Y-3.100 E33.38888
G1 X-3.773 Y-3.697 E33.42038
G1 X-11.227 Y3.756 E33.97599
G1 X-11.227 Y3.159 E34.00749
G1 X-3.773 Y-4.295 E34.56311
G1 X-3.773 Y-4.893 E34.59461
G1 X-11.227 Y2.561 E35.15022
G1 X-11.227 Y1.963 E35.18172
G1 X-3.773 Y-5.490 E35.73734
G1 X-3.773 Y-6.088 E35.76884
G1 X-11.227 Y1.366 E36.32445
G1 X-11.227 Y0.768 E36.35595
G1 X-4.232 Y-6.227 E36.87738
G1 X-4.829 Y-6.227 E36.90888
G1 X-11.227 Y0.171 E37.38575
G1 X-11.227 Y-0.427 E37.41725
G1 X-5.427 Y-6.227 E37.84957
G1 X-6.025 Y-6.227 E37.88107
G1 X-11.227 Y-1.025 E38.26885
G1 X-11.227 Y-1.622 E38.30035
G1 X-6.622 Y-6.227 E38.64358
G1 X-7.220 Y-6.227 E38.67508
G1 X-11.227 Y-2.220 E38.97375
G1 X-11.227 Y-2.818 E39.00525
G1 X-7.818 Y-6.227 E39.25938
G1 X-8.415 Y-6.227 E39.29088
G1 X-11.227 Y-3.415 E39.50046
G1 X-11.227 Y-4.013 E39.53196
G1 X-8.773 Y-6.467 E39.71487
G1 X-8.773 Y-7.064 E39.74637
G1 X-11.227 Y-4.611 E39.92928
G1 X-11.227 Y-5.208 E39.96078
G1 X-8.773 Y-7.662 E40.14369
G1 X-8.773 Y-8.260 E40.17519
G1 X-11.227 Y-5.806 E40.35810
G1 X-11.227 Y-6.404 E40.38960
G1 X-8.773 Y-8.857 E40.57251
G1 X-8.773 Y-9.455 E40.60401
G1 X-11.227 Y-7.001 E40.78692
G1 X-11.227 Y-7.599 E40.81842
G1 X-8.773 Y-10.053 E41.00133
G1 X-8.773 Y-10.650 E41.03283
G1 X-11.227 Y-8.196 E41.21574
G1 X-11.227 Y-8.794 E41.24724
G1 X-8.805 Y-11.216 E41.42780
G1 X-9.392 Y-11.227 E41.45874
G1 X-11.227 Y-9.392 E41.59554
G1 X-11.227 Y-9.989 E41.62704
G1 X-9.989 Y-11.227 E41.71929
G1 X-10.587 Y-11.227 E41.75079
G1 X-11.227 Y-10.587 E41.79849
G1 X-11.227 Y-11.185 E41.82999
G1 X-11.185 Y-11.227 E41.83314
G1 X-8.773 Y6.681 F7800.000
G1 X-11.227 Y9.135 E42.01605 F2450.058
G1 X-11.227 Y9.733 E42.04755
G1 X-8.773 Y7.279 E42.23046
G1 X-8.773 Y7.877 E42.26196
G1 X-11.227 Y10.330 E42.44487
G1 X-11.227 Y10.928 E42.47637
G1 X-8.773 Y8.474 E42.65928
G1 X-8.773 Y9.072 E42.69078
G1 X-10.928 Y11.227 E42.85141
G1 X-10.330 Y11.227 E42.88291
G1 X-8.773 Y9.670 E42.99900
G1 X-8.773 Y10.267 E43.03050
G1 X-9.733 Y11.227 E43.10204
G1 X-9.135 Y11.227 E43.13354
G1 X-8.773 Y10.865 E43.16053
G1 F1800.000 E42.16053
G92 E0
G1 Z1.000 F7800.000
G1 X-8.500 Y11.500 F7800.000
G1 E1.00000 F1800.000
G1 X-11.500 Y11.500 E1.14967 F1217.543
G1 X-11.500 Y-11.500 E2.29715
G1 X-8.500 Y-11.500 E2.44682
G1 X-8.500 Y-6.500 E2.69627
G1 X-3.500 Y-6.500 E2.94572
G1 X-3.500 Y-1.500 E3.19517
G1 X1.500 Y-1.500 E3.44462
G1 X1.500 Y3.500 E3.69407
G1 X6.500 Y3.500 E3.94352
G1 X6.500 Y8.500 E4.19297
G1 X11.500 Y8.500 E4.44242
G1 X11.500 Y11.500 E4.59209
G1 X3.500 Y11.500 E4.99122
G1 X3.500 Y6.500 E5.24067
G1 X-8.500 Y6.500 E5.83935
G1 X-8.500 Y11.440 E6.08581
G1 X-8.100 Y11.900 F7800.000
G1 X-11.900 Y11.900 E6.27539 F1217.543
G1 X-11.900 Y-11.900 E7.46278
G1 X-8.100 Y-11.900 E7.65236
G1 X-8.100 Y-6.900 E7.90181
G1 X-3.100 Y-6.900 E8.15126
G1 X-3.100 Y-1.900 E8.40071
G1 X1.900 Y-1.900 E8.65016
G1 X1.900 Y3.100 E8.89961
G1 X6.900 Y3.100 E9.14907
G1 X6.900 Y8.100 E9.39852
G1 X11.900 Y8.100 E9.64797
G1 X11.900 Y11.900 E9.83755
