; generated by Slic3r 1.0.0RC2 on 2014-02-04 at 21:03:11

; layer_height = 0.3
; perimeters = 3
; top_solid_layers = 3
; bottom_solid_layers = 3
; fill_density = 0.4
; perimeter_speed = 30
; infill_speed = 60
; travel_speed = 130
; nozzle_diameter = 0.4
; filament_diameter = 1.75
; extrusion_multiplier = 1
; perimeters extrusion width = 0.40mm
; infill extrusion width = 0.42mm
; solid infill extrusion width = 0.42mm
; top infill extrusion width = 0.42mm
; first layer extrusion width = 0.80mm

G21 ; set units to millimeters
M107
M190 S65 ; wait for bed temperature to be reached
M104 S200 ; set temperature
G28 ; home all axes
G1 Z5 F5000 ; lift nozzle

M109 S200 ; wait for temperature to be reached
G90 ; use absolute coordinates
G92 E0
M82 ; use absolute distances for extrusion
G1 F1800.000 E-1.00000
G92 E0
G1 Z0.400 F7800.000
G1 X10.100 Y-10.110 F7800.000
G1 E1.00000 F1800.000
G1 X30.100 Y9.900 E4.36003 F540.000
G1 X30.930 Y10.920 E4.51621
G1 X31.550 Y12.080 E4.67242
G1 X31.940 Y13.340 E4.82907
G1 X32.060 Y14.650 E4.98530
G1 X32.060 Y25.350 E6.25609
G1 X31.940 Y26.660 E6.41232
G1 X31.550 Y27.920 E6.56897
G1 X30.930 Y29.080 E6.72518
G1 X30.100 Y30.100 E6.88136
G1 X29.080 Y30.930 E7.03754
G1 X27.920 Y31.550 E7.19375
G1 X26.660 Y31.940 E7.35040
G1 X25.350 Y32.060 E7.50663
G1 X-25.350 Y32.060 E13.52803
G1 X-26.660 Y31.940 E13.68426
G1 X-27.920 Y31.550 E13.84091
G1 X-29.080 Y30.930 E13.99712
G1 X-30.100 Y30.100 E14.15330
G1 X-30.930 Y29.080 E14.30948
G1 X-31.550 Y27.920 E14.46569
G1 X-31.940 Y26.660 E14.62234
G1 X-32.060 Y25.350 E14.77857
G1 X-32.060 Y-25.350 E20.79997
G1 X-31.940 Y-26.660 E20.95620
G1 X-31.550 Y-27.920 E21.11285
G1 X-30.930 Y-29.080 E21.26906
G1 X-30.100 Y-30.100 E21.42524
G1 X-29.080 Y-30.930 E21.58142
G1 X-27.920 Y-31.550 E21.73763
G1 X-26.660 Y-31.940 E21.89428
G1 X-25.350 Y-32.060 E22.05051
G1 X-14.650 Y-32.060 E23.32130
G1 X-13.340 Y-31.940 E23.47753
G1 X-12.080 Y-31.550 E23.63418
G1 X-10.920 Y-30.930 E23.79039
G1 X-9.900 Y-30.100 E23.94657
G1 X10.024 Y-10.186 E27.29220
G1 F1800.000 E26.29220
G92 E0
G1 X-25.171 Y-25.174 F7800.000
G1 E1.00000 F1800.000
G1 X-24.942 Y-24.941 E1.03886 F378.000
G1 X-15.059 Y-24.943 E2.21255
G1 X-14.822 Y-25.171 E2.25168
G1 X-15.059 Y-24.943 F7800.000
G1 X-15.000 Y-15.000 E3.43254 F378.000
G1 X-15.529 Y-14.996 E3.49532
G1 X-24.912 Y-15.000 E4.60980
G1 X-24.942 Y-24.941 E5.79046
G1 X-24.912 Y-15.000 F7800.000
G1 X-24.913 Y-5.000 E6.97811 F378.000
G1 X-15.529 Y-4.996 E8.09260
G1 X-15.000 Y-5.000 E8.15537
G1 X-15.000 Y-15.000 E9.34302
G1 X-5.059 Y-14.941 E10.52373 F378.000
G1 X-4.651 Y-15.171 E10.57935
G1 X-5.059 Y-14.941 F7800.000
G1 X-5.000 Y-5.000 E11.76003 F378.000
G1 X4.941 Y-4.941 E12.94074
G1 X5.349 Y-5.171 E12.99635
G1 X4.941 Y-4.941 F7800.000
G1 X5.000 Y5.000 E14.17703 F378.000
G1 X14.941 Y5.059 E15.35775
G1 X15.349 Y4.829 E15.41336
G1 X14.941 Y5.059 F7800.000
G1 X15.000 Y15.000 E16.59404 F378.000
G1 X24.941 Y15.059 E17.77475
G1 X25.349 Y14.829 E17.83037
G1 X24.941 Y15.059 F7800.000
G1 X24.943 Y24.941 E19.00398 F378.000
G1 X15.173 Y25.000 E20.16427
G1 X15.000 Y24.913 E20.18734
G1 X15.000 Y15.000 E21.36460
G1 X5.000 Y15.000 E22.55225 F378.000
G1 X5.000 Y24.913 E23.72951 F378.000
G1 X4.818 Y25.003 E23.75364
G1 X-5.000 Y24.913 E24.91972
G1 X-5.000 Y15.000 E26.09698
G1 X-15.000 Y15.000 E27.28463 F378.000
G1 X-15.000 Y24.912 E28.46189 F378.000
G1 X-15.536 Y25.002 E28.52639
G1 X-24.941 Y24.942 E29.64344
G1 X-24.913 Y15.000 E30.82419
G1 X-24.941 Y24.942 F7800.000
G1 X-25.174 Y25.171 E30.86306 F378.000
G1 X-15.000 Y24.912 F7800.000
G1 X-5.000 Y24.913 E32.05071 F378.000
G1 X5.000 Y24.913 F7800.000
G1 X15.000 Y24.913 E33.23836 F378.000
G1 X24.943 Y24.941 F7800.000
G1 X25.171 Y25.178 E33.27748 F378.000
G1 F1800.000 E32.27748
G92 E0
G1 X5.000 Y5.000 F7800.000
G1 E1.00000 F1800.000
G1 X5.000 Y15.000 E2.18765 F378.000
G1 X4.471 Y15.004 E2.25043
G1 X-5.000 Y15.000 E3.37531
G1 X-5.000 Y5.000 E4.56296
G1 X-15.000 Y5.000 E5.75061 F378.000
G1 X-15.000 Y15.000 E6.93826 F378.000
G1 X-15.529 Y15.004 E7.00103
G1 X-24.913 Y15.000 E8.11552
G1 X-24.913 Y5.000 E9.30318
G1 X-24.913 Y-5.000 F7800.000
G1 X-24.913 Y5.000 E10.49083 F378.000
G1 X-15.529 Y5.004 E11.60532
G1 X-15.000 Y5.000 E11.66809
G1 X-15.000 Y-5.000 E12.85574
G1 X-5.000 Y-5.000 E14.04339 F378.000
G1 X-5.000 Y5.000 E15.23105 F378.000
G1 X5.000 Y5.000 E16.41870
M106 S255
M104 S195 ; set temperature
M140 S60 ; set bed temperature
G1 F1800.000 E15.41870
G92 E0
G1 Z0.700 F7800.000
G1 X-25.250 Y-25.300 F7800.000
G1 E1.00000 F1800.000
G1 X-24.947 Y-24.937 E1.02360 F804.642
G1 X-24.650 Y-25.007 E1.03880
G1 X-15.063 Y-24.947 E1.51711
G1 X-14.700 Y-25.250 E1.54071
G1 X-15.063 Y-24.947 F7800.000
G1 X-14.993 Y-24.650 E1.55591 F804.642
G1 X-15.000 Y-15.000 E2.03735
G1 X-5.350 Y-15.007 E2.51879
G1 X-5.060 Y-14.940 E2.53364
G1 X-4.750 Y-15.250 E2.55551
G1 X-5.060 Y-14.940 F7800.000
G1 X-4.993 Y-14.650 E2.57037 F804.642
G1 X-5.000 Y-5.000 E3.05181
G1 X4.650 Y-5.007 E3.53325
G1 X4.940 Y-4.940 E3.54810
G1 X5.250 Y-5.250 E3.56997
G1 X4.940 Y-4.940 F7800.000
G1 X5.007 Y-4.650 E3.58482 F804.642
G1 X5.000 Y5.000 E4.06626
G1 X14.650 Y4.993 E4.54770
G1 X14.940 Y5.060 E4.56255
G1 X15.250 Y4.750 E4.58442
G1 X14.940 Y5.060 F7800.000
G1 X15.007 Y5.350 E4.59928 F804.642
G1 X15.000 Y15.000 E5.08072
G1 X24.650 Y14.993 E5.56216
G1 X24.940 Y15.060 E5.57701
G1 X25.250 Y14.750 E5.59888
G1 X24.940 Y15.060 F7800.000
G1 X25.007 Y15.350 E5.61373 F804.642
G1 X24.947 Y24.937 E6.09205
G1 X25.250 Y25.300 E6.11565
G1 X24.947 Y24.937 F7800.000
G1 X24.650 Y25.007 E6.13085 F804.642
G1 X15.250 Y25.000 E6.59981
G1 X15.000 Y24.914 E6.61300
G1 X15.000 Y15.000 E7.10762
G1 X5.000 Y15.000 E7.60653 F804.642
G1 X5.000 Y24.914 E8.10115 F804.642
G1 X4.650 Y25.007 E8.11922
G1 X-4.750 Y25.000 E8.58819
G1 X-5.000 Y24.914 E8.60137
G1 X-5.000 Y15.000 E9.09600
G1 X-15.000 Y15.000 E9.59490 F804.642
G1 X-15.000 Y24.914 E10.08952 F804.642
G1 X-14.750 Y25.000 E10.10271
G1 X-5.350 Y25.007 E10.57168
G1 X-5.000 Y24.914 E10.58974
G1 X-15.000 Y24.914 F7800.000
G1 X-15.350 Y25.007 E10.60781 F804.642
G1 X-24.937 Y24.947 E11.08613
G1 X-25.300 Y25.250 F7800.000
G1 X-24.937 Y24.947 E11.10972 F804.642
G1 X-25.007 Y24.650 E11.12492
G1 X-25.000 Y15.250 E11.59389
G1 X-24.914 Y15.000 E11.60708
G1 X-24.914 Y5.000 F7800.000
G1 X-25.000 Y5.250 E11.62026 F804.642
G1 X-25.007 Y14.650 E12.08923
G1 X-24.914 Y15.000 E12.10730
G1 X-15.450 Y15.007 E12.57947
G1 X-15.000 Y15.000 E12.60192
G1 X-15.000 Y5.000 E13.10083
G1 X-5.000 Y5.000 E13.59973 F804.642
G1 X-5.000 Y15.000 E14.09863 F804.642
G1 X4.550 Y15.007 E14.57508
G1 X5.000 Y15.000 E14.59754
G1 X5.000 Y5.000 E15.09644
G1 X-5.000 Y5.000 E15.59534 F804.642
G1 X-5.000 Y-5.000 E16.09424
G1 X-15.000 Y-5.000 E16.59314 F804.642
G1 X-15.000 Y5.000 E17.09205 F804.642
G1 X-15.450 Y5.007 E17.11450
G1 X-24.914 Y5.000 E17.58667
G1 X-25.007 Y4.650 E17.60474
G1 X-25.000 Y-4.750 E18.07371
G1 X-24.914 Y-5.000 E18.08689
G1 X-24.914 Y-15.000 F7800.000
G1 X-25.000 Y-14.750 E18.10008 F804.642
G1 X-25.007 Y-5.350 E18.56905
G1 X-24.914 Y-5.000 E18.58711
G1 X-15.450 Y-4.993 E19.05929
G1 X-15.000 Y-5.000 E19.08174
G1 X-15.000 Y-15.000 E19.58064
G1 X-24.914 Y-15.000 E20.07527 F804.642
G1 X-25.007 Y-15.350 E20.09333
G1 X-24.947 Y-24.937 E20.57165
G1 F1800.000 E19.57165
G92 E0
G1 X5.000 Y24.914 F7800.000
G1 E1.00000 F1800.000
G1 X5.250 Y25.000 E1.01319 F804.642
G1 X14.650 Y25.007 E1.48215
G1 X15.000 Y24.914 E1.50022
G1 F1800.000 E0.50022
G92 E0
G1 Z1.000 F7800.000
G1 X-25.250 Y-25.300 F7800.000
G1 E1.00000 F1800.000
G1 X-24.947 Y-24.937 E1.02360 F804.642
G1 X-24.650 Y-25.007 E1.03880
G1 X-15.063 Y-24.947 E1.51711
G1 X-14.700 Y-25.250 E1.54071
G1 X-15.063 Y-24.947 F7800.000
G1 X-14.993 Y-24.650 E1.55591 F804.642
G1 X-15.000 Y-15.000 E2.03735
G1 X-5.350 Y-15.007 E2.51879
G1 X-5.060 Y-14.940 E2.53364
G1 X-4.750 Y-15.250 E2.55551
G1 X-5.060 Y-14.940 F7800.000
G1 X-4.993 Y-14.650 E2.57037 F804.642
G1 X-5.000 Y-5.000 E3.05181
G1 X4.650 Y-5.007 E3.53325
G1 X4.940 Y-4.940 E3.54810
G1 X5.250 Y-5.250 E3.56997
G1 X4.940 Y-4.940 F7800.000
G1 X5.007 Y-4.650 E3.58482 F804.642
G1 X5.000 Y5.000 E4.06626
G1 X14.650 Y4.993 E4.54770
G1 X14.940 Y5.060 E4.56255
G1 X15.250 Y4.750 E4.58442
G1 X14.940 Y5.060 F7800.000
G1 X15.007 Y5.350 E4.59928 F804.642
G1 X15.000 Y15.000 E5.08072
G1 X24.650 Y14.993 E5.56216
G1 X24.940 Y15.060 E5.57701
G1 X25.250 Y14.750 E5.59888
G1 X24.940 Y15.060 F7800.000
G1 X25.007 Y15.350 E5.61373 F804.642
G1 X24.947 Y24.937 E6.09205
G1 X25.250 Y25.300 E6.11565
G1 X24.947 Y24.937 F7800.000
G1 X24.650 Y25.007 E6.13085 F804.642
G1 X15.250 Y25.000 E6.59981
G1 X15.000 Y24.914 E6.61300
G1 X15.000 Y15.000 E7.10762
G1 X5.000 Y15.000 E7.60653 F804.642
G1 X5.000 Y24.914 E8.10115 F804.642
G1 X4.650 Y25.007 E8.11922
G1 X-4.750 Y25.000 E8.58819
G1 X-5.000 Y24.914 E8.60137
G1 X-5.000 Y15.000 E9.09600
G1 X-15.000 Y15.000 E9.59490 F804.642
G1 X-15.000 Y24.914 E10.08952 F804.642
G1 X-14.750 Y25.000 E10.10271
G1 X-5.350 Y25.007 E10.57168
G1 X-5.000 Y24.914 E10.58974
G1 X-15.000 Y24.914 F7800.000
G1 X-15.350 Y25.007 E10.60781 F804.642
G1 X-24.937 Y24.947 E11.08613
G1 X-25.300 Y25.250 F7800.000
G1 X-24.937 Y24.947 E11.10972 F804.642
G1 X-25.007 Y24.650 E11.12492
G1 X-25.000 Y15.250 E11.59389
G1 X-24.914 Y15.000 E11.60708
G1 X-24.914 Y5.000 F7800.000
G1 X-25.000 Y5.250 E11.62026 F804.642
G1 X-25.007 Y14.650 E12.08923
G1 X-24.914 Y15.000 E12.10730
G1 X-15.450 Y15.007 E12.57947
G1 X-15.000 Y15.000 E12.60192
G1 X-15.000 Y5.000 E13.10083
G1 X-5.000 Y5.000 E13.59973 F804.642
G1 X-5.000 Y15.000 E14.09863 F804.642
G1 X4.550 Y15.007 E14.57508
G1 X5.000 Y15.000 E14.59754
G1 X5.000 Y5.000 E15.09644
G1 X-5.000 Y5.000 E15.59534 F804.642
G1 X-5.000 Y-5.000 E16.09424
G1 X-15.000 Y-5.000 E16.59314 F804.642
G1 X-15.000 Y5.000 E17.09205 F804.642
G1 X-15.450 Y5.007 E17.11450
G1 X-24.914 Y5.000 E17.58667
G1 X-25.007 Y4.650 E17.60474
G1 X-25.000 Y-4.750 E18.07371
G1 X-24.914 Y-5.000 E18.08689
G1 X-24.914 Y-15.000 F7800.000
G1 X-25.000 Y-14.750 E18.10008 F804.642
G1 X-25.007 Y-5.350 E18.56905
G1 X-24.914 Y-5.000 E18.58711
G1 X-15.450 Y-4.993 E19.05929
G1 X-15.000 Y-5.000 E19.08174
G1 X-15.000 Y-15.000 E19.58064
G1 X-24.914 Y-15.000 E20.07527 F804.642
G1 X-25.007 Y-15.350 E20.09333
G1 X-24.947 Y-24.937 E20.57165
G1 F1800.000 E19.57165
G92 E0
G1 X5.000 Y24.914 F7800.000
G1 E1.00000 F1800.000
G1 X5.250 Y25.000 E1.01319 F804.642
G1 X14.650 Y25.007 E1.48215
G1 X15.000 Y24.914 E1.50022
G1 F1800.000 E0.50022
G92 E0
G1 Z1.300 F7800.000
G1 X-25.250 Y-25.300 F7800.000
G1 E1.00000 F1800.000
G1 X-24.947 Y-24.937 E1.02360 F804.642
G1 X-24.650 Y-25.007 E1.03880
G1 X-15.063 Y-24.947 E1.51711
G1 X-14.700 Y-25.250 E1.54071
G1 X-15.063 Y-24.947 F7800.000
G1 X-14.993 Y-24.650 E1.55591 F804.642
G1 X-15.000 Y-15.000 E2.03735
G1 X-5.350 Y-15.007 E2.51879
G1 X-5.060 Y-14.940 E2.53364
G1 X-4.750 Y-15.250 E2.55551
G1 X-5.060 Y-14.940 F7800.000
G1 X-4.993 Y-14.650 E2.57037 F804.642
G1 X-5.000 Y-5.000 E3.05181
G1 X4.650 Y-5.007 E3.53325
G1 X4.940 Y-4.940 E3.54810
G1 X5.250 Y-5.250 E3.56997
G1 X4.940 Y-4.940 F7800.000
G1 X5.007 Y-4.650 E3.58482 F804.642
G1 X5.000 Y5.000 E4.06626
G1 X14.650 Y4.993 E4.54770
G1 X14.940 Y5.060 E4.56255
G1 X15.250 Y4.750 E4.58442
G1 X14.940 Y5.060 F7800.000
G1 X15.007 Y5.350 E4.59928 F804.642
G1 X15.000 Y15.000 E5.08072
G1 X24.650 Y14.993 E5.56216
G1 X24.940 Y15.060 E5.57701
G1 X25.250 Y14.750 E5.59888
G1 X24.940 Y15.060 F7800.000
G1 X25.007 Y15.350 E5.61373 F804.642
G1 X24.947 Y24.937 E6.09205
G1 X25.250 Y25.300 E6.11565
G1 X24.947 Y24.937 F7800.000
G1 X24.650 Y25.007 E6.13085 F804.642
G1 X15.250 Y25.000 E6.59981
G1 X15.000 Y24.914 E6.61300
G1 X15.000 Y15.000 E7.10762
G1 X5.000 Y15.000 E7.60653 F804.642
G1 X5.000 Y24.914 E8.10115 F804.642
G1 X4.650 Y25.007 E8.11922
G1 X-4.750 Y25.000 E8.58819
G1 X-5.000 Y24.914 E8.60137
G1 X-5.000 Y15.000 E9.09600
G1 X-15.000 Y15.000 E9.59490 F804.642
G1 X-15.000 Y24.914 E10.08952 F804.642
G1 X-14.750 Y25.000 E10.10271
G1 X-5.350 Y25.007 E10.57168
G1 X-5.000 Y24.914 E10.58974
G1 X-15.000 Y24.914 F7800.000
G1 X-15.350 Y25.007 E10.60781 F804.642
G1 X-24.937 Y24.947 E11.08613
G1 X-25.300 Y25.250 F7800.000
G1 X-24.937 Y24.947 E11.10972 F804.642
G1 X-25.007 Y24.650 E11.12492
G1 X-25.000 Y15.250 E11.59389
G1 X-24.914 Y15.000 E11.60708
G1 X-24.914 Y5.000 F7800.000
G1 X-25.000 Y5.250 E11.62026 F804.642
G1 X-25.007 Y14.650 E12.08923
G1 X-24.914 Y15.000 E12.10730
G1 X-15.450 Y15.007 E12.57947
G1 X-15.000 Y15.000 E12.60192
G1 X-15.000 Y5.000 E13.10083
G1 X-5.000 Y5.000 E13.59973 F804.642
G1 X-5.000 Y15.000 E14.09863 F804.642
G1 X4.550 Y15.007 E14.57508
G1 X5.000 Y15.000 E14.59754
G1 X5.000 Y5.000 E15.09644
G1 X-5.000 Y5.000 E15.59534 F804.642
G1 X-5.000 Y-5.000 E16.09424
G1 X-15.000 Y-5.000 E16.59314 F804.642
G1 X-15.000 Y5.000 E17.09205 F804.642
G1 X-15.450 Y5.007 E17.11450
G1 X-24.914 Y5.000 E17.58667
G1 X-25.007 Y4.650 E17.60474
G1 X-25.000 Y-4.750 E18.07371
G1 X-24.914 Y-5.000 E18.08689
G1 X-24.914 Y-15.000 F7800.000
G1 X-25.000 Y-14.750 E18.10008 F804.642
G1 X-25.007 Y-5.350 E18.56905
G1 X-24.914 Y-5.000 E18.58711
G1 X-15.450 Y-4.993 E19.05929
G1 X-15.000 Y-5.000 E19.08174
G1 X-15.000 Y-15.000 E19.58064
G1 X-24.914 Y-15.000 E20.07527 F804.642
G1 X-25.007 Y-15.350 E20.09333
G1 X-24.947 Y-24.937 E20.57165
G1 F1800.000 E19.57165
G92 E0
G1 X5.000 Y24.914 F7800.000
G1 E1.00000 F1800.000
G1 X5.250 Y25.000 E1.01319 F804.642
G1 X14.650 Y25.007 E1.48215
G1 X15.000 Y24.914 E1.50022
G1 F1800.000 E0.50022
G92 E0
G1 Z1.600 F7800.000
G1 X-25.250 Y-25.300 F7800.000
G1 E1.00000 F1800.000
G1 X-24.947 Y-24.937 E1.02360 F804.642
G1 X-24.650 Y-25.007 E1.03880
G1 X-15.063 Y-24.947 E1.51711
G1 X-14.700 Y-25.250 E1.54071
G1 X-15.063 Y-24.947 F7800.000
G1 X-14.993 Y-24.650 E1.55591 F804.642
G1 X-15.000 Y-15.000 E2.03735
G1 X-5.350 Y-15.007 E2.51879
G1 X-5.060 Y-14.940 E2.53364
G1 X-4.750 Y-15.250 E2.55551
G1 X-5.060 Y-14.940 F7800.000
G1 X-4.993 Y-14.650 E2.57037 F804.642
G1 X-5.000 Y-5.000 E3.05181
G1 X4.650 Y-5.007 E3.53325
G1 X4.940 Y-4.940 E3.54810
G1 X5.250 Y-5.250 E3.56997
G1 X4.940 Y-4.940 F7800.000
G1 X5.007 Y-4.650 E3.58482 F804.642
G1 X5.000 Y5.000 E4.06626
G1 X14.650 Y4.993 E4.54770
G1 X14.940 Y5.060 E4.56255
G1 X15.250 Y4.750 E4.58442
G1 X14.940 Y5.060 F7800.000
G1 X15.007 Y5.350 E4.59928 F804.642
G1 X15.000 Y15.000 E5.08072
G1 X24.650 Y14.993 E5.56216
G1 X24.940 Y15.060 E5.57701
G1 X25.250 Y14.750 E5.59888
G1 X24.940 Y15.060 F7800.000
G1 X25.007 Y15.350 E5.61373 F804.642
G1 X24.947 Y24.937 E6.09205
G1 X25.250 Y25.300 E6.11565
G1 X24.947 Y24.937 F7800.000
G1 X24.650 Y25.007 E6.13085 F804.642
G1 X15.250 Y25.000 E6.59981
G1 X15.000 Y24.914 E6.61300
G1 X15.000 Y15.000 E7.10762
G1 X5.000 Y15.000 E7.60653 F804.642
G1 X5.000 Y24.914 E8.10115 F804.642
G1 X4.650 Y25.007 E8.11922
G1 X-4.750 Y25.000 E8.58819
G1 X-5.000 Y24.914 E8.60137
G1 X-5.000 Y15.000 E9.09600
G1 X-15.000 Y15.000 E9.59490 F804.642
G1 X-15.000 Y24.914 E10.08952 F804.642
G1 X-14.750 Y25.000 E10.10271
G1 X-5.350 Y25.007 E10.57168
G1 X-5.000 Y24.914 E10.58974
G1 X-15.000 Y24.914 F7800.000
G1 X-15.350 Y25.007 E10.60781 F804.642
G1 X-24.937 Y24.947 E11.08613
G1 X-25.300 Y25.250 F7800.000
G1 X-24.937 Y24.947 E11.10972 F804.642
G1 X-25.007 Y24.650 E11.12492
G1 X-25.000 Y15.250 E11.59389
G1 X-24.914 Y15.000 E11.60708
G1 X-24.914 Y5.000 F7800.000
G1 X-25.000 Y5.250 E11.62026 F804.642
G1 X-25.007 Y14.650 E12.08923
G1 X-24.914 Y15.000 E12.10730
G1 X-15.450 Y15.007 E12.57947
G1 X-15.000 Y15.000 E12.60192
G1 X-15.000 Y5.000 E13.10083
G1 X-5.000 Y5.000 E13.59973 F804.642
G1 X-5.000 Y15.000 E14.09863 F804.642
G1 X4.550 Y15.007 E14.57508
G1 X5.000 Y15.000 E14.59754
G1 X5.000 Y5.000 E15.09644
G1 X-5.000 Y5.000 E15.59534 F804.642
G1 X-5.000 Y-5.000 E16.09424
G1 X-15.000 Y-5.000 E16.59314 F804.642
G1 X-15.000 Y5.000 E17.09205 F804.642
G1 X-15.450 Y5.007 E17.11450
G1 X-24.914 Y5.000 E17.58667
G1 X-25.007 Y4.650 E17.60474
G1 X-25.000 Y-4.750 E18.07371
G1 X-24.914 Y-5.000 E18.08689
G1 X-24.914 Y-15.000 F7800.000
G1 X-25.000 Y-14.750 E18.10008 F804.642
G1 X-25.007 Y-5.350 E18.56905
G1 X-24.914 Y-5.000 E18.58711
G1 X-15.450 Y-4.993 E19.05929
