; generated by Slic3r 1.0.0RC2 on 2014-02-13 at 21:01:54

; layer_height = 0.25
; perimeters = 3
; top_solid_layers = 3
; bottom_solid_layers = 3
; fill_density = 0.4
; perimeter_speed = 60
; infill_speed = 100
; travel_speed = 200
; nozzle_diameter = 0.4
; filament_diameter = 1.75
; extrusion_multiplier = 1.1
; perimeters extrusion width = 0.40mm
; infill extrusion width = 0.53mm
; solid infill extrusion width = 0.53mm
; top infill extrusion width = 0.53mm
; first layer extrusion width = 0.50mm

G21 ; set units to millimeters
M107
M190 S65 ; wait for bed temperature to be reached
M104 S200 ; set temperature
G28 ; home all axes
G1 Z5 F5000 ; lift nozzle
M207 S1 F30 Z1
M208 S1 F30
M109 S200 ; wait for temperature to be reached
G90 ; use absolute coordinates
G92 E0
M82 ; use absolute distances for extrusion
M204 S9000
G1 Z0.250 F12000.000
G1 X40.586 Y-9.691 F12000.000
G1 X44.556 Y-2.280 E0.45994 F1440.000
G1 X44.845 Y-1.660 E0.49739
G1 X45.075 Y-1.011 E0.53511
G1 X47.435 Y6.789 E0.98097
G1 X47.595 Y7.440 E1.01760
G1 X47.696 Y8.119 E1.05520
G1 X48.495 Y16.229 E1.50107
G1 X48.535 Y16.910 E1.53834
G1 X48.495 Y17.590 E1.57561
G1 X47.696 Y25.700 E2.02148
G1 X47.595 Y26.369 E2.05854
G1 X47.435 Y27.030 E2.09570
G1 X45.075 Y34.839 E2.54208
G1 X44.845 Y35.489 E2.57981
G1 X44.556 Y36.110 E2.61726
G1 X40.715 Y43.300 E3.06323
G1 X40.355 Y43.890 E3.10104
G1 X39.946 Y44.440 E3.13857
G1 X34.765 Y50.739 E3.58481
G1 X34.315 Y51.239 E3.62162
G1 X33.806 Y51.699 E3.65919
G1 X27.506 Y56.869 E4.10509
G1 X26.955 Y57.280 E4.14262
G1 X26.375 Y57.630 E4.17968
G1 X19.185 Y61.470 E4.62565
G1 X18.566 Y61.759 E4.66310
G1 X17.925 Y61.989 E4.70031
G1 X10.126 Y64.359 E5.14633
G1 X9.465 Y64.519 E5.18349
G1 X8.785 Y64.619 E5.22109
G1 X0.675 Y65.419 E5.66696
G1 X-0.005 Y65.459 E5.70423
G1 X-0.684 Y65.419 E5.74150
G1 X-8.794 Y64.619 E6.18737
G1 X-9.474 Y64.519 E6.22497
G1 X-10.134 Y64.359 E6.26213
G1 X-17.934 Y61.989 E6.70815
G1 X-18.575 Y61.759 E6.74536
G1 X-19.194 Y61.470 E6.78281
G1 X-26.384 Y57.630 E7.22878
G1 X-26.965 Y57.280 E7.26584
G1 X-27.514 Y56.869 E7.30337
G1 X-33.825 Y51.699 E7.74969
G1 X-34.334 Y51.239 E7.78727
G1 X-34.794 Y50.729 E7.82484
G1 X-39.965 Y44.429 E8.27074
G1 X-40.374 Y43.880 E8.30827
G1 X-40.724 Y43.300 E8.34533
G1 X-44.564 Y36.110 E8.79130
G1 X-44.855 Y35.489 E8.82875
G1 X-45.084 Y34.849 E8.86596
G1 X-47.454 Y27.039 E9.31250
G1 X-47.614 Y26.369 E9.35019
G1 X-47.715 Y25.690 E9.38779
G1 X-48.505 Y17.580 E9.83361
G1 X-48.544 Y16.910 E9.87033
G1 X-48.505 Y16.239 E9.90706
G1 X-47.715 Y8.130 E10.35287
G1 X-47.614 Y7.440 E10.39102
G1 X-47.454 Y6.780 E10.42818
G1 X-45.084 Y-1.020 E10.87420
G1 X-44.855 Y-1.660 E10.91140
G1 X-44.564 Y-2.280 E10.94885
G1 X-40.724 Y-9.470 E11.39482
G1 X-13.845 Y-55.710 E14.32112
G1 X-13.514 Y-56.230 E14.35482
G1 X-11.075 Y-59.680 E14.58601
G1 X-10.465 Y-60.420 E14.63848
G1 X-9.764 Y-61.070 E14.69075
G1 X-7.124 Y-63.200 E14.87634
G1 X-5.885 Y-64.000 E14.95707
G1 X-4.495 Y-64.520 E15.03827
G1 X-1.694 Y-65.250 E15.19659
G1 X0.026 Y-65.460 E15.29139
G1 X1.736 Y-65.240 E15.38572
G1 X4.486 Y-64.530 E15.54111
G1 X5.865 Y-64.010 E15.62180
G1 X7.115 Y-63.200 E15.70329
G1 X9.755 Y-61.070 E15.88888
G1 X10.456 Y-60.420 E15.94115
G1 X11.066 Y-59.680 E15.99362
G1 X13.505 Y-56.230 E16.22481
G1 X13.835 Y-55.710 E16.25851
G1 X40.549 Y-9.753 E19.16690
G1 X40.175 Y-9.450 F12000.000
G1 X44.125 Y-2.050 E19.62584 F1440.000
G1 X44.405 Y-1.480 E19.66058
G1 X44.616 Y-0.880 E19.69536
G1 X46.976 Y6.920 E20.14123
G1 X47.125 Y7.539 E20.17613
G1 X47.226 Y8.160 E20.21049
G1 X48.026 Y16.270 E20.65636
G1 X48.056 Y16.910 E20.69141
G1 X48.026 Y17.550 E20.72646
G1 X47.226 Y25.660 E21.17233
G1 X47.125 Y26.280 E21.20669
G1 X46.976 Y26.890 E21.24106
G1 X44.616 Y34.700 E21.68745
G1 X44.405 Y35.310 E21.72275
G1 X44.125 Y35.880 E21.75749
G1 X40.285 Y43.069 E22.20346
G1 X39.965 Y43.619 E22.23827
G1 X39.575 Y44.130 E22.27340
G1 X34.395 Y50.429 E22.71964
G1 X33.976 Y50.899 E22.75413
G1 X33.506 Y51.330 E22.78898
G1 X27.205 Y56.500 E23.23487
G1 X26.696 Y56.880 E23.26967
G1 X26.146 Y57.199 E23.30449
G1 X18.956 Y61.039 E23.75045
G1 X18.386 Y61.319 E23.78520
G1 X17.785 Y61.530 E23.81998
G1 X9.986 Y63.899 E24.26600
G1 X9.376 Y64.049 E24.30037
G1 X8.745 Y64.149 E24.33527
G1 X0.636 Y64.950 E24.78114
G1 X-0.005 Y64.980 E24.81619
G1 X-0.645 Y64.950 E24.85125
G1 X-8.755 Y64.149 E25.29712
G1 X-9.385 Y64.049 E25.33202
G1 X-9.994 Y63.899 E25.36639
G1 X-17.794 Y61.530 E25.81241
G1 X-18.395 Y61.319 E25.84719
G1 X-18.965 Y61.039 E25.88193
G1 X-26.154 Y57.199 E26.32790
G1 X-26.704 Y56.880 E26.36272
G1 X-27.215 Y56.500 E26.39751
G1 X-33.524 Y51.330 E26.84383
G1 X-33.995 Y50.899 E26.87868
G1 X-34.425 Y50.429 E26.91354
G1 X-39.594 Y44.130 E27.35943
G1 X-39.974 Y43.619 E27.39423
G1 X-40.294 Y43.069 E27.42904
G1 X-44.134 Y35.880 E27.87501
G1 X-44.414 Y35.310 E27.90976
G1 X-44.624 Y34.709 E27.94454
G1 X-46.995 Y26.899 E28.39108
G1 X-47.145 Y26.280 E28.42598
G1 X-47.245 Y25.649 E28.46088
G1 X-48.034 Y17.539 E28.90670
G1 X-48.064 Y16.910 E28.94121
G1 X-48.034 Y16.280 E28.97571
G1 X-47.245 Y8.170 E29.42153
G1 X-47.145 Y7.539 E29.45643
G1 X-46.995 Y6.920 E29.49133
G1 X-44.624 Y-0.880 E29.93735
G1 X-44.414 Y-1.480 E29.97213
G1 X-44.134 Y-2.050 E30.00688
G1 X-40.184 Y-9.450 E30.46582
G1 X-13.434 Y-55.470 E33.37814
G1 X-13.125 Y-55.950 E33.40940
G1 X-10.684 Y-59.400 E33.64059
G1 X-10.114 Y-60.090 E33.68956
G1 X-9.465 Y-60.700 E33.73833
G1 X-6.825 Y-62.830 E33.92392
G1 X-5.664 Y-63.580 E33.99950
G1 X-4.374 Y-64.060 E34.07480
G1 X-1.575 Y-64.790 E34.23312
G1 X0.016 Y-64.980 E34.32073
G1 X1.615 Y-64.770 E34.40902
G1 X4.365 Y-64.060 E34.56441
G1 X5.655 Y-63.580 E34.63972
G1 X6.816 Y-62.830 E34.71530
G1 X9.456 Y-60.700 E34.90089
G1 X10.105 Y-60.090 E34.94966
G1 X10.675 Y-59.400 E34.99862
G1 X13.115 Y-55.950 E35.22982
G1 X13.425 Y-55.470 E35.26108
G1 X40.139 Y-9.513 E38.16947
G1 X11.977 Y-21.936 F12000.000
G1 X7.970 Y-23.152 E38.39859 F1440.000
G1 X0.000 Y-23.936 E38.83671
G1 X-7.970 Y-23.151 E39.27489
G1 X-11.977 Y-21.936 E39.50400
G1 X-11.787 Y-27.030 E39.78287
G1 X-11.139 Y-32.694 E40.09482
G1 X-10.083 Y-37.928 E40.38693
G1 X-8.656 Y-42.537 E40.65090
G1 X-6.899 Y-46.358 E40.88101
G1 X-4.852 Y-49.257 E41.07522
G1 X-2.534 Y-51.120 E41.23789
G1 X0.001 Y-51.781 E41.38122
G1 X2.535 Y-51.120 E41.52455
G1 X4.852 Y-49.257 E41.68718
G1 X6.899 Y-46.358 E41.88138
G1 X8.656 Y-42.537 E42.11149
G1 X10.084 Y-37.928 E42.37548
G1 X11.140 Y-32.694 E42.66759
G1 X11.787 Y-27.030 E42.97953
G1 X11.974 Y-22.008 E43.25447
G1 X11.474 Y-22.589 F12000.000
G1 X8.063 Y-23.623 E43.44946 F1008.000
G1 X0.000 Y-24.417 E43.89274
G1 X-8.063 Y-23.623 E44.33607
G1 X-11.474 Y-22.589 E44.53105
G1 X-11.310 Y-26.993 E44.77221
G1 X-10.666 Y-32.620 E45.08204
G1 X-9.619 Y-37.809 E45.37170
G1 X-8.208 Y-42.365 E45.63263
G1 X-6.483 Y-46.118 E45.85862
G1 X-4.499 Y-48.926 E46.04674
G1 X-2.314 Y-50.683 E46.20013
G1 X0.001 Y-51.287 E46.33102
G1 X2.315 Y-50.683 E46.46191
G1 X4.499 Y-48.926 E46.61526
G1 X6.483 Y-46.118 E46.80338
G1 X8.208 Y-42.365 E47.02936
G1 X9.620 Y-37.809 E47.29031
G1 X10.667 Y-32.619 E47.57998
G1 X11.310 Y-26.993 E47.88980
G1 X11.471 Y-22.660 E48.12702
G1 X11.386 Y-22.118 F12000.000
G1 X5.464 Y-12.173 F12000.000
G1 X6.688 Y-11.058 E48.21760 F1440.000
G1 X7.649 Y-9.715 E48.30796
G1 X8.340 Y-8.191 E48.39950
G1 X8.755 Y-6.528 E48.49327
G1 X8.891 Y-4.808 E48.58768
G1 X8.891 Y5.289 E49.14011
G1 X3.276 Y5.287 E49.44727
G1 X3.276 Y-4.884 E50.00374
G1 X3.223 Y-5.689 E50.04791
G1 X3.077 Y-6.354 E50.08515
G1 X2.850 Y-6.907 E50.11786
G1 X2.553 Y-7.347 E50.14692
G1 X2.185 Y-7.691 E50.17446
G1 X1.727 Y-7.953 E50.20336
G1 X1.144 Y-8.128 E50.23665
G1 X0.414 Y-8.193 E50.27676
G1 X-0.274 Y-8.126 E50.31457
G1 X-0.833 Y-7.945 E50.34669
G1 X-1.294 Y-7.669 E50.37609
G1 X-1.677 Y-7.302 E50.40515
G1 X-1.992 Y-6.837 E50.43587
G1 X-2.231 Y-6.272 E50.46944
G1 X-2.383 Y-5.615 E50.50633
G1 X-2.440 Y-4.838 E50.54894
G1 X-2.440 Y5.289 E51.10300
G1 X-8.013 Y5.289 E51.40787
G1 X-8.013 Y-3.740 E51.90184
G1 X-8.109 Y-3.740 E51.90714
G1 X-7.871 Y-6.630 E52.06581
G1 X-7.435 Y-8.285 E52.15944
G1 X-6.720 Y-9.794 E52.25078
G1 X-5.734 Y-11.117 E52.34104
G1 X-4.495 Y-12.209 E52.43143
G1 X-3.027 Y-13.030 E52.52344
G1 X-1.361 Y-13.541 E52.61878
G1 X0.470 Y-13.715 E52.71943
G1 X2.325 Y-13.536 E52.82138
G1 X4.000 Y-13.013 E52.91736
G1 X5.402 Y-12.208 E53.00581
G1 X5.180 Y-11.784 F12000.000
G1 X6.328 Y-10.738 E53.09076 F1440.000
G1 X7.232 Y-9.474 E53.17578
G1 X7.886 Y-8.033 E53.26237
G1 X8.281 Y-6.451 E53.35158
G1 X8.412 Y-4.789 E53.44279
G1 X8.412 Y4.810 E53.96800
G1 X3.755 Y4.809 E54.22280
G1 X3.755 Y-4.899 E54.75396
G1 X3.698 Y-5.757 E54.80097
G1 X3.536 Y-6.497 E54.84245
G1 X3.274 Y-7.134 E54.88011
G1 X2.919 Y-7.660 E54.91481
G1 X2.471 Y-8.079 E54.94838
G1 X1.916 Y-8.396 E54.98333
G1 X1.235 Y-8.600 E55.02227
G1 X0.412 Y-8.674 E55.06749
G1 X-0.372 Y-8.597 E55.11058
G1 X-1.032 Y-8.384 E55.14850
G1 X-1.586 Y-8.052 E55.18383
G1 X-2.045 Y-7.612 E55.21864
G1 X-2.414 Y-7.066 E55.25470
G1 X-2.688 Y-6.420 E55.29308
G1 X-2.858 Y-5.687 E55.33427
G1 X-2.919 Y-4.856 E55.37986
G1 X-2.919 Y4.810 E55.90871
G1 X-7.534 Y4.810 E56.16121
G1 X-7.534 Y-4.219 E56.65518
G1 X-7.590 Y-4.219 E56.65822
G1 X-7.397 Y-6.549 E56.78617
G1 X-6.984 Y-8.120 E56.87507
G1 X-6.308 Y-9.546 E56.96138
G1 X-5.380 Y-10.791 E57.04632
G1 X-4.217 Y-11.816 E57.13117
G1 X-2.838 Y-12.587 E57.21760
G1 X-1.267 Y-13.069 E57.30749
G1 X0.470 Y-13.234 E57.40297
G1 X2.230 Y-13.064 E57.49969
G1 X3.807 Y-12.572 E57.59010
G1 X5.118 Y-11.819 E57.67281
G1 X4.897 Y-11.395 F12000.000
G1 X5.968 Y-10.419 E57.75213 F1008.000
G1 X6.816 Y-9.234 E57.83181
G1 X7.433 Y-7.875 E57.91346
G1 X7.807 Y-6.374 E57.99811
G1 X7.933 Y-4.770 E58.08612
G1 X7.933 Y4.332 E58.58411
G1 X4.233 Y4.330 E58.78654
G1 X4.233 Y-4.915 E59.29239
G1 X4.173 Y-5.824 E59.34223
G1 X3.994 Y-6.641 E59.38796
G1 X3.698 Y-7.361 E59.43057
G1 X3.286 Y-7.972 E59.47091
G1 X2.757 Y-8.467 E59.51052
G1 X2.106 Y-8.838 E59.55152
G1 X1.326 Y-9.073 E59.59610
G1 X0.410 Y-9.154 E59.64644
G1 X-0.470 Y-9.068 E59.69481
G1 X-1.231 Y-8.822 E59.73853
G1 X-1.878 Y-8.435 E59.77979
G1 X-2.413 Y-7.922 E59.82036
G1 X-2.837 Y-7.296 E59.86175
G1 X-3.145 Y-6.569 E59.90493
G1 X-3.333 Y-5.759 E59.95042
G1 X-3.398 Y-4.873 E59.99900
G1 X-3.398 Y4.331 E60.50262
G1 X-7.056 Y4.331 E60.70276
G1 X-7.056 Y-4.697 E61.19673
G1 X-7.070 Y-4.697 E61.19753
G1 X-6.924 Y-6.468 E61.29474
G1 X-6.532 Y-7.956 E61.37891
G1 X-5.896 Y-9.298 E61.46020
G1 X-5.026 Y-10.465 E61.53980
G1 X-3.939 Y-11.424 E61.61913
G1 X-2.649 Y-12.145 E61.69997
G1 X-1.173 Y-12.597 E61.78442
G1 X0.470 Y-12.754 E61.87472
G1 X2.134 Y-12.593 E61.96622
G1 X3.614 Y-12.131 E62.05104
G1 X4.834 Y-11.430 E62.12803
G1 X5.341 Y-11.573 F12000.000
G1 X-5.073 Y6.953 F12000.000
G1 X-0.855 Y9.096 E62.38691 F1440.000
G1 X1.243 Y10.308 E62.51943
G1 X3.156 Y11.576 E62.64503
G1 X4.899 Y12.912 E62.76519
G1 X6.964 Y14.863 E62.92063
G1 X7.820 Y15.884 E62.99350
G1 X8.523 Y16.904 E63.06127
G1 X9.083 Y17.942 E63.12581
G1 X9.493 Y19.001 E63.18793
G1 X9.744 Y20.078 E63.24842
G1 X9.829 Y21.178 E63.30880
G1 X9.716 Y22.275 E63.36914
G1 X9.363 Y23.316 E63.42930
G1 X8.783 Y24.256 E63.48974
G1 X8.000 Y25.073 E63.55160
G1 X7.123 Y25.710 E63.61093
G1 X6.166 Y26.171 E63.66906
G1 X5.138 Y26.447 E63.72727
G1 X4.030 Y26.540 E63.78812
G1 X2.465 Y26.332 E63.87451
G1 X1.040 Y25.676 E63.96033
G1 X0.096 Y24.823 E64.02991
G1 X-0.205 Y25.136 E64.05366
G1 X-0.962 Y25.684 E64.10482
G1 X-2.430 Y26.327 E64.19249
G1 X-4.017 Y26.541 E64.28010
G1 X-5.196 Y26.442 E64.34484
G1 X-6.276 Y26.147 E64.40611
G1 X-7.268 Y25.645 E64.46690
G1 X-8.150 Y24.950 E64.52834
G1 X-8.882 Y24.094 E64.58998
G1 X-9.030 Y23.820 E64.60702
G1 X-9.208 Y23.820 E64.61672
G1 X-9.728 Y22.033 E64.71852
G1 X-9.829 Y20.883 E64.78170
G1 X-9.728 Y19.705 E64.84641
G1 X-9.425 Y18.571 E64.91062
G1 X-8.925 Y17.497 E64.97544
G1 X-8.242 Y16.495 E65.04179
G1 X-5.767 Y13.774 E65.24304
G1 X-5.293 Y13.057 E65.29006
G1 X-4.962 Y12.317 E65.33443
G1 X-4.764 Y11.543 E65.37812
G1 X-4.698 Y10.733 E65.42258
G1 X-5.066 Y7.024 E65.62650
G1 X-4.511 Y7.775 F12000.000
G1 X-1.083 Y9.517 E65.83686 F1440.000
G1 X0.990 Y10.715 E65.96787
G1 X2.878 Y11.966 E66.09177
G1 X4.588 Y13.277 E66.20969
G1 X6.616 Y15.192 E66.36225
G1 X7.439 Y16.174 E66.43236
G1 X8.114 Y17.154 E66.49747
G1 X8.647 Y18.143 E66.55895
G1 X9.034 Y19.142 E66.61758
G1 X9.270 Y20.151 E66.67425
G1 X9.349 Y21.172 E66.73027
G1 X9.246 Y22.172 E66.78529
G1 X8.927 Y23.111 E66.83954
G1 X8.402 Y23.962 E66.89424
G1 X7.684 Y24.711 E66.95098
G1 X6.877 Y25.297 E67.00561
G1 X5.998 Y25.720 E67.05894
G1 X5.056 Y25.974 E67.11236
G1 X4.042 Y26.059 E67.16803
G1 X2.599 Y25.867 E67.24763
G1 X1.307 Y25.272 E67.32550
G1 X0.074 Y24.158 E67.41641
G1 X-0.520 Y24.773 E67.46317
G1 X-1.202 Y25.266 E67.50920
G1 X-2.561 Y25.862 E67.59039
G1 X-4.029 Y26.060 E67.67146
G1 X-5.112 Y25.969 E67.73093
G1 X-6.104 Y25.698 E67.78716
G1 X-7.009 Y25.240 E67.84269
G1 X-7.817 Y24.603 E67.89894
G1 X-8.485 Y23.821 E67.95523
G1 X-8.745 Y23.341 E67.98510
G1 X-8.849 Y23.341 E67.99074
G1 X-9.255 Y21.945 E68.07033
G1 X-9.349 Y20.882 E68.12867
G1 X-9.255 Y19.787 E68.18880
G1 X-8.974 Y18.735 E68.24840
G1 X-8.508 Y17.734 E68.30880
G1 X-7.866 Y16.792 E68.37118
G1 X-5.388 Y14.069 E68.57261
G1 X-4.872 Y13.288 E68.62380
G1 X-4.508 Y12.475 E68.67256
G1 X-4.291 Y11.622 E68.72071
G1 X-4.218 Y10.729 E68.76974
G1 X-4.504 Y7.847 E68.92821
G1 X-3.948 Y8.598 F12000.000
G1 X-1.311 Y9.938 E69.09004 F1008.000
G1 X0.738 Y11.122 E69.21955
G1 X2.600 Y12.356 E69.34174
G1 X4.278 Y13.642 E69.45741
G1 X6.267 Y15.521 E69.60711
G1 X7.058 Y16.464 E69.67445
G1 X7.705 Y17.404 E69.73690
G1 X8.212 Y18.344 E69.79532
G1 X8.576 Y19.284 E69.85047
G1 X8.795 Y20.224 E69.90331
G1 X8.869 Y21.166 E69.95497
G1 X8.775 Y22.069 E70.00467
G1 X8.491 Y22.906 E70.05301
G1 X8.021 Y23.667 E70.10197
G1 X7.369 Y24.349 E70.15359
G1 X6.630 Y24.885 E70.20352
G1 X5.831 Y25.270 E70.25206
G1 X4.973 Y25.501 E70.30068
G1 X4.053 Y25.578 E70.35116
G1 X2.734 Y25.402 E70.42397
G1 X1.573 Y24.868 E70.49390
G1 X0.592 Y23.981 E70.56625
G1 X0.094 Y23.218 E70.61609
G1 X-0.351 Y23.909 E70.66101
G1 X-0.835 Y24.410 E70.69915
G1 X-1.441 Y24.849 E70.74007
G1 X-2.691 Y25.397 E70.81477
G1 X-4.041 Y25.579 E70.88930
G1 X-5.028 Y25.496 E70.94350
G1 X-5.931 Y25.249 E70.99469
G1 X-6.751 Y24.834 E71.04495
G1 X-7.484 Y24.257 E71.09601
G1 X-8.089 Y23.549 E71.14696
G1 X-8.460 Y22.863 E71.18965
G1 X-8.489 Y22.863 E71.19124
G1 X-8.782 Y21.856 E71.24861
G1 X-8.868 Y20.882 E71.30211
G1 X-8.782 Y19.870 E71.35766
G1 X-8.522 Y18.899 E71.41267
G1 X-8.091 Y17.972 E71.46864
G1 X-7.489 Y17.089 E71.52706
G1 X-5.009 Y14.364 E71.72867
G1 X-4.451 Y13.520 E71.78402
G1 X-4.054 Y12.633 E71.83717
G1 X-3.817 Y11.701 E71.88978
G1 X-3.738 Y10.725 E71.94339
G1 X-3.941 Y8.669 E72.05640
G1 X-3.816 Y8.138 F12000.000
G1 X-2.450 Y29.018 F12000.000
G1 X3.124 Y29.018 E72.36132 F1440.000
G1 X3.124 Y47.711 E73.38401
G1 X-2.450 Y47.711 E73.68893
G1 X-2.450 Y29.090 E74.70769
G1 X-1.971 Y29.497 F12000.000
G1 X2.645 Y29.497 E74.96025 F1440.000
G1 X2.645 Y47.232 E75.93057
G1 X-1.971 Y47.232 E76.18313
G1 X-1.971 Y29.569 E77.14953
G1 X-1.492 Y29.976 F12000.000
G1 X2.166 Y29.976 E77.34972 F720.000
G1 X2.166 Y46.753 E78.26768
G1 X-1.492 Y46.753 E78.46788
G1 X-1.492 Y30.047 E79.38191
G1 X-1.492 Y29.497 F12000.000
G1 X-7.275 Y56.571 F12000.000
G1 X-7.876 Y56.512 E79.41495 F1440.000
G1 X-15.449 Y54.215 E79.84795
G1 X-22.430 Y50.484 E80.28099
G1 X-28.547 Y45.464 E80.71395
G1 X-33.568 Y39.346 E81.14698
G1 X-37.299 Y32.365 E81.58002
G1 X-39.596 Y24.792 E82.01302
G1 X-40.372 Y16.916 E82.44599
G1 X-39.596 Y9.040 E82.87901
G1 X-37.299 Y1.467 E83.31201
G1 X-33.568 Y-5.514 E83.74504
G1 X-28.547 Y-11.631 E84.17804
G1 X-22.430 Y-16.652 E84.61104
G1 X-15.449 Y-20.383 E85.04407
G1 X-7.876 Y-22.680 E85.47707
G1 X0.000 Y-23.456 E85.91009
G1 X7.876 Y-22.680 E86.34306
G1 X15.449 Y-20.383 E86.77606
G1 X22.430 Y-16.652 E87.20909
G1 X28.548 Y-11.631 E87.64213
G1 X33.568 Y-5.514 E88.07509
G1 X37.299 Y1.467 E88.50813
G1 X39.596 Y9.040 E88.94113
G1 X40.372 Y16.916 E89.37415
G1 X39.596 Y24.792 E89.80712
G1 X37.299 Y32.365 E90.24012
G1 X33.568 Y39.346 E90.67316
