; generated by Slic3r 1.0.0RC2 on 2014-02-19 at 17:14:31

; layer_height = 0.25
; perimeters = 3
; top_solid_layers = 3
; bottom_solid_layers = 3
; fill_density = 0.4
; perimeter_speed = 40
; infill_speed = 60
; travel_speed = 90
; nozzle_diameter = 0.4
; filament_diameter = 1.75
; extrusion_multiplier = 1.0
; perimeters extrusion width = 0.40mm
; infill extrusion width = 0.53mm
; solid infill extrusion width = 0.53mm
; top infill extrusion width = 0.53mm
; first layer extrusion width = 0.50mm

G21 ; set units to millimeters
M107
M190 S60 ; wait for bed temperature to be reached
M104 S190 ; set temperature
G28 ; home all axes
G1 Z5 F5000 ; lift nozzle
M207 S1 F30 Z1
M208 S1 F30
M109 S190 ; wait for temperature to be reached
G90 ; use absolute coordinates
G92 E0
M82 ; use absolute distances for extrusion
M204 S9000
G1 Z0.250 F5400.000
G1 X25.248 Y-23.691 F5400.000
G1 X-25.252 Y-23.691 E2.51179 F960.000
G1 X-26.612 Y-23.831 E2.57979
G1 X-27.912 Y-24.221 E2.64730
G1 X-29.122 Y-24.871 E2.71562
G1 X-30.172 Y-25.731 E2.78312
G1 X-31.032 Y-26.781 E2.85063
G1 X-31.682 Y-27.991 E2.91895
G1 X-32.072 Y-29.291 E2.98646
G1 X-32.212 Y-30.651 E3.05446
G1 X-32.212 Y-31.891 E3.11613
G1 X-32.072 Y-33.251 E3.18413
G1 X-31.682 Y-34.551 E3.25164
G1 X-31.032 Y-35.761 E3.31996
G1 X-30.172 Y-36.811 E3.38747
G1 X-29.122 Y-37.671 E3.45497
G1 X-27.912 Y-38.321 E3.52329
G1 X-26.612 Y-38.711 E3.59080
G1 X-25.252 Y-38.851 E3.65880
G1 X25.248 Y-38.851 E6.17059
G1 X26.608 Y-38.711 E6.23859
G1 X27.908 Y-38.321 E6.30610
G1 X29.118 Y-37.671 E6.37442
G1 X30.168 Y-36.811 E6.44192
G1 X31.028 Y-35.761 E6.50943
G1 X31.678 Y-34.551 E6.57775
G1 X32.068 Y-33.251 E6.64526
G1 X32.208 Y-31.891 E6.71326
G1 X32.208 Y-30.651 E6.77493
G1 X32.068 Y-29.291 E6.84293
G1 X31.678 Y-27.991 E6.91044
G1 X31.028 Y-26.781 E6.97876
G1 X30.168 Y-25.731 E7.04627
G1 X29.118 Y-24.871 E7.11377
G1 X27.908 Y-24.221 E7.18209
G1 X26.608 Y-23.831 E7.24960
G1 X25.320 Y-23.698 E7.31403
G1 X25.248 Y-24.171 F5400.000
G1 X-25.252 Y-24.171 E9.82582 F960.000
G1 X-26.512 Y-24.301 E9.88882
G1 X-27.732 Y-24.661 E9.95209
G1 X-28.852 Y-25.261 E10.01529
G1 X-29.832 Y-26.071 E10.07853
G1 X-30.642 Y-27.051 E10.14176
G1 X-31.242 Y-28.171 E10.20496
G1 X-31.602 Y-29.391 E10.26823
G1 X-31.732 Y-30.651 E10.33123
G1 X-31.732 Y-31.891 E10.39291
G1 X-31.602 Y-33.151 E10.45591
G1 X-31.242 Y-34.371 E10.51918
G1 X-30.642 Y-35.491 E10.58238
G1 X-29.832 Y-36.471 E10.64561
G1 X-28.852 Y-37.281 E10.70885
G1 X-27.732 Y-37.881 E10.77205
G1 X-26.512 Y-38.241 E10.83532
G1 X-25.252 Y-38.371 E10.89832
G1 X25.248 Y-38.371 E13.41011
G1 X26.508 Y-38.241 E13.47311
G1 X27.728 Y-37.881 E13.53638
G1 X28.848 Y-37.281 E13.59958
G1 X29.828 Y-36.471 E13.66282
G1 X30.638 Y-35.491 E13.72606
G1 X31.238 Y-34.371 E13.78925
G1 X31.598 Y-33.151 E13.85252
G1 X31.728 Y-31.891 E13.91552
G1 X31.728 Y-30.651 E13.97720
G1 X31.598 Y-29.391 E14.04020
G1 X31.238 Y-28.171 E14.10347
G1 X30.638 Y-27.051 E14.16667
G1 X29.828 Y-26.071 E14.22990
G1 X28.848 Y-25.261 E14.29314
G1 X27.728 Y-24.661 E14.35634
G1 X26.508 Y-24.301 E14.41961
G1 X25.320 Y-24.178 E14.47904
G1 X24.998 Y-30.891 F5400.000
G1 X20.998 Y-30.891 E14.67799 F720.000
G1 X20.998 Y-31.641 E14.71530
G1 X24.998 Y-31.641 E14.91425
G1 X24.998 Y-30.963 E14.94799
G1 X24.584 Y-31.130 F5400.000
G1 X-21.002 Y-30.891 F5400.000
G1 X-25.002 Y-30.891 E15.14694 F720.000
G1 X-25.002 Y-31.641 E15.18424
G1 X-21.002 Y-31.641 E15.38320
G1 X-21.002 Y-30.963 E15.41693
G1 X-21.416 Y-31.130 F5400.000
G1 X-21.328 Y-31.288 F5400.000
G1 X-21.354 Y-31.315 E15.41797 F480.000
G1 X-21.633 Y-31.217 E15.42617 F480.000
G1 X-21.731 Y-31.315 E15.43001 F480.000
G1 X-22.010 Y-31.217 E15.43820 F480.000
G1 X-22.108 Y-31.315 E15.44205 F480.000
G1 X-22.387 Y-31.217 E15.45024 F480.000
G1 X-22.485 Y-31.315 E15.45408 F480.000
G1 X-22.764 Y-31.217 E15.46227 F480.000
G1 X-22.862 Y-31.315 E15.46612 F480.000
G1 X-23.141 Y-31.217 E15.47431 F480.000
G1 X-23.239 Y-31.315 E15.47815 F480.000
G1 X-23.518 Y-31.217 E15.48634 F480.000
G1 X-23.616 Y-31.315 E15.49019 F480.000
G1 X-23.895 Y-31.217 E15.49838 F480.000
G1 X-23.993 Y-31.315 E15.50222 F480.000
G1 X-24.272 Y-31.217 E15.51042 F480.000
G1 X-24.370 Y-31.315 E15.51426 F480.000
G1 X-24.676 Y-31.243 E15.52295 F480.000
G1 X-24.649 Y-31.217 E15.52400 F480.000
G1 X21.324 Y-31.243 F5400.000
G1 X21.630 Y-31.315 E15.53269 F480.000
G1 X21.728 Y-31.217 E15.53654 F480.000
G1 X22.007 Y-31.315 E15.54473 F480.000
G1 X22.105 Y-31.217 E15.54857 F480.000
G1 X22.384 Y-31.315 E15.55676 F480.000
G1 X22.482 Y-31.217 E15.56061 F480.000
G1 X22.761 Y-31.315 E15.56880 F480.000
G1 X22.859 Y-31.217 E15.57264 F480.000
G1 X23.138 Y-31.315 E15.58084 F480.000
G1 X23.236 Y-31.217 E15.58468 F480.000
G1 X23.515 Y-31.315 E15.59287 F480.000
G1 X23.613 Y-31.217 E15.59672 F480.000
G1 X23.892 Y-31.315 E15.60491 F480.000
G1 X23.990 Y-31.217 E15.60875 F480.000
G1 X24.269 Y-31.315 E15.61694 F480.000
G1 X24.367 Y-31.217 E15.62079 F480.000
G1 X24.646 Y-31.315 E15.62898 F480.000
G1 X24.672 Y-31.288 E15.63002 F480.000
G1 X21.351 Y-31.217 F5400.000
G1 X21.324 Y-31.243 E15.63107 F480.000
M106 S255
M104 S185 ; set temperature
M140 S58 ; set bed temperature
M204 S9000
G1 Z0.500 F5400.000
G1 X20.948 Y-30.841 F5400.000
M204 S9000
G1 X20.948 Y-31.691 E15.66641 F600.000
G1 X25.048 Y-31.691 E15.83686
G1 X25.048 Y-30.841 E15.87220
G1 X21.008 Y-30.841 E16.04017
M204 S9000
G1 X21.148 Y-31.187 F5400.000
G1 X-20.952 Y-30.841 F5400.000
M204 S9000
G1 X-25.052 Y-30.841 E16.21063 F600.000
G1 X-25.052 Y-31.691 E16.24596
G1 X-20.952 Y-31.691 E16.41642
G1 X-20.952 Y-30.901 E16.44927
M204 S9000
G1 X-21.298 Y-31.041 F5400.000
G1 X-21.375 Y-31.217 F5400.000
G1 X-21.948 Y-31.314 E16.47787 F600.000
G1 X-22.045 Y-31.217 E16.48465 F600.000
G1 X-22.618 Y-31.314 E16.51325 F600.000
G1 X-22.715 Y-31.217 E16.52003 F600.000
G1 X-23.288 Y-31.314 E16.54863 F600.000
G1 X-23.385 Y-31.217 E16.55542 F600.000
G1 X-23.958 Y-31.314 E16.58402 F600.000
G1 X-24.055 Y-31.217 E16.59080 F600.000
G1 X-24.628 Y-31.314 E16.61940 F600.000
G1 X-24.675 Y-31.267 E16.62270 F600.000
G1 X-21.375 Y-31.217 F5400.000
G1 X-21.328 Y-31.264 E16.62600 F600.000
G1 X21.325 Y-31.267 F5400.000
G1 X21.372 Y-31.314 E16.62930 F600.000
G1 X21.945 Y-31.217 E16.65790 F600.000
G1 X22.042 Y-31.314 E16.66468 F600.000
G1 X22.615 Y-31.217 E16.69328 F600.000
G1 X22.712 Y-31.314 E16.70006 F600.000
G1 X23.285 Y-31.217 E16.72867 F600.000
G1 X23.382 Y-31.314 E16.73545 F600.000
G1 X23.955 Y-31.217 E16.76405 F600.000
G1 X24.052 Y-31.314 E16.77083 F600.000
G1 X24.625 Y-31.217 E16.79943 F600.000
G1 X24.672 Y-31.264 E16.80273 F600.000
G1 Z0.750 F5400.000
G1 X25.048 Y-30.841 F5400.000
M204 S9000
G1 X20.948 Y-30.841 E16.97319 F600.000
G1 X20.948 Y-31.691 E17.00853
G1 X25.048 Y-31.691 E17.17899
G1 X25.048 Y-30.901 E17.21183
M204 S9000
G1 X24.702 Y-31.041 F5400.000
G1 X-20.952 Y-30.841 F5400.000
M204 S9000
G1 X-25.052 Y-30.841 E17.38229 F600.000
G1 X-25.052 Y-31.691 E17.41763
G1 X-20.952 Y-31.691 E17.58809
G1 X-20.952 Y-30.901 E17.62093
M204 S9000
G1 X-21.298 Y-31.041 F5400.000
G1 X-21.328 Y-31.267 F5400.000
G1 X-21.375 Y-31.314 E17.62423 F600.000
G1 X-21.948 Y-31.217 E17.65283 F600.000
G1 X-22.045 Y-31.314 E17.65961 F600.000
G1 X-22.618 Y-31.217 E17.68821 F600.000
G1 X-22.715 Y-31.314 E17.69500 F600.000
G1 X-23.288 Y-31.217 E17.72360 F600.000
G1 X-23.385 Y-31.314 E17.73038 F600.000
G1 X-23.958 Y-31.217 E17.75898 F600.000
G1 X-24.055 Y-31.314 E17.76576 F600.000
G1 X-24.675 Y-31.264 E17.79639 F600.000
G1 X-24.628 Y-31.217 E17.79969 F600.000
G1 X21.325 Y-31.265 F5400.000
G1 X21.945 Y-31.314 E17.83032 F600.000
G1 X22.042 Y-31.217 E17.83710 F600.000
G1 X22.615 Y-31.314 E17.86570 F600.000
G1 X22.712 Y-31.217 E17.87248 F600.000
G1 X23.285 Y-31.314 E17.90109 F600.000
G1 X23.382 Y-31.217 E17.90787 F600.000
G1 X23.955 Y-31.314 E17.93647 F600.000
G1 X24.052 Y-31.217 E17.94325 F600.000
G1 X24.625 Y-31.314 E17.97185 F600.000
G1 X24.672 Y-31.267 E17.97515 F600.000
G1 X21.372 Y-31.217 F5400.000
G1 X21.325 Y-31.265 E17.97845 F600.000
G1 Z1.000 F5400.000
G1 X20.948 Y-30.841 F5400.000
M204 S9000
G1 X20.948 Y-31.691 E18.01379 F600.000
G1 X25.048 Y-31.691 E18.18425
G1 X25.048 Y-30.841 E18.21959
G1 X21.008 Y-30.841 E18.38755
M204 S9000
G1 X21.148 Y-31.187 F5400.000
G1 X-20.952 Y-30.841 F5400.000
M204 S9000
G1 X-25.052 Y-30.841 E18.55801 F600.000
G1 X-25.052 Y-31.691 E18.59335
G1 X-20.952 Y-31.691 E18.76380
G1 X-20.952 Y-30.901 E18.79665
M204 S9000
G1 X-21.298 Y-31.041 F5400.000
G1 X-21.375 Y-31.217 F5400.000
G1 X-21.948 Y-31.314 E18.82525 F600.000
G1 X-22.045 Y-31.217 E18.83203 F600.000
G1 X-22.618 Y-31.314 E18.86063 F600.000
G1 X-22.715 Y-31.217 E18.86742 F600.000
G1 X-23.288 Y-31.314 E18.89602 F600.000
G1 X-23.385 Y-31.217 E18.90280 F600.000
G1 X-23.958 Y-31.314 E18.93140 F600.000
G1 X-24.055 Y-31.217 E18.93818 F600.000
G1 X-24.628 Y-31.314 E18.96678 F600.000
G1 X-24.675 Y-31.267 E18.97008 F600.000
G1 X-21.375 Y-31.217 F5400.000
G1 X-21.328 Y-31.264 E18.97338 F600.000
G1 X21.325 Y-31.267 F5400.000
G1 X21.372 Y-31.314 E18.97668 F600.000
G1 X21.945 Y-31.217 E19.00528 F600.000
G1 X22.042 Y-31.314 E19.01206 F600.000
G1 X22.615 Y-31.217 E19.04067 F600.000
G1 X22.712 Y-31.314 E19.04745 F600.000
G1 X23.285 Y-31.217 E19.07605 F600.000
G1 X23.382 Y-31.314 E19.08283 F600.000
G1 X23.955 Y-31.217 E19.11143 F600.000
G1 X24.052 Y-31.314 E19.11821 F600.000
G1 X24.625 Y-31.217 E19.14681 F600.000
G1 X24.672 Y-31.264 E19.15011 F600.000
G1 Z1.250 F5400.000
G1 X25.048 Y-30.841 F5400.000
M204 S9000
G1 X20.948 Y-30.841 E19.32057 F600.000
G1 X20.948 Y-31.691 E19.35591
G1 X25.048 Y-31.691 E19.52637
G1 X25.048 Y-30.901 E19.55921
M204 S9000
G1 X24.702 Y-31.041 F5400.000
G1 X-20.952 Y-30.841 F5400.000
M204 S9000
G1 X-25.052 Y-30.841 E19.72967 F600.000
G1 X-25.052 Y-31.691 E19.76501
G1 X-20.952 Y-31.691 E19.93547
G1 X-20.952 Y-30.901 E19.96831
M204 S9000
G1 X-21.298 Y-31.041 F5400.000
G1 X-21.328 Y-31.267 F5400.000
G1 X-21.375 Y-31.314 E19.97161 F600.000
G1 X-21.948 Y-31.217 E20.00021 F600.000
G1 X-22.045 Y-31.314 E20.00700 F600.000
G1 X-22.618 Y-31.217 E20.03560 F600.000
G1 X-22.715 Y-31.314 E20.04238 F600.000
G1 X-23.288 Y-31.217 E20.07098 F600.000
G1 X-23.385 Y-31.314 E20.07776 F600.000
G1 X-23.958 Y-31.217 E20.10636 F600.000
G1 X-24.055 Y-31.314 E20.11314 F600.000
G1 X-24.675 Y-31.264 E20.14377 F600.000
G1 X-24.628 Y-31.217 E20.14707 F600.000
G1 X21.325 Y-31.265 F5400.000
G1 X21.945 Y-31.314 E20.17770 F600.000
G1 X22.042 Y-31.217 E20.18448 F600.000
G1 X22.615 Y-31.314 E20.21309 F600.000
G1 X22.712 Y-31.217 E20.21987 F600.000
G1 X23.285 Y-31.314 E20.24847 F600.000
G1 X23.382 Y-31.217 E20.25525 F600.000
G1 X23.955 Y-31.314 E20.28385 F600.000
G1 X24.052 Y-31.217 E20.29063 F600.000
G1 X24.625 Y-31.314 E20.31923 F600.000
G1 X24.672 Y-31.267 E20.32253 F600.000
G1 X21.372 Y-31.217 F5400.000
G1 X21.325 Y-31.265 E20.32583 F600.000
G1 Z1.500 F5400.000
G1 X20.948 Y-30.841 F5400.000
M204 S9000
G1 X20.948 Y-31.691 E20.36117 F600.000
G1 X25.048 Y-31.691 E20.53163
G1 X25.048 Y-30.841 E20.56697
G1 X21.008 Y-30.841 E20.73493
M204 S9000
G1 X21.148 Y-31.187 F5400.000
G1 X-20.952 Y-30.841 F5400.000
M204 S9000
G1 X-25.052 Y-30.841 E20.90539 F600.000
G1 X-25.052 Y-31.691 E20.94073
G1 X-20.952 Y-31.691 E21.11119
G1 X-20.952 Y-30.901 E21.14403
M204 S9000
G1 X-21.298 Y-31.041 F5400.000
G1 X-21.375 Y-31.217 F5400.000
G1 X-21.948 Y-31.314 E21.17263 F600.000
G1 X-22.045 Y-31.217 E21.17941 F600.000
G1 X-22.618 Y-31.314 E21.20802 F600.000
G1 X-22.715 Y-31.217 E21.21480 F600.000
G1 X-23.288 Y-31.314 E21.24340 F600.000
G1 X-23.385 Y-31.217 E21.25018 F600.000
G1 X-23.958 Y-31.314 E21.27878 F600.000
G1 X-24.055 Y-31.217 E21.28556 F600.000
G1 X-24.628 Y-31.314 E21.31417 F600.000
G1 X-24.675 Y-31.267 E21.31746 F600.000
G1 X-21.375 Y-31.217 F5400.000
G1 X-21.328 Y-31.264 E21.32076 F600.000
G1 X21.325 Y-31.267 F5400.000
G1 X21.372 Y-31.314 E21.32406 F600.000
G1 X21.945 Y-31.217 E21.35267 F600.000
G1 X22.042 Y-31.314 E21.35945 F600.000
G1 X22.615 Y-31.217 E21.38805 F600.000
G1 X22.712 Y-31.314 E21.39483 F600.000
G1 X23.285 Y-31.217 E21.42343 F600.000
G1 X23.382 Y-31.314 E21.43021 F600.000
G1 X23.955 Y-31.217 E21.45881 F600.000
G1 X24.052 Y-31.314 E21.46560 F600.000
G1 X24.625 Y-31.217 E21.49420 F600.000
G1 X24.672 Y-31.264 E21.49750 F600.000
G1 Z1.750 F5400.000
G1 X25.048 Y-30.841 F5400.000
M204 S9000
G1 X20.948 Y-30.841 E21.66795 F600.000
G1 X20.948 Y-31.691 E21.70329
G1 X25.048 Y-31.691 E21.87375
G1 X25.048 Y-30.901 E21.90660
M204 S9000
G1 X24.702 Y-31.041 F5400.000
G1 X-20.952 Y-30.841 F5400.000
M204 S9000
G1 X-25.052 Y-30.841 E22.07705 F600.000
G1 X-25.052 Y-31.691 E22.11239
G1 X-20.952 Y-31.691 E22.28285
G1 X-20.952 Y-30.901 E22.31570
M204 S9000
G1 X-21.298 Y-31.041 F5400.000
G1 X-21.328 Y-31.267 F5400.000
G1 X-21.375 Y-31.314 E22.31899 F600.000
G1 X-21.948 Y-31.217 E22.34760 F600.000
G1 X-22.045 Y-31.314 E22.35438 F600.000
G1 X-22.618 Y-31.217 E22.38298 F600.000
G1 X-22.715 Y-31.314 E22.38976 F600.000
G1 X-23.288 Y-31.217 E22.41836 F600.000
G1 X-23.385 Y-31.314 E22.42514 F600.000
G1 X-23.958 Y-31.217 E22.45375 F600.000
G1 X-24.055 Y-31.314 E22.46053 F600.000
G1 X-24.675 Y-31.264 E22.49116 F600.000
G1 X-24.628 Y-31.217 E22.49446 F600.000
G1 X21.325 Y-31.265 F5400.000
G1 X21.945 Y-31.314 E22.52508 F600.000
G1 X22.042 Y-31.217 E22.53187 F600.000
G1 X22.615 Y-31.314 E22.56047 F600.000
G1 X22.712 Y-31.217 E22.56725 F600.000
G1 X23.285 Y-31.314 E22.59585 F600.000
G1 X23.382 Y-31.217 E22.60263 F600.000
G1 X23.955 Y-31.314 E22.63123 F600.000
G1 X24.052 Y-31.217 E22.63801 F600.000
G1 X24.625 Y-31.314 E22.66662 F600.000
G1 X24.672 Y-31.267 E22.66992 F600.000
G1 X21.372 Y-31.217 F5400.000
G1 X21.325 Y-31.265 E22.67322 F600.000
G1 Z2.000 F5400.000
G1 X20.948 Y-30.841 F5400.000
M204 S9000
G1 X20.948 Y-31.691 E22.70855 F600.000
G1 X25.048 Y-31.691 E22.87901
G1 X25.048 Y-30.841 E22.91435
G1 X21.008 Y-30.841 E23.08231
M204 S9000
G1 X21.148 Y-31.187 F5400.000
G1 X-20.952 Y-30.841 F5400.000
M204 S9000
G1 X-25.052 Y-30.841 E23.25277 F600.000
G1 X-25.052 Y-31.691 E23.28811
G1 X-20.952 Y-31.691 E23.45857
G1 X-20.952 Y-30.901 E23.49141
M204 S9000
G1 X-21.298 Y-31.041 F5400.000
G1 X-21.375 Y-31.217 F5400.000
G1 X-21.948 Y-31.314 E23.52002 F600.000
G1 X-22.045 Y-31.217 E23.52680 F600.000
G1 X-22.618 Y-31.314 E23.55540 F600.000
G1 X-22.715 Y-31.217 E23.56218 F600.000
G1 X-23.288 Y-31.314 E23.59078 F600.000
G1 X-23.385 Y-31.217 E23.59756 F600.000
G1 X-23.958 Y-31.314 E23.62617 F600.000
G1 X-24.055 Y-31.217 E23.63295 F600.000
G1 X-24.628 Y-31.314 E23.66155 F600.000
G1 X-24.675 Y-31.267 E23.66485 F600.000
G1 X-21.375 Y-31.217 F5400.000
G1 X-21.328 Y-31.264 E23.66815 F600.000
G1 X21.325 Y-31.267 F5400.000
G1 X21.372 Y-31.314 E23.67145 F600.000
G1 X21.945 Y-31.217 E23.70005 F600.000
G1 X22.042 Y-31.314 E23.70683 F600.000
G1 X22.615 Y-31.217 E23.73543 F600.000
G1 X22.712 Y-31.314 E23.74221 F600.000
G1 X23.285 Y-31.217 E23.77081 F600.000
G1 X23.382 Y-31.314 E23.77759 F600.000
G1 X23.955 Y-31.217 E23.80620 F600.000
G1 X24.052 Y-31.314 E23.81298 F600.000
G1 X24.625 Y-31.217 E23.84158 F600.000
G1 X24.672 Y-31.264 E23.84488 F600.000
G1 Z2.250 F5400.000
G1 X25.048 Y-30.841 F5400.000
M204 S9000
G1 X20.948 Y-30.841 E24.01534 F600.000
G1 X20.948 Y-31.691 E24.05068
G1 X25.048 Y-31.691 E24.22113
G1 X25.048 Y-30.901 E24.25398
M204 S9000
G1 X24.702 Y-31.041 F5400.000
G1 X-20.952 Y-30.841 F5400.000
M204 S9000
G1 X-25.052 Y-30.841 E24.42444 F600.000
G1 X-25.052 Y-31.691 E24.45978
G1 X-20.952 Y-31.691 E24.63023
G1 X-20.952 Y-30.901 E24.66308
M204 S9000
G1 X-21.298 Y-31.041 F5400.000
G1 X-21.328 Y-31.267 F5400.000
G1 X-21.375 Y-31.314 E24.66638 F600.000
G1 X-21.948 Y-31.217 E24.69498 F600.000
G1 X-22.045 Y-31.314 E24.70176 F600.000
G1 X-22.618 Y-31.217 E24.73036 F600.000
G1 X-22.715 Y-31.314 E24.73714 F600.000
G1 X-23.288 Y-31.217 E24.76575 F600.000
G1 X-23.385 Y-31.314 E24.77253 F600.000
G1 X-23.958 Y-31.217 E24.80113 F600.000
G1 X-24.055 Y-31.314 E24.80791 F600.000
G1 X-24.675 Y-31.264 E24.83854 F600.000
G1 X-24.628 Y-31.217 E24.84184 F600.000
G1 X21.325 Y-31.265 F5400.000
G1 X21.945 Y-31.314 E24.87247 F600.000
