; generated by Slic3r 1.0.0RC2 on 2014-02-19 at 19:59:31

; layer_height = 0.25
; perimeters = 3
; top_solid_layers = 3
; bottom_solid_layers = 3
; fill_density = 0.35
; perimeter_speed = 40
; infill_speed = 60
; travel_speed = 90
; nozzle_diameter = 0.4
; filament_diameter = 1.75
; extrusion_multiplier = 1.0
; perimeters extrusion width = 0.40mm
; infill extrusion width = 0.53mm
; solid infill extrusion width = 0.53mm
; top infill extrusion width = 0.53mm
; first layer extrusion width = 0.50mm

G21 ; set units to millimeters
M107
M190 S60 ; wait for bed temperature to be reached
M104 S190 ; set temperature
G28 ; home all axes
G1 Z5 F5000 ; lift nozzle
M207 S1 F30 Z1
M208 S1 F30
M109 S190 ; wait for temperature to be reached
G90 ; use absolute coordinates
G92 E0
M82 ; use absolute distances for extrusion
M204 S9000
G1 Z0.250 F5400.000
G1 X22.599 Y9.270 F5400.000
G1 X-9.671 Y28.480 E1.86793 F960.000
G1 X-11.381 Y29.210 E1.96040
G1 X-13.231 Y29.460 E2.05326
G1 X-18.231 Y29.460 E2.30195
G1 X-19.591 Y29.320 E2.36995
G1 X-20.891 Y28.930 E2.43746
G1 X-22.101 Y28.280 E2.50578
G1 X-23.151 Y27.420 E2.57328
G1 X-24.011 Y26.370 E2.64079
G1 X-24.661 Y25.160 E2.70911
G1 X-25.051 Y23.860 E2.77661
G1 X-25.191 Y22.500 E2.84462
G1 X-25.191 Y-22.500 E5.08285
G1 X-25.051 Y-23.860 E5.15085
G1 X-24.661 Y-25.160 E5.21835
G1 X-24.011 Y-26.370 E5.28667
G1 X-23.151 Y-27.420 E5.35418
G1 X-22.101 Y-28.280 E5.42169
G1 X-20.891 Y-28.930 E5.49000
G1 X-19.591 Y-29.320 E5.55751
G1 X-18.231 Y-29.460 E5.62551
G1 X-13.231 Y-29.460 E5.87420
G1 X-11.391 Y-29.210 E5.96656
G1 X-9.671 Y-28.480 E6.05950
G1 X22.599 Y-9.280 E7.92717
G1 X23.479 Y-8.660 E7.98071
G1 X24.259 Y-7.900 E8.03488
G1 X25.529 Y-6.460 E8.13038
G1 X26.469 Y-5.090 E8.21302
G1 X27.059 Y-3.530 E8.29598
G1 X27.519 Y-1.670 E8.39128
G1 X27.729 Y0.000 E8.47499
G1 X27.519 Y1.680 E8.55920
G1 X27.059 Y3.530 E8.65402
G1 X26.469 Y5.080 E8.73651
G1 X25.529 Y6.450 E8.81915
G1 X24.259 Y7.890 E8.91465
G1 X23.479 Y8.640 E8.96847
G1 X22.657 Y9.228 E9.01873
G1 X22.349 Y8.860 F5400.000
G1 X-9.921 Y28.070 E10.88666 F960.000
G1 X-11.511 Y28.750 E10.97267
G1 X-13.231 Y28.980 E11.05898
G1 X-18.231 Y28.980 E11.30768
G1 X-19.491 Y28.850 E11.37068
G1 X-20.711 Y28.490 E11.43395
G1 X-21.831 Y27.890 E11.49714
G1 X-22.811 Y27.080 E11.56038
G1 X-23.621 Y26.100 E11.62362
G1 X-24.221 Y24.980 E11.68682
G1 X-24.581 Y23.760 E11.75008
G1 X-24.711 Y22.500 E11.81309
G1 X-24.711 Y-22.500 E14.05132
G1 X-24.581 Y-23.760 E14.11432
G1 X-24.221 Y-24.980 E14.17759
G1 X-23.621 Y-26.100 E14.24078
G1 X-22.811 Y-27.080 E14.30402
G1 X-21.831 Y-27.890 E14.36726
G1 X-20.711 Y-28.490 E14.43046
G1 X-19.491 Y-28.850 E14.49373
G1 X-18.231 Y-28.980 E14.55673
G1 X-13.231 Y-28.980 E14.80542
G1 X-11.511 Y-28.750 E14.89173
G1 X-9.921 Y-28.070 E14.97775
G1 X22.349 Y-8.870 E16.84542
G1 X23.179 Y-8.290 E16.89578
G1 X23.899 Y-7.590 E16.94573
G1 X25.169 Y-6.150 E17.04123
G1 X26.049 Y-4.870 E17.11849
G1 X26.599 Y-3.420 E17.19562
G1 X27.059 Y-1.560 E17.29092
G1 X27.249 Y0.000 E17.36909
G1 X27.059 Y1.560 E17.44725
G1 X26.599 Y3.410 E17.54207
G1 X26.049 Y4.860 E17.61921
G1 X25.169 Y6.140 E17.69647
G1 X23.899 Y7.580 E17.79196
G1 X23.179 Y8.280 E17.84191
G1 X22.407 Y8.819 E17.88871
G1 X18.129 Y2.140 F5400.000
G1 X17.555 Y2.410 E17.92030 F720.000
G1 X16.931 Y2.529 E17.95190
G1 X16.297 Y2.489 E17.98350
G1 X15.692 Y2.293 E18.01509
G1 X15.156 Y1.953 E18.04670
G1 X14.721 Y1.490 E18.07829
G1 X14.415 Y0.933 E18.10989
G1 X14.257 Y0.318 E18.14149
G1 X14.257 Y-0.318 E18.17308
G1 X14.415 Y-0.933 E18.20468
G1 X14.721 Y-1.490 E18.23628
G1 X15.156 Y-1.953 E18.26787
G1 X15.692 Y-2.293 E18.29947
G1 X16.297 Y-2.489 E18.33107
G1 X16.931 Y-2.529 E18.36267
G1 X17.555 Y-2.410 E18.39426
G1 X18.129 Y-2.140 E18.42586
G1 X18.619 Y-1.735 E18.45746
G1 X18.992 Y-1.221 E18.48906
G1 X19.226 Y-0.630 E18.52065
G1 X19.306 Y0.000 E18.55225
G1 X19.226 Y0.630 E18.58385
G1 X18.992 Y1.221 E18.61544
G1 X18.619 Y1.735 E18.64705
G1 X18.185 Y2.094 E18.67507
G1 X17.871 Y1.733 F5400.000
G1 X17.406 Y1.952 E18.70065 F720.000
G1 X16.900 Y2.048 E18.72624
G1 X16.387 Y2.016 E18.75182
G1 X15.898 Y1.857 E18.77740
G1 X15.463 Y1.581 E18.80299
G1 X15.111 Y1.206 E18.82857
G1 X14.864 Y0.755 E18.85416
G1 X14.736 Y0.257 E18.87974
G1 X14.736 Y-0.257 E18.90532
G1 X14.864 Y-0.755 E18.93091
G1 X15.111 Y-1.206 E18.95649
G1 X15.463 Y-1.581 E18.98207
G1 X15.898 Y-1.857 E19.00766
G1 X16.387 Y-2.016 E19.03324
G1 X16.900 Y-2.048 E19.05882
G1 X17.406 Y-1.952 E19.08441
G1 X17.871 Y-1.733 E19.10999
G1 X18.267 Y-1.405 E19.13557
G1 X18.570 Y-0.989 E19.16116
G1 X18.759 Y-0.510 E19.18674
G1 X18.823 Y0.000 E19.21233
G1 X18.759 Y0.510 E19.23791
G1 X18.570 Y0.989 E19.26349
G1 X18.267 Y1.405 E19.28908
G1 X17.926 Y1.687 E19.31109
G1 X17.871 Y2.211 F5400.000
G1 X1.479 Y0.000 F5400.000
G1 X-14.436 Y15.914 E20.43050 F960.000
G1 X-14.436 Y-15.914 E22.01359
G1 X1.428 Y-0.051 E23.12944
G1 X0.802 Y0.000 F5400.000
G1 X-13.957 Y14.759 E24.16758 F960.000
G1 X-13.957 Y-14.759 E25.63575
G1 X0.751 Y-0.051 E26.67033
G1 X0.125 Y0.000 F5400.000
G1 X-13.479 Y13.604 E27.62721 F672.000
G1 X-13.479 Y-13.604 E28.98045
G1 X0.074 Y-0.051 E29.93377
G1 X0.463 Y0.338 F5400.000
G1 X2.343 Y2.793 F5400.000
G1 X-14.436 Y19.571 E31.11396 F960.000
G1 X-14.436 Y21.293 E31.19960
G1 X-17.021 Y21.293 E31.32821
G1 X-17.021 Y-21.293 E33.44637
G1 X-14.436 Y-21.293 E33.57498
G1 X-14.436 Y-19.571 E33.66062
G1 X2.343 Y-2.793 E34.84081
G1 X15.302 Y-2.793 E35.48540
G1 X15.347 Y-2.640 E35.49330
G1 X14.849 Y-2.324 E35.52264
G1 X14.331 Y-1.773 E35.56025
G1 X13.967 Y-1.111 E35.59786
G1 X13.779 Y-0.378 E35.63547
G1 X13.779 Y0.378 E35.67308
G1 X13.967 Y1.111 E35.71069
G1 X14.331 Y1.773 E35.74830
G1 X14.849 Y2.324 E35.78591
G1 X15.347 Y2.640 E35.81525
G1 X15.302 Y2.793 E35.82315
G1 X2.414 Y2.793 E36.46417
G1 X2.541 Y3.271 F5400.000
G1 X-13.957 Y19.769 E37.62464 F960.000
G1 X-13.957 Y21.771 E37.72423
G1 X-17.500 Y21.771 E37.90044
G1 X-17.500 Y-21.771 E40.06620
G1 X-13.957 Y-21.771 E40.24242
G1 X-13.957 Y-19.769 E40.34200
G1 X2.541 Y-3.271 E41.50248
G1 X17.043 Y-3.271 E42.22380
G1 X18.618 Y-2.674 E42.30755
G1 X19.649 Y-1.510 E42.38491
G1 X20.021 Y-0.000 E42.46227
G1 X19.649 Y1.510 E42.53964
G1 X18.618 Y2.674 E42.61700
G1 X17.043 Y3.271 E42.70074
G1 X2.613 Y3.271 E43.41850
G1 X2.739 Y3.750 F5400.000
G1 X-13.479 Y19.968 E44.55925 F672.000
G1 X-13.479 Y22.250 E44.67278
G1 X-17.979 Y22.250 E44.89660
G1 X-17.979 Y-22.250 E47.10996
G1 X-13.479 Y-22.250 E47.33379
G1 X-13.479 Y-19.968 E47.44731
G1 X2.739 Y-3.750 E48.58807
G1 X17.131 Y-3.750 E49.30389
G1 X18.898 Y-3.080 E49.39787
G1 X20.085 Y-1.739 E49.48696
G1 X20.514 Y-0.000 E49.57606
G1 X20.085 Y1.739 E49.66516
G1 X18.898 Y3.080 E49.75425
G1 X17.131 Y3.750 E49.84822
G1 X2.811 Y3.750 E50.56048
G1 X2.325 Y3.511 F5400.000
G1 X4.401 Y2.470 F5400.000
G1 X1.933 Y0.002 E50.73540 F1200.000
G1 X1.592 Y0.343 E50.75957
G1 X3.719 Y2.470 E50.91032
G1 X3.037 Y2.470 E50.94450
G1 X1.251 Y0.684 E51.07109
G1 X0.910 Y1.025 E51.09526
G1 X2.355 Y2.470 E51.19768
G1 X1.941 Y2.738 E51.22239
G1 X0.569 Y1.366 E51.31963
G1 X0.228 Y1.707 E51.34380
G1 X1.600 Y3.079 E51.44104
G1 X1.259 Y3.420 E51.46521
G1 X-0.113 Y2.048 E51.56245
G1 X-0.454 Y2.389 E51.58661
G1 X0.918 Y3.761 E51.68385
G1 X0.577 Y4.102 E51.70802
G1 X-0.795 Y2.730 E51.80526
G1 X-1.136 Y3.071 E51.82943
G1 X0.236 Y4.443 E51.92667
G1 X-0.105 Y4.784 E51.95083
G1 X-1.477 Y3.412 E52.04807
G1 X-1.818 Y3.753 E52.07224
G1 X-0.446 Y5.125 E52.16948
G1 X-0.787 Y5.466 E52.19365
G1 X-2.159 Y4.094 E52.29089
G1 X-2.500 Y4.435 E52.31505
G1 X-1.128 Y5.807 E52.41229
G1 X-1.469 Y6.148 E52.43646
G1 X-2.841 Y4.776 E52.53370
G1 X-3.181 Y5.117 E52.55787
G1 X-1.810 Y6.489 E52.65511
G1 X-2.150 Y6.829 E52.67927
G1 X-3.522 Y5.458 E52.77651
G1 X-3.863 Y5.798 E52.80068
G1 X-2.491 Y7.170 E52.89792
G1 X-2.832 Y7.511 E52.92209
G1 X-4.204 Y6.139 E53.01933
G1 X-4.545 Y6.480 E53.04349
G1 X-3.173 Y7.852 E53.14073
G1 X-3.514 Y8.193 E53.16490
G1 X-4.886 Y6.821 E53.26214
G1 X-5.227 Y7.162 E53.28631
G1 X-3.855 Y8.534 E53.38355
G1 X-4.196 Y8.875 E53.40771
G1 X-5.568 Y7.503 E53.50495
G1 X-5.909 Y7.844 E53.52912
G1 X-4.537 Y9.216 E53.62636
G1 X-4.878 Y9.557 E53.65053
G1 X-6.250 Y8.185 E53.74777
G1 X-6.591 Y8.526 E53.77193
G1 X-5.219 Y9.898 E53.86917
G1 X-5.560 Y10.239 E53.89334
G1 X-6.932 Y8.867 E53.99058
G1 X-7.273 Y9.208 E54.01475
G1 X-5.901 Y10.580 E54.11199
G1 X-6.242 Y10.921 E54.13615
G1 X-7.614 Y9.549 E54.23339
G1 X-7.955 Y9.890 E54.25756
G1 X-6.583 Y11.262 E54.35480
G1 X-6.924 Y11.603 E54.37896
G1 X-8.296 Y10.231 E54.47620
G1 X-8.637 Y10.572 E54.50037
G1 X-7.265 Y11.944 E54.59761
G1 X-7.606 Y12.285 E54.62178
G1 X-8.978 Y10.913 E54.71902
G1 X-9.319 Y11.254 E54.74318
G1 X-7.947 Y12.626 E54.84042
G1 X-8.288 Y12.967 E54.86459
G1 X-9.660 Y11.595 E54.96183
G1 X-10.001 Y11.936 E54.98600
G1 X-8.629 Y13.308 E55.08324
G1 X-8.970 Y13.649 E55.10740
G1 X-10.342 Y12.277 E55.20464
G1 X-10.683 Y12.618 E55.22881
G1 X-9.311 Y13.990 E55.32605
G1 X-9.652 Y14.331 E55.35022
G1 X-11.024 Y12.959 E55.44746
G1 X-11.364 Y13.300 E55.47162
G1 X-9.993 Y14.672 E55.56886
G1 X-10.333 Y15.012 E55.59303
G1 X-11.705 Y13.641 E55.69027
G1 X-12.046 Y13.981 E55.71444
G1 X-10.674 Y15.353 E55.81168
G1 X-11.015 Y15.694 E55.83584
G1 X-12.387 Y14.322 E55.93308
G1 X-12.728 Y14.663 E55.95725
G1 X-11.356 Y16.035 E56.05449
G1 X-11.697 Y16.376 E56.07866
G1 X-13.069 Y15.004 E56.17590
G1 X-13.410 Y15.345 E56.20006
G1 X-12.038 Y16.717 E56.29730
G1 X-12.379 Y17.058 E56.32147
G1 X-13.751 Y15.686 E56.41871
G1 X-14.092 Y16.027 E56.44287
G1 X-12.720 Y17.399 E56.54011
G1 X-16.650 Y20.970 F5400.000
G1 X-16.699 Y20.922 E56.54353 F1200.000
G1 X-16.699 Y20.240 E56.57771
G1 X-15.968 Y20.970 E56.62946
G1 X-15.287 Y20.970 E56.66363
G1 X-16.699 Y19.558 E56.76372
G1 X-16.699 Y18.876 E56.79789
G1 X-14.758 Y20.816 E56.93541
G1 X-14.758 Y20.134 E56.96959
G1 X-16.699 Y18.194 E57.10710
G1 X-16.699 Y17.512 E57.14128
G1 X-14.758 Y19.453 E57.27880
G1 X-14.425 Y19.104 E57.30297
G1 X-16.699 Y16.830 E57.46412
G1 X-16.699 Y16.148 E57.49829
G1 X-14.084 Y18.763 E57.68361
G1 X-13.743 Y18.422 E57.70777
G1 X-16.699 Y15.467 E57.91725
G1 X-16.699 Y14.785 E57.95143
G1 X-13.402 Y18.081 E58.18508
G1 X-13.061 Y17.740 E58.20924
G1 X-16.699 Y14.103 E58.46705
G1 X-16.699 Y13.421 E58.50123
G1 X-14.758 Y15.361 E58.63875
G1 X-14.758 Y14.679 E58.67292
G1 X-16.699 Y12.739 E58.81044
G1 X-16.699 Y12.057 E58.84462
G1 X-14.758 Y13.997 E58.98213
G1 X-14.758 Y13.315 E59.01631
G1 X-16.699 Y11.375 E59.15383
G1 X-16.699 Y10.693 E59.18800
G1 X-14.758 Y12.633 E59.32552
G1 X-14.758 Y11.951 E59.35970
G1 X-16.699 Y10.011 E59.49721
G1 X-16.699 Y9.329 E59.53139
G1 X-14.758 Y11.269 E59.66891
G1 X-14.758 Y10.588 E59.70308
G1 X-16.699 Y8.647 E59.84060
G1 X-16.699 Y7.965 E59.87478
G1 X-14.758 Y9.906 E60.01229
G1 X-14.758 Y9.224 E60.04647
G1 X-16.699 Y7.284 E60.18399
G1 X-16.699 Y6.602 E60.21816
G1 X-14.758 Y8.542 E60.35568
G1 X-14.758 Y7.860 E60.38986
G1 X-16.699 Y5.920 E60.52737
G1 X-16.699 Y5.238 E60.56155
G1 X-14.758 Y7.178 E60.69907
G1 X-14.758 Y6.496 E60.73324
G1 X-16.699 Y4.556 E60.87076
G1 X-16.699 Y3.874 E60.90494
G1 X-14.758 Y5.814 E61.04245
G1 X-14.758 Y5.132 E61.07663
G1 X-16.699 Y3.192 E61.21415
G1 X-16.699 Y2.510 E61.24832
G1 X-14.758 Y4.450 E61.38584
G1 X-14.758 Y3.768 E61.42002
G1 X-16.699 Y1.828 E61.55753
G1 X-16.699 Y1.146 E61.59171
G1 X-14.758 Y3.086 E61.72923
G1 X-14.758 Y2.405 E61.76340
G1 X-16.699 Y0.464 E61.90092
G1 X-16.699 Y-0.218 E61.93510
G1 X-14.758 Y1.723 E62.07262
G1 X-14.758 Y1.041 E62.10679
G1 X-16.699 Y-0.899 E62.24431
G1 X-16.699 Y-1.581 E62.27848
G1 X-14.758 Y0.359 E62.41600
G1 X-14.758 Y-0.323 E62.45018
G1 X-16.699 Y-2.263 E62.58770
G1 X-16.699 Y-2.945 E62.62187
G1 X-14.758 Y-1.005 E62.75939
G1 X-14.758 Y-1.687 E62.79356
G1 X-16.699 Y-3.627 E62.93108
G1 X-16.699 Y-4.309 E62.96526
G1 X-14.758 Y-2.369 E63.10278
G1 X-14.758 Y-3.051 E63.13695
G1 X-16.699 Y-4.991 E63.27447
G1 X-16.699 Y-5.673 E63.30864
G1 X-14.758 Y-3.733 E63.44616
G1 X-14.758 Y-4.415 E63.48034
G1 X-16.699 Y-6.355 E63.61786
G1 X-16.699 Y-7.037 E63.65203
G1 X-14.758 Y-5.097 E63.78955
G1 X-14.758 Y-5.778 E63.82372
G1 X-16.699 Y-7.719 E63.96124
G1 X-16.699 Y-8.401 E63.99542
G1 X-14.758 Y-6.460 E64.13294
G1 X-14.758 Y-7.142 E64.16711
G1 X-16.699 Y-9.083 E64.30463
G1 X-16.699 Y-9.764 E64.33880
G1 X-14.758 Y-7.824 E64.47632
G1 X-14.758 Y-8.506 E64.51050
G1 X-16.699 Y-10.446 E64.64802
G1 X-16.699 Y-11.128 E64.68219
G1 X-14.758 Y-9.188 E64.81971
G1 X-14.758 Y-9.870 E64.85389
G1 X-16.699 Y-11.810 E64.99140
G1 X-16.699 Y-12.492 E65.02558
G1 X-14.758 Y-10.552 E65.16310
G1 X-14.758 Y-11.234 E65.19727
G1 X-16.699 Y-13.174 E65.33479
G1 X-16.699 Y-13.856 E65.36897
G1 X-14.758 Y-11.916 E65.50648
G1 X-14.758 Y-12.598 E65.54066
G1 X-16.699 Y-14.538 E65.67818
G1 X-16.699 Y-15.220 E65.71235
G1 X-14.758 Y-13.280 E65.84987
G1 X-14.758 Y-13.961 E65.88405
G1 X-16.699 Y-15.902 E66.02156
G1 X-16.699 Y-16.584 E66.05574
G1 X-14.758 Y-14.643 E66.19326
G1 X-14.758 Y-15.325 E66.22743
G1 X-16.699 Y-17.266 E66.36495
G1 X-16.699 Y-17.947 E66.39913
G1 X-14.758 Y-16.007 E66.53664
G1 X-14.758 Y-16.689 E66.57082
G1 X-16.699 Y-18.629 E66.70834
G1 X-16.699 Y-19.311 E66.74251
G1 X5.083 Y2.470 E68.28632
G1 X5.765 Y2.470 E68.32049
G1 X-16.699 Y-19.993 E69.91263
G1 X-16.699 Y-20.675 E69.94680
G1 X6.447 Y2.470 E71.58727
G1 X7.129 Y2.470 E71.62145
G1 X-16.312 Y-20.970 E73.28282
G1 X-15.630 Y-20.970 E73.31700
G1 X-14.758 Y-20.099 E73.37876
G1 X-14.758 Y-20.781 E73.41294
G1 X-14.948 Y-20.970 E73.42636
G1 X2.870 Y-2.470 F5400.000
G1 X7.810 Y2.470 E73.77651 F1200.000
G1 X8.492 Y2.470 E73.81069
G1 X3.552 Y-2.470 E74.16084
G1 X4.234 Y-2.470 E74.19501
G1 X9.174 Y2.470 E74.54516
G1 X9.856 Y2.470 E74.57934
G1 X4.916 Y-2.470 E74.92949
G1 X5.598 Y-2.470 E74.96366
G1 X10.538 Y2.470 E75.31381
G1 X11.220 Y2.470 E75.34799
G1 X6.280 Y-2.470 E75.69814
G1 X6.962 Y-2.470 E75.73231
G1 X11.902 Y2.470 E76.08246
G1 X12.584 Y2.470 E76.11664
G1 X7.644 Y-2.470 E76.46679
G1 X8.326 Y-2.470 E76.50096
G1 X13.266 Y2.470 E76.85111
G1 X13.948 Y2.470 E76.88529
G1 X9.007 Y-2.470 E77.23544
G1 X9.689 Y-2.470 E77.26961
G1 X13.999 Y1.840 E77.57508
G1 X13.523 Y0.682 F5400.000
G1 X10.371 Y-2.470 E77.79848 F1200.000
G1 X11.053 Y-2.470 E77.83266
G1 X13.456 Y-0.068 E78.00294
G1 X13.523 Y-0.682 E78.03392
G1 X11.735 Y-2.470 E78.16066
G1 X12.417 Y-2.470 E78.19484
G1 X13.663 Y-1.225 E78.28312
G1 X13.903 Y-1.666 E78.30831
G1 X13.099 Y-2.470 E78.36533
G1 X13.781 Y-2.470 E78.39950
G1 X14.174 Y-2.077 E78.42735
G1 X14.504 Y-2.429 E78.45152
G1 X14.463 Y-2.470 E78.45444
G1 X15.678 Y-2.670 F5400.000
G1 X15.760 Y-2.945 E78.46198 F480.000
G1 X15.976 Y-2.729 E78.47000 F480.000
G1 X16.118 Y-2.945 E78.47677 F480.000
G1 X16.249 Y-2.814 E78.48164 F480.000
G1 X16.475 Y-2.945 E78.48850 F480.000
G1 X16.585 Y-2.835 E78.49259 F480.000
G1 X16.832 Y-2.945 E78.49969 F480.000
G1 X16.921 Y-2.856 E78.50299 F480.000
G1 X17.315 Y-2.819 E78.51339 F480.000
G1 X17.337 Y-2.797 E78.51420 F480.000
G1 X18.316 Y-2.426 F5400.000
G1 X18.407 Y-2.335 E78.51746 F480.000
G1 X19.371 Y-1.152 F5400.000
G1 X19.393 Y-1.130 E78.51823 F480.000
G1 X19.623 Y-0.199 F5400.000
G1 X19.642 Y-0.180 E78.51903 F480.000
G1 X19.610 Y0.187 E78.52981 F480.000
G1 X19.623 Y0.199 E78.53033 F480.000
G1 X19.393 Y1.130 F5400.000
G1 X19.408 Y1.145 E78.53111 F480.000
G1 X19.216 Y1.460 E78.54485 F480.000
G1 X19.229 Y1.473 E78.54553 F480.000
G1 X18.561 Y2.202 F5400.000
G1 X18.583 Y2.223 E78.54659 F480.000
G1 X18.561 Y2.202 F5400.000
G1 X18.316 Y2.426 E78.55805 F480.000
G1 X18.329 Y2.439 E78.55867 F480.000
G1 X17.337 Y2.797 F5400.000
G1 X17.326 Y2.786 E78.55911 F480.000
G1 X17.078 Y2.909 E78.56667 F480.000
G1 X17.014 Y2.845 E78.56914 F480.000
G1 X16.742 Y2.945 E78.57704 F480.000
G1 X16.635 Y2.837 E78.58120 F480.000
G1 X16.371 Y2.945 E78.58897 F480.000
G1 X16.238 Y2.813 E78.59410 F480.000
G1 X16.000 Y2.945 E78.60155 F480.000
G1 X15.701 Y2.647 E78.61307 F480.000
G1 X15.604 Y2.922 E78.62102 F480.000
G1 X15.628 Y2.945 E78.62194 F480.000
G1 X15.707 Y-2.641 F5400.000
G1 X15.678 Y-2.670 E78.62300 F480.000
M106 S243
M104 S185 ; set temperature
M140 S58 ; set bed temperature
M204 S9000
G1 Z0.500 F5400.000
