; generated by Slic3r 1.0.0RC2 on 2014-02-19 at 18:07:29

; layer_height = 0.25
; perimeters = 3
; top_solid_layers = 3
; bottom_solid_layers = 3
; fill_density = 0.35
; perimeter_speed = 40
; infill_speed = 60
; travel_speed = 90
; nozzle_diameter = 0.4
; filament_diameter = 1.75
; extrusion_multiplier = 1.0
; perimeters extrusion width = 0.40mm
; infill extrusion width = 0.53mm
; solid infill extrusion width = 0.53mm
; top infill extrusion width = 0.53mm
; first layer extrusion width = 0.50mm

G21 ; set units to millimeters
M107
M190 S60 ; wait for bed temperature to be reached
M104 S190 ; set temperature
G28 ; home all axes
G1 Z5 F5000 ; lift nozzle
M207 S1 F30 Z1
M208 S1 F30
M109 S190 ; wait for temperature to be reached
G90 ; use absolute coordinates
G92 E0
M82 ; use absolute distances for extrusion
M204 S9000
G1 Z0.250 F5400.000
G1 X-10.881 Y22.500 F5400.000
G1 X-11.021 Y23.860 E0.06800 F960.000
G1 X-11.411 Y25.160 E0.13551
G1 X-12.061 Y26.370 E0.20383
G1 X-12.921 Y27.420 E0.27133
G1 X-13.971 Y28.280 E0.33884
G1 X-15.181 Y28.930 E0.40716
G1 X-16.481 Y29.320 E0.47466
G1 X-17.841 Y29.460 E0.54267
G1 X-18.341 Y29.460 E0.56754
G1 X-19.701 Y29.320 E0.63554
G1 X-21.001 Y28.930 E0.70304
G1 X-22.211 Y28.280 E0.77136
G1 X-23.261 Y27.420 E0.83887
G1 X-24.121 Y26.370 E0.90638
G1 X-24.771 Y25.160 E0.97469
G1 X-25.161 Y23.860 E1.04220
G1 X-25.301 Y22.500 E1.11020
G1 X-25.301 Y-22.500 E3.34843
G1 X-25.161 Y-23.860 E3.41643
G1 X-24.771 Y-25.160 E3.48394
G1 X-24.121 Y-26.370 E3.55226
G1 X-23.261 Y-27.420 E3.61976
G1 X-22.211 Y-28.280 E3.68727
G1 X-21.001 Y-28.930 E3.75559
G1 X-19.701 Y-29.320 E3.82310
G1 X-18.341 Y-29.460 E3.89110
G1 X-17.841 Y-29.460 E3.91597
G1 X-16.481 Y-29.320 E3.98397
G1 X-15.181 Y-28.930 E4.05148
G1 X-13.971 Y-28.280 E4.11979
G1 X-12.921 Y-27.420 E4.18730
G1 X-12.061 Y-26.370 E4.25481
G1 X-11.411 Y-25.160 E4.32312
G1 X-11.021 Y-23.860 E4.39063
G1 X-10.881 Y-22.500 E4.45863
G1 X-10.881 Y22.428 E6.69329
G1 X-11.361 Y22.500 F5400.000
G1 X-11.491 Y23.760 E6.75630 F960.000
G1 X-11.851 Y24.980 E6.81956
G1 X-12.451 Y26.100 E6.88276
G1 X-13.261 Y27.080 E6.94600
G1 X-14.241 Y27.890 E7.00924
G1 X-15.361 Y28.490 E7.07243
G1 X-16.581 Y28.850 E7.13570
G1 X-17.841 Y28.980 E7.19871
G1 X-18.341 Y28.980 E7.22357
G1 X-19.601 Y28.850 E7.28658
G1 X-20.821 Y28.490 E7.34985
G1 X-21.941 Y27.890 E7.41304
G1 X-22.921 Y27.080 E7.47628
G1 X-23.731 Y26.100 E7.53952
G1 X-24.331 Y24.980 E7.60272
G1 X-24.691 Y23.760 E7.66598
G1 X-24.821 Y22.500 E7.72899
G1 X-24.821 Y-22.500 E9.96722
G1 X-24.691 Y-23.760 E10.03022
G1 X-24.331 Y-24.980 E10.09349
G1 X-23.731 Y-26.100 E10.15668
G1 X-22.921 Y-27.080 E10.21992
G1 X-21.941 Y-27.890 E10.28316
G1 X-20.821 Y-28.490 E10.34636
G1 X-19.601 Y-28.850 E10.40963
G1 X-18.341 Y-28.980 E10.47263
G1 X-17.841 Y-28.980 E10.49750
G1 X-16.581 Y-28.850 E10.56050
G1 X-15.361 Y-28.490 E10.62377
G1 X-14.241 Y-27.890 E10.68697
G1 X-13.261 Y-27.080 E10.75020
G1 X-12.451 Y-26.100 E10.81344
G1 X-11.851 Y-24.980 E10.87664
G1 X-11.491 Y-23.760 E10.93991
G1 X-11.361 Y-22.500 E11.00291
G1 X-11.361 Y22.428 E13.23757
G1 X-18.221 Y10.518 F5400.000
G1 X-18.091 Y10.751 E13.25081 F672.000
G1 X-17.851 Y10.620 E13.26439
G1 X-18.091 Y10.751 F5400.000
G1 X-18.098 Y22.141 E13.83094 F672.000
G1 X-17.960 Y22.482 E13.84922
G1 X-18.090 Y22.249 F5400.000
G1 X-18.329 Y22.380 E13.86281 F672.000
G1 X-17.960 Y-10.518 F5400.000
G1 X-18.098 Y-10.859 E13.88108 F672.000
G1 X-18.091 Y-22.249 E14.44763
G1 X-18.221 Y-22.482 F5400.000
G1 X-18.091 Y-22.249 E14.46087 F672.000
G1 X-17.851 Y-22.380 E14.47446
G1 X-18.090 Y-10.751 F5400.000
G1 X-18.329 Y-10.620 E14.48804 F672.000
M106 S255
M104 S185 ; set temperature
M140 S58 ; set bed temperature
M204 S9000
G1 Z0.500 F5400.000
G1 X-17.973 Y10.700 F5400.000
M204 S9000
G1 X-17.973 Y22.300 E14.97032 F600.000
G1 X-18.340 Y22.300 E14.98557
M204 S9000
M204 S9000
M106 S255
G1 X-19.073 Y22.300 E15.02387 F1800
G1 X-19.073 Y10.700 E15.62991
G1 X-18.340 Y10.700 E15.66821
M106 S255
M204 S9000
M204 S9000
G1 X-18.033 Y10.700 E15.68097 F600.000
M204 S9000
G1 X-18.150 Y11.006 F5400.000
G1 X-17.973 Y-10.700 F5400.000
M204 S9000
G1 X-18.340 Y-10.700 E15.69623 F600.000
M204 S9000
M204 S9000
M106 S255
G1 X-19.073 Y-10.700 E15.73452 F1800
G1 X-19.073 Y-22.300 E16.34056
G1 X-18.340 Y-22.300 E16.37886
M106 S255
M204 S9000
M204 S9000
G1 X-17.973 Y-22.300 E16.39412 F600.000
G1 X-17.973 Y-10.760 E16.87389
M204 S9000
G1 X-18.320 Y-10.900 F5400.000
G1 X-18.394 Y-11.079 F5400.000
G1 X-18.694 Y-11.364 E16.89164 F600.000
G1 X-18.353 Y-11.705 E16.91236 F600.000
G1 X-18.694 Y-11.948 E16.93035 F600.000
G1 X-18.353 Y-12.289 E16.95107 F600.000
G1 X-18.694 Y-12.532 E16.96906 F600.000
G1 X-18.353 Y-12.873 E16.98978 F600.000
G1 X-18.694 Y-13.116 E17.00777 F600.000
G1 X-18.353 Y-13.457 E17.02850 F600.000
G1 X-18.694 Y-13.700 E17.04648 F600.000
G1 X-18.353 Y-14.042 E17.06721 F600.000
G1 X-18.694 Y-14.285 E17.08519 F600.000
G1 X-18.353 Y-14.626 E17.10592 F600.000
G1 X-18.694 Y-14.869 E17.12390 F600.000
G1 X-18.353 Y-15.210 E17.14463 F600.000
G1 X-18.694 Y-15.453 E17.16262 F600.000
G1 X-18.353 Y-15.794 E17.18334 F600.000
G1 X-18.694 Y-16.037 E17.20133 F600.000
G1 X-18.353 Y-16.379 E17.22205 F600.000
G1 X-18.694 Y-16.621 E17.24004 F600.000
G1 X-18.353 Y-16.963 E17.26076 F600.000
G1 X-18.694 Y-17.206 E17.27875 F600.000
G1 X-18.353 Y-17.547 E17.29947 F600.000
G1 X-18.694 Y-17.790 E17.31746 F600.000
G1 X-18.353 Y-18.131 E17.33819 F600.000
G1 X-18.694 Y-18.374 E17.35617 F600.000
G1 X-18.353 Y-18.715 E17.37690 F600.000
G1 X-18.694 Y-18.958 E17.39488 F600.000
G1 X-18.353 Y-19.300 E17.41561 F600.000
G1 X-18.694 Y-19.543 E17.43360 F600.000
G1 X-18.353 Y-19.884 E17.45432 F600.000
G1 X-18.694 Y-20.127 E17.47231 F600.000
G1 X-18.353 Y-20.468 E17.49303 F600.000
G1 X-18.694 Y-20.711 E17.51102 F600.000
G1 X-18.353 Y-21.052 E17.53174 F600.000
G1 X-18.694 Y-21.295 E17.54973 F600.000
G1 X-18.353 Y-21.636 E17.57045 F600.000
G1 X-18.653 Y-21.921 E17.58820 F600.000
G1 X-18.694 Y-21.879 E17.59070 F600.000
G1 X-18.353 Y-11.121 F5400.000
G1 X-18.394 Y-11.079 E17.59321 F600.000
G1 X-18.653 Y11.079 F5400.000
G1 X-18.694 Y11.121 E17.59572 F600.000
G1 X-18.653 Y11.079 F5400.000
G1 X-18.353 Y11.364 E17.61347 F600.000
G1 X-18.694 Y11.705 E17.63419 F600.000
G1 X-18.353 Y11.948 E17.65218 F600.000
G1 X-18.694 Y12.289 E17.67290 F600.000
G1 X-18.353 Y12.532 E17.69089 F600.000
G1 X-18.694 Y12.873 E17.71161 F600.000
G1 X-18.353 Y13.116 E17.72960 F600.000
G1 X-18.694 Y13.457 E17.75032 F600.000
G1 X-18.353 Y13.700 E17.76831 F600.000
G1 X-18.694 Y14.042 E17.78904 F600.000
G1 X-18.353 Y14.285 E17.80702 F600.000
G1 X-18.694 Y14.626 E17.82775 F600.000
G1 X-18.353 Y14.869 E17.84573 F600.000
G1 X-18.694 Y15.210 E17.86646 F600.000
G1 X-18.353 Y15.453 E17.88444 F600.000
G1 X-18.694 Y15.794 E17.90517 F600.000
G1 X-18.353 Y16.037 E17.92316 F600.000
G1 X-18.694 Y16.379 E17.94388 F600.000
G1 X-18.353 Y16.621 E17.96187 F600.000
G1 X-18.694 Y16.963 E17.98259 F600.000
G1 X-18.353 Y17.206 E18.00058 F600.000
G1 X-18.694 Y17.547 E18.02130 F600.000
G1 X-18.353 Y17.790 E18.03929 F600.000
G1 X-18.694 Y18.131 E18.06001 F600.000
G1 X-18.353 Y18.374 E18.07800 F600.000
G1 X-18.694 Y18.715 E18.09873 F600.000
G1 X-18.353 Y18.958 E18.11671 F600.000
G1 X-18.694 Y19.300 E18.13744 F600.000
G1 X-18.353 Y19.543 E18.15542 F600.000
G1 X-18.694 Y19.884 E18.17615 F600.000
G1 X-18.353 Y20.127 E18.19414 F600.000
G1 X-18.694 Y20.468 E18.21486 F600.000
G1 X-18.353 Y20.711 E18.23285 F600.000
G1 X-18.694 Y21.052 E18.25357 F600.000
G1 X-18.353 Y21.295 E18.27156 F600.000
G1 X-18.694 Y21.636 E18.29228 F600.000
G1 X-18.394 Y21.921 E18.31003 F600.000
G1 X-18.353 Y21.879 E18.31253 F600.000
G1 Z0.750 F5400.000
G1 X-18.706 Y21.500 F5400.000
M204 S9000
G1 X-19.206 Y21.500 E18.33332 F600.000
G1 X-19.206 Y11.500 E18.74907
G1 X-18.706 Y11.500 E18.76986
G1 X-18.706 Y21.440 E19.18312
M204 S9000
G1 X-18.306 Y21.313 F5400.000
M204 S9000
G1 X-18.306 Y21.900 E19.20753 F600.000
G1 X-19.273 Y21.900 E19.24773
M204 S9000
M204 S9000
M106 S255
G1 X-19.606 Y21.900 E19.26513 F1800
G1 X-19.606 Y11.100 E19.82937
G1 X-19.273 Y11.100 E19.84677
M106 S255
M204 S9000
M204 S9000
G1 X-18.306 Y11.100 E19.88697 F600.000
G1 X-18.306 Y21.253 E20.30908
M204 S9000
G1 X-17.906 Y21.313 F5400.000
M204 S9000
G1 X-17.906 Y22.300 E20.35012 F600.000
G1 X-19.273 Y22.300 E20.40695
M204 S9000
M204 S9000
M106 S255
G1 X-20.006 Y22.300 E20.44525 F1800
G1 X-20.006 Y10.700 E21.05129
G1 X-19.273 Y10.700 E21.08958
M106 S255
M204 S9000
M204 S9000
G1 X-17.906 Y10.700 E21.14642 F600.000
G1 X-17.906 Y21.253 E21.58515
M204 S9000
G1 X-18.135 Y21.445 F5400.000
G1 X-18.706 Y-11.500 F5400.000
M204 S9000
G1 X-19.206 Y-11.500 E21.60594 F600.000
G1 X-19.206 Y-21.500 E22.02169
G1 X-18.706 Y-21.500 E22.04248
G1 X-18.706 Y-11.560 E22.45574
M204 S9000
G1 X-18.306 Y-11.687 F5400.000
M204 S9000
G1 X-18.306 Y-11.100 E22.48015 F600.000
G1 X-19.273 Y-11.100 E22.52035
M204 S9000
M204 S9000
M106 S255
G1 X-19.606 Y-11.100 E22.53775 F1800
G1 X-19.606 Y-21.900 E23.10199
G1 X-19.273 Y-21.900 E23.11939
M106 S255
M204 S9000
M204 S9000
G1 X-18.306 Y-21.900 E23.15959 F600.000
G1 X-18.306 Y-11.747 E23.58170
M204 S9000
G1 X-17.906 Y-11.687 F5400.000
M204 S9000
G1 X-17.906 Y-10.700 E23.62274 F600.000
G1 X-19.273 Y-10.700 E23.67957
M204 S9000
M204 S9000
M106 S255
G1 X-20.006 Y-10.700 E23.71787 F1800
G1 X-20.006 Y-22.300 E24.32391
G1 X-19.273 Y-22.300 E24.36220
M106 S255
M204 S9000
M204 S9000
G1 X-17.906 Y-22.300 E24.41904 F600.000
G1 X-17.906 Y-11.747 E24.85777
M204 S9000
G1 X-18.135 Y-11.555 F5400.000
G1 Z1.000 F5400.000
G1 X-18.639 Y11.500 F5400.000
M204 S9000
G1 X-18.639 Y21.500 E25.27353 F600.000
G1 X-19.745 Y21.500 E25.31950
G1 X-19.745 Y11.500 E25.73525
G1 X-18.699 Y11.500 E25.77873
M204 S9000
G1 X-18.239 Y11.792 F5400.000
M204 S9000
G1 X-18.239 Y21.900 E26.19896 F600.000
G1 X-20.145 Y21.900 E26.27820
G1 X-20.145 Y11.100 E26.72721
G1 X-18.239 Y11.100 E26.80645
G1 X-18.239 Y11.732 E26.83273
M204 S9000
G1 X-17.839 Y11.792 F5400.000
M204 S9000
G1 X-17.839 Y22.300 E27.26959 F600.000
G1 X-20.206 Y22.300 E27.36800
M204 S9000
M204 S9000
M106 S255
G1 X-20.545 Y22.300 E27.38570 F1800
G1 X-20.545 Y10.700 E27.99174
G1 X-20.206 Y10.700 E28.00945
M106 S255
M204 S9000
M204 S9000
G1 X-17.839 Y10.700 E28.10786 F600.000
G1 X-17.839 Y11.732 E28.15077
M204 S9000
G1 X-18.159 Y11.977 F5400.000
G1 X-18.639 Y-11.500 F5400.000
M204 S9000
G1 X-19.745 Y-11.500 E28.19674 F600.000
G1 X-19.745 Y-21.500 E28.61250
G1 X-18.639 Y-21.500 E28.65847
G1 X-18.639 Y-11.560 E29.07173
M204 S9000
G1 X-18.239 Y-11.467 F5400.000
M204 S9000
G1 X-18.239 Y-11.100 E29.08697 F600.000
G1 X-20.145 Y-11.100 E29.16620
G1 X-20.145 Y-21.900 E29.61521
G1 X-18.239 Y-21.900 E29.69445
G1 X-18.239 Y-11.527 E30.12573
M204 S9000
G1 X-17.839 Y-11.467 F5400.000
M204 S9000
G1 X-17.839 Y-10.700 E30.15760 F600.000
G1 X-20.206 Y-10.700 E30.25600
M204 S9000
M204 S9000
M106 S255
G1 X-20.545 Y-10.700 E30.27371 F1800
G1 X-20.545 Y-22.300 E30.87975
G1 X-20.206 Y-22.300 E30.89745
M106 S255
M204 S9000
M204 S9000
G1 X-17.839 Y-22.300 E30.99586 F600.000
G1 X-17.839 Y-11.527 E31.44377
M204 S9000
G1 X-18.020 Y-11.362 F5400.000
G1 X-19.018 Y-11.921 F5400.000
G1 X-19.060 Y-11.879 E31.44636 F600.000
G1 X-19.366 Y-12.167 E31.46471 F600.000
G1 X-19.018 Y-12.515 E31.48619 F600.000
G1 X-19.366 Y-12.761 E31.50480 F600.000
G1 X-19.018 Y-13.109 E31.52628 F600.000
G1 X-19.366 Y-13.356 E31.54489 F600.000
G1 X-19.018 Y-13.703 E31.56637 F600.000
G1 X-19.366 Y-13.950 E31.58498 F600.000
G1 X-19.018 Y-14.297 E31.60646 F600.000
G1 X-19.366 Y-14.544 E31.62507 F600.000
G1 X-19.018 Y-14.892 E31.64655 F600.000
G1 X-19.366 Y-15.138 E31.66516 F600.000
G1 X-19.018 Y-15.486 E31.68663 F600.000
G1 X-19.366 Y-15.732 E31.70524 F600.000
G1 X-19.018 Y-16.080 E31.72672 F600.000
G1 X-19.366 Y-16.326 E31.74533 F600.000
G1 X-19.018 Y-16.674 E31.76681 F600.000
G1 X-19.366 Y-16.920 E31.78542 F600.000
G1 X-19.018 Y-17.268 E31.80690 F600.000
G1 X-19.366 Y-17.514 E31.82551 F600.000
G1 X-19.018 Y-17.862 E31.84699 F600.000
G1 X-19.366 Y-18.108 E31.86560 F600.000
G1 X-19.018 Y-18.456 E31.88708 F600.000
G1 X-19.366 Y-18.703 E31.90569 F600.000
G1 X-19.018 Y-19.050 E31.92717 F600.000
G1 X-19.366 Y-19.297 E31.94578 F600.000
G1 X-19.018 Y-19.644 E31.96726 F600.000
G1 X-19.366 Y-19.891 E31.98587 F600.000
G1 X-19.018 Y-20.239 E32.00734 F600.000
G1 X-19.366 Y-20.485 E32.02595 F600.000
G1 X-19.018 Y-20.833 E32.04743 F600.000
G1 X-19.324 Y-21.121 E32.06579 F600.000
G1 X-19.366 Y-21.079 E32.06838 F600.000
G1 X-19.324 Y11.879 F5400.000
G1 X-19.366 Y11.921 E32.07097 F600.000
G1 X-19.324 Y11.879 F5400.000
G1 X-19.018 Y12.167 E32.08933 F600.000
G1 X-19.366 Y12.515 E32.11080 F600.000
G1 X-19.018 Y12.761 E32.12941 F600.000
G1 X-19.366 Y13.109 E32.15089 F600.000
G1 X-19.018 Y13.356 E32.16950 F600.000
G1 X-19.366 Y13.703 E32.19098 F600.000
G1 X-19.018 Y13.950 E32.20959 F600.000
G1 X-19.366 Y14.297 E32.23107 F600.000
G1 X-19.018 Y14.544 E32.24968 F600.000
G1 X-19.366 Y14.892 E32.27116 F600.000
G1 X-19.018 Y15.138 E32.28977 F600.000
G1 X-19.366 Y15.486 E32.31125 F600.000
G1 X-19.018 Y15.732 E32.32986 F600.000
G1 X-19.366 Y16.080 E32.35134 F600.000
G1 X-19.018 Y16.326 E32.36995 F600.000
G1 X-19.366 Y16.674 E32.39142 F600.000
G1 X-19.018 Y16.920 E32.41003 F600.000
G1 X-19.366 Y17.268 E32.43151 F600.000
G1 X-19.018 Y17.514 E32.45012 F600.000
G1 X-19.366 Y17.862 E32.47160 F600.000
G1 X-19.018 Y18.108 E32.49021 F600.000
G1 X-19.366 Y18.456 E32.51169 F600.000
G1 X-19.018 Y18.703 E32.53030 F600.000
G1 X-19.366 Y19.050 E32.55178 F600.000
G1 X-19.018 Y19.297 E32.57039 F600.000
G1 X-19.366 Y19.644 E32.59187 F600.000
G1 X-19.018 Y19.891 E32.61048 F600.000
G1 X-19.366 Y20.239 E32.63196 F600.000
G1 X-19.018 Y20.485 E32.65057 F600.000
G1 X-19.366 Y20.833 E32.67205 F600.000
G1 X-19.060 Y21.121 E32.69040 F600.000
G1 X-19.018 Y21.079 E32.69299 F600.000
G1 Z1.250 F5400.000
G1 X-18.572 Y20.839 F5400.000
M204 S9000
G1 X-18.572 Y21.500 E32.72049 F600.000
G1 X-19.678 Y21.500 E32.76647
G1 X-19.678 Y11.500 E33.18222
G1 X-18.572 Y11.500 E33.22819
G1 X-18.572 Y20.779 E33.61395
M204 S9000
G1 X-18.172 Y20.839 F5400.000
M204 S9000
G1 X-18.172 Y21.900 E33.65808 F600.000
G1 X-20.078 Y21.900 E33.73731
G1 X-20.078 Y11.100 E34.18633
G1 X-18.172 Y11.100 E34.26556
G1 X-18.172 Y20.779 E34.66795
M204 S9000
G1 X-17.772 Y20.839 F5400.000
M204 S9000
G1 X-17.772 Y22.300 E34.72871 F600.000
G1 X-20.478 Y22.300 E34.84120
G1 X-20.478 Y10.700 E35.32348
G1 X-17.772 Y10.700 E35.43597
G1 X-17.772 Y20.779 E35.85499
M204 S9000
G1 X-18.119 Y21.039 F5400.000
G1 X-18.572 Y-11.500 F5400.000
M204 S9000
G1 X-19.678 Y-11.500 E35.90096 F600.000
G1 X-19.678 Y-21.500 E36.31672
G1 X-18.572 Y-21.500 E36.36269
G1 X-18.572 Y-11.560 E36.77595
M204 S9000
G1 X-18.172 Y-11.100 F5400.000
M204 S9000
G1 X-20.078 Y-11.100 E36.85518 F600.000
G1 X-20.078 Y-21.900 E37.30419
G1 X-18.172 Y-21.900 E37.38343
G1 X-18.172 Y-11.160 E37.82995
M204 S9000
G1 X-17.772 Y-11.329 F5400.000
M204 S9000
G1 X-17.772 Y-10.700 E37.85611 F600.000
G1 X-20.478 Y-10.700 E37.96861
G1 X-20.478 Y-22.300 E38.45088
G1 X-17.772 Y-22.300 E38.56338
G1 X-17.772 Y-11.389 E39.01699
M204 S9000
G1 X-18.119 Y-11.129 F5400.000
G1 X-18.951 Y-12.167 F5400.000
G1 X-19.299 Y-12.515 E39.03847 F600.000
G1 X-18.951 Y-12.761 E39.05707 F600.000
G1 X-19.299 Y-13.109 E39.07855 F600.000
G1 X-18.951 Y-13.356 E39.09716 F600.000
G1 X-19.299 Y-13.703 E39.11864 F600.000
G1 X-18.951 Y-13.950 E39.13725 F600.000
G1 X-19.299 Y-14.297 E39.15873 F600.000
G1 X-18.951 Y-14.544 E39.17734 F600.000
G1 X-19.299 Y-14.892 E39.19882 F600.000
G1 X-18.951 Y-15.138 E39.21743 F600.000
G1 X-19.299 Y-15.486 E39.23891 F600.000
G1 X-18.951 Y-15.732 E39.25752 F600.000
G1 X-19.299 Y-16.080 E39.27900 F600.000
G1 X-18.951 Y-16.326 E39.29761 F600.000
G1 X-19.299 Y-16.674 E39.31909 F600.000
G1 X-18.951 Y-16.920 E39.33770 F600.000
G1 X-19.299 Y-17.268 E39.35918 F600.000
G1 X-18.951 Y-17.514 E39.37779 F600.000
G1 X-19.299 Y-17.862 E39.39926 F600.000
G1 X-18.951 Y-18.108 E39.41787 F600.000
G1 X-19.299 Y-18.456 E39.43935 F600.000
G1 X-18.951 Y-18.703 E39.45796 F600.000
