; generated by Slic3r 1.0.0RC2 on 2014-02-10 at 19:15:41

; layer_height = 0.25
; perimeters = 3
; top_solid_layers = 3
; bottom_solid_layers = 3
; fill_density = 0.4
; perimeter_speed = 50
; infill_speed = 80
; travel_speed = 120
; nozzle_diameter = 0.4
; filament_diameter = 1.75
; extrusion_multiplier = 1
; perimeters extrusion width = 0.40mm
; infill extrusion width = 0.53mm
; solid infill extrusion width = 0.53mm
; top infill extrusion width = 0.53mm
; first layer extrusion width = 0.80mm

G21 ; set units to millimeters
M107
M190 S65 ; wait for bed temperature to be reached
M104 S200 ; set temperature
G28 ; home all axes
G1 Z5 F5000 ; lift nozzle

M109 S200 ; wait for temperature to be reached
G90 ; use absolute coordinates
G92 E0
M82 ; use absolute distances for extrusion
G1 F1800.000 E-1.00000
G92 E0
G1 Z0.400 F7200.000
G1 X1.090 Y-13.838 F7200.000
G1 E1.00000 F1800.000
G1 X1.610 Y-13.958 E1.06338 F900.000
G1 X2.160 Y-14.058 E1.12977
G1 X2.770 Y-14.138 E1.20284
G1 X3.340 Y-14.188 E1.27080
G1 X3.930 Y-14.208 E1.34091
G1 X4.970 Y-14.198 E1.46443
G1 X5.520 Y-14.158 E1.52992
G1 X6.660 Y-13.998 E1.66664
G1 X7.270 Y-13.868 E1.74072
G1 X7.810 Y-13.728 E1.80697
G1 X8.850 Y-13.388 E1.93692
G1 X9.410 Y-13.168 E2.00837
G1 X9.920 Y-12.938 E2.07482
G1 X10.490 Y-12.648 E2.15077
G1 X11.400 Y-12.108 E2.27645
G1 X11.860 Y-11.798 E2.34233
G1 X12.730 Y-11.128 E2.47274
G1 X13.240 Y-10.688 E2.55274
G1 X13.990 Y-9.928 E2.67955
G1 X14.360 Y-9.508 E2.74603
G1 X14.730 Y-9.038 E2.81707
G1 X15.400 Y-8.088 E2.95513
G1 X15.690 Y-7.608 E3.02174
G1 X16.200 Y-6.638 E3.15189
G1 X16.460 Y-6.048 E3.22846
G1 X16.660 Y-5.528 E3.29463
G1 X16.980 Y-4.528 E3.41933
G1 X17.240 Y-3.358 E3.56167
G1 X17.390 Y-2.338 E3.68412
G1 X17.440 Y-1.608 E3.77102
G1 X17.440 Y-0.568 E3.89454
G1 X17.410 Y-0.008 E3.96114
G1 X17.350 Y0.602 E4.03394
G1 X17.190 Y1.612 E4.15538
G1 X17.070 Y2.162 E4.22224
G1 X16.900 Y2.782 E4.29859
G1 X16.510 Y3.922 E4.44169
G1 X16.290 Y4.432 E4.50766
G1 X15.820 Y5.372 E4.63247
G1 X15.220 Y6.352 E4.76894
G1 X14.810 Y6.922 E4.85233
G1 X14.190 Y7.682 E4.96882
G1 X13.820 Y8.092 E5.03441
G1 X13.340 Y8.572 E5.11503
G1 X12.530 Y9.282 E5.24296
G1 X12.090 Y9.622 E5.30900
G1 X11.020 Y10.342 E5.46217
G1 X6.840 Y12.902 E6.04431
G1 X6.190 Y13.252 E6.13199
G1 X5.210 Y13.682 E6.25909
G1 X4.890 Y13.792 E6.29928
G1 X4.300 Y13.962 E6.37220
G1 X3.690 Y14.082 E6.44603
G1 X2.760 Y14.192 E6.55725
G1 X2.170 Y14.202 E6.62734
G1 X1.830 Y14.192 E6.66773
G1 X0.860 Y14.092 E6.78355
G1 X-10.810 Y12.102 E8.18954
G1 X-11.690 Y11.902 E8.29672
G1 X-12.320 Y11.682 E8.37597
G1 X-12.520 Y11.602 E8.40156
G1 X-13.510 Y11.112 E8.53275
G1 X-13.790 Y10.942 E8.57165
G1 X-14.540 Y10.412 E8.68072
G1 X-15.210 Y9.792 E8.78914
G1 X-15.360 Y9.632 E8.81518
G1 X-16.050 Y8.762 E8.94706
G1 X-16.230 Y8.492 E8.98560
G1 X-16.690 Y7.692 E9.09520
G1 X-17.030 Y6.832 E9.20503
G1 X-17.130 Y6.522 E9.24372
G1 X-17.360 Y5.602 E9.35634
G1 X-17.450 Y4.662 E9.46849
G1 X-17.460 Y3.792 E9.57182
G1 X-17.090 Y-3.428 E10.43043
G1 X-17.010 Y-4.178 E10.52001
G1 X-16.750 Y-5.228 E10.64848
G1 X-16.480 Y-6.018 E10.74764
G1 X-15.990 Y-6.958 E10.87353
G1 X-15.590 Y-7.568 E10.96017
G1 X-15.130 Y-8.138 E11.04716
G1 X-14.910 Y-8.378 E11.08582
G1 X-14.220 Y-9.028 E11.19841
G1 X-13.440 Y-9.578 E11.31176
G1 X-13.160 Y-9.748 E11.35066
G1 X-12.630 Y-10.038 E11.42241
G1 X-12.070 Y-10.278 E11.49477
G1 X-11.190 Y-10.578 E11.60519
G1 X0.987 Y-13.810 E13.10142
G1 F1800.000 E12.10142
G92 E0
G1 X2.906 Y-6.952 F7200.000
G1 E1.00000 F1800.000
G1 X3.422 Y-7.045 E1.06227 F630.000
G1 X3.944 Y-7.094 E1.12454
G1 X4.468 Y-7.098 E1.18681
G1 X4.991 Y-7.056 E1.24908
G1 X5.508 Y-6.970 E1.31135
G1 X6.016 Y-6.840 E1.37362
G1 X6.511 Y-6.667 E1.43589
G1 X6.989 Y-6.452 E1.49815
G1 X7.447 Y-6.197 E1.56042
G1 X7.881 Y-5.903 E1.62269
G1 X8.289 Y-5.573 E1.68496
G1 X8.667 Y-5.209 E1.74723
G1 X9.012 Y-4.814 E1.80950
G1 X9.321 Y-4.391 E1.87177
G1 X9.594 Y-3.943 E1.93404
G1 X9.827 Y-3.474 E1.99631
G1 X10.018 Y-2.986 E2.05858
G1 X10.167 Y-2.483 E2.12085
G1 X10.273 Y-1.969 E2.18312
G1 X10.334 Y-1.449 E2.24539
G1 X10.349 Y-0.925 E2.30765
G1 X10.320 Y-0.401 E2.36993
G1 X10.246 Y0.118 E2.43219
G1 X10.128 Y0.629 E2.49446
G1 X9.966 Y1.127 E2.55673
G1 X9.762 Y1.610 E2.61900
G1 X9.517 Y2.074 E2.68127
G1 X9.234 Y2.515 E2.74354
G1 X8.913 Y2.930 E2.80581
G1 X8.559 Y3.316 E2.86808
G1 X8.172 Y3.670 E2.93035
G1 X7.756 Y3.990 E2.99262
G1 X7.314 Y4.272 E3.05489
G1 X6.850 Y4.516 E3.11715
G1 X6.367 Y4.719 E3.17942
G1 X5.868 Y4.879 E3.24169
G1 X5.164 Y5.040 E3.32740
G1 X4.976 Y5.100 E3.35086
G1 X4.617 Y5.264 E3.39772
G1 X4.290 Y5.485 E3.44457
G1 X3.725 Y5.978 E3.53370
G1 X3.603 Y5.136 E3.63478
G1 X3.463 Y4.798 E3.67820
G1 X3.323 Y4.598 E3.70719
G1 X3.150 Y4.425 E3.73618
G1 X2.842 Y4.229 E3.77960
G1 X2.613 Y4.146 E3.80859
G1 X2.250 Y4.087 E3.85219
G1 X1.888 Y4.146 E3.89579
G1 X1.658 Y4.229 E3.92478
G1 X1.447 Y4.351 E3.95378
G1 X1.177 Y4.598 E3.99719
G1 X1.037 Y4.798 E4.02618
G1 X0.898 Y5.136 E4.06960
G1 X0.773 Y6.000 E4.17332
G1 X0.163 Y5.532 E4.26465
G1 X-0.199 Y5.323 E4.31434
G1 X-0.593 Y5.180 E4.36404
G1 X-1.005 Y5.107 E4.41374
G1 X-9.491 Y5.098 E5.42162
G1 X-9.647 Y5.085 E5.44025
G1 X-9.859 Y5.018 E5.46659
G1 X-9.987 Y4.944 E5.48418
G1 X-10.151 Y4.794 E5.51052
G1 X-10.270 Y4.607 E5.53686
G1 X-10.336 Y4.396 E5.56320
G1 X-10.346 Y4.174 E5.58955
G1 X-10.298 Y3.958 E5.61589
G1 X-10.196 Y3.761 E5.64223
G1 X-10.046 Y3.597 E5.66857
G1 X-9.859 Y3.478 E5.69491
G1 X-9.647 Y3.411 E5.72125
G1 X-9.491 Y3.398 E5.73988
G1 X4.259 Y3.398 E7.37289
G1 X4.629 Y3.382 E7.41690
G1 X5.005 Y3.333 E7.46194
G1 X5.376 Y3.252 E7.50698
G1 X5.738 Y3.140 E7.55201
G1 X6.089 Y2.996 E7.59705
G1 X6.426 Y2.823 E7.64209
G1 X6.747 Y2.621 E7.68713
G1 X7.050 Y2.393 E7.73217
G1 X7.332 Y2.139 E7.77720
G1 X7.591 Y1.862 E7.82224
G1 X7.825 Y1.564 E7.86728
G1 X8.033 Y1.247 E7.91232
G1 X8.222 Y0.891 E7.96021
G1 X8.362 Y0.564 E8.00238
G1 X8.482 Y0.205 E8.04742
G1 X8.570 Y-0.164 E8.09246
G1 X8.626 Y-0.539 E8.13750
G1 X8.650 Y-0.918 E8.18254
G1 X8.641 Y-1.297 E8.22758
G1 X8.599 Y-1.674 E8.27261
G1 X8.525 Y-2.046 E8.31765
G1 X8.419 Y-2.410 E8.36269
G1 X8.283 Y-2.764 E8.40772
G1 X8.116 Y-3.104 E8.45276
G1 X7.921 Y-3.429 E8.49780
G1 X7.698 Y-3.736 E8.54284
G1 X7.450 Y-4.023 E8.58787
G1 X7.178 Y-4.287 E8.63291
G1 X6.884 Y-4.527 E8.67795
G1 X6.571 Y-4.741 E8.72299
G1 X6.218 Y-4.937 E8.77088
G1 X5.895 Y-5.083 E8.81305
G1 X5.537 Y-5.210 E8.85809
G1 X5.170 Y-5.305 E8.90313
G1 X4.796 Y-5.368 E8.94816
G1 X4.418 Y-5.399 E8.99320
G1 X4.015 Y-5.395 E9.04110
G1 X3.661 Y-5.363 E9.08327
G1 X3.288 Y-5.296 E9.12831
G1 X2.922 Y-5.197 E9.17335
G1 X2.566 Y-5.067 E9.21839
G1 X2.222 Y-4.907 E9.26342
G1 X1.893 Y-4.718 E9.30846
G1 X1.582 Y-4.501 E9.35350
G1 X1.291 Y-4.258 E9.39853
G1 X1.021 Y-3.991 E9.44357
G1 X-0.657 Y-1.884 E9.76353
G1 X-0.931 Y-1.612 E9.80938
G1 X-1.226 Y-1.363 E9.85522
G1 X-1.541 Y-1.140 E9.90106
G1 X-1.873 Y-0.944 E9.94690
G1 X-2.221 Y-0.777 E9.99274
G1 X-2.582 Y-0.639 E10.03859
G1 X-2.953 Y-0.532 E10.08443
G1 X-3.331 Y-0.457 E10.13027
G1 X-3.715 Y-0.414 E10.17611
G1 X-4.101 Y-0.403 E10.22195
G1 X-4.486 Y-0.424 E10.26780
G1 X-4.868 Y-0.477 E10.31364
G1 X-5.245 Y-0.563 E10.35948
G1 X-5.621 Y-0.682 E10.40632
G1 X-9.507 Y-2.100 E10.89760
G1 X-9.694 Y-2.219 E10.92394
G1 X-9.798 Y-2.324 E10.94153
G1 X-9.883 Y-2.445 E10.95912
G1 X-9.946 Y-2.580 E10.97671
G1 X-9.994 Y-2.796 E11.00305
G1 X-9.984 Y-3.018 E11.02939
G1 X-9.918 Y-3.229 E11.05573
G1 X-9.798 Y-3.416 E11.08207
G1 X-9.635 Y-3.566 E11.10842
G1 X-9.507 Y-3.640 E11.12600
G1 X-9.295 Y-3.707 E11.15235
G1 X-9.074 Y-3.717 E11.17869
G1 X-8.849 Y-3.666 E11.20606
G1 X-4.800 Y-2.203 E11.71739
G1 X-4.321 Y-2.115 E11.77514
G1 X-3.835 Y-2.109 E11.83291
G1 X-3.593 Y-2.136 E11.86182
G1 X-3.120 Y-2.251 E11.91958
G1 X-2.674 Y-2.443 E11.97734
G1 X-2.265 Y-2.707 E12.03510
G1 X-2.079 Y-2.864 E12.06401
G1 X-1.755 Y-3.215 E12.12077
G1 X-0.571 Y-4.739 E12.34989
G1 X-0.226 Y-5.145 E12.41318
G1 X0.146 Y-5.514 E12.47545
G1 X0.549 Y-5.850 E12.53772
G1 X0.979 Y-6.150 E12.59999
G1 X1.433 Y-6.412 E12.66226
G1 X1.908 Y-6.634 E12.72453
G1 X2.400 Y-6.814 E12.78679
G1 X2.803 Y-6.923 E12.83634
G1 X3.256 Y-6.561 F7200.000
G1 F1800.000 E11.83634
G92 E0
G1 X1.237 Y5.633 F7200.000
G1 E1.00000 F1800.000
G1 X1.443 Y6.607 E1.11826 F630.000
G1 X1.187 Y6.573 E1.14888
G1 X0.980 Y6.852 E1.19013
G1 X0.646 Y6.497 E1.24794
G1 X0.980 Y6.852 F7200.000
G1 X1.459 Y6.883 E1.30501 F630.000
G1 X1.567 Y6.824 E1.31960
G1 X1.443 Y6.607 E1.34935
G1 X1.567 Y6.824 F7200.000
G1 X2.100 Y7.000 E1.41597 F630.000
G1 X2.918 Y6.831 E1.51515
G1 X3.305 Y5.958 F7200.000
G1 X2.918 Y6.831 E1.62855 F630.000
G1 X3.397 Y6.979 E1.68805
G1 X3.598 Y6.696 E1.72926
G1 X3.793 Y6.689 E1.75241
G1 X3.834 Y6.424 E1.78427
G1 X4.284 Y4.624 F7200.000
G1 X4.074 Y4.414 E1.81962 F360.000
G1 X4.284 Y4.624 F7200.000
G1 X4.763 Y4.092 E1.90475 F360.000
G1 X5.007 Y4.336 E1.94580 F360.000
G1 X5.615 Y3.933 E2.03254 F360.000
G1 X5.819 Y4.137 E2.06687 F360.000
G1 X6.358 Y3.665 E2.15206 F360.000
G1 X6.551 Y3.858 E2.18452 F360.000
G1 X7.011 Y3.307 E2.26988 F360.000
G1 X7.196 Y3.492 E2.30090 F360.000
G1 X7.759 Y3.044 E2.38646 F360.000
G1 X7.591 Y2.876 E2.41465 F360.000
G1 X8.100 Y2.374 E2.49967 F360.000
G1 X8.265 Y2.538 E2.52733 F360.000
G1 X8.719 Y1.982 E2.61277 F360.000
G1 X8.535 Y1.797 E2.64382 F360.000
G1 X9.089 Y1.340 E2.72923 F360.000
G1 X8.896 Y1.148 E2.76162 F360.000
G1 X9.374 Y0.614 E2.84676 F360.000
G1 X9.173 Y0.413 E2.88062 F360.000
G1 X9.564 Y-0.207 E2.96778 F360.000
G1 X9.339 Y-0.432 E3.00553 F360.000
G1 X9.621 Y-1.162 E3.09854 F360.000
G1 X9.352 Y-1.430 E3.14375 F360.000
G1 X9.459 Y-2.334 E3.25197 F360.000
G1 X9.072 Y-2.721 E3.31698 F360.000
G1 X8.466 Y-4.338 F7200.000
G1 X7.610 Y-5.195 E3.46103 F360.000
G1 X5.972 Y-5.821 F7200.000
G1 X5.588 Y-6.205 E3.52564 F360.000
G1 X4.681 Y-6.101 E3.63421 F360.000
G1 X4.406 Y-6.376 E3.68036 F360.000
G1 X3.682 Y-6.089 E3.77298 F360.000
G1 X3.453 Y-6.318 E3.81144 F360.000
G1 X2.838 Y-5.922 E3.89842 F360.000
G1 X2.631 Y-6.129 E3.93336 F360.000
G1 X2.102 Y-5.647 E4.01846 F360.000
G1 X1.910 Y-5.839 E4.05072 F360.000
G1 X1.266 Y-5.471 E4.13885 F360.000
G1 X1.450 Y-5.288 E4.16966 F360.000
G1 X0.875 Y-4.851 E4.25546 F360.000
G1 X0.694 Y-5.032 E4.28590 F360.000
G1 X0.192 Y-4.523 E4.37092 F360.000
G1 X0.373 Y-4.342 E4.40134 F360.000
G1 X-0.076 Y-3.781 E4.48688 F360.000
G1 X-0.260 Y-3.964 E4.51772 F360.000
G1 X-0.702 Y-3.395 E4.60339 F360.000
G1 X-0.519 Y-3.212 E4.63423 F360.000
G1 X-0.961 Y-2.643 E4.71991 F360.000
G1 X-1.144 Y-2.826 E4.75075 F360.000
G1 X-1.629 Y-2.300 E4.83583 F360.000
G1 X-1.448 Y-2.119 E4.86627 F360.000
G1 X-2.030 Y-1.689 E4.95224 F360.000
G1 X-2.216 Y-1.876 E4.98357 F360.000
G1 X-2.713 Y-1.361 E5.06860 F360.000
G1 X-2.912 Y-1.560 E5.10206 F360.000
G1 X-3.524 Y-1.161 E5.18894 F360.000
G1 X-3.754 Y-1.392 E5.22773 F360.000
G1 X-4.533 Y-1.159 E5.32430 F360.000
G1 X-4.848 Y-1.474 E5.37732 F360.000
G1 X-5.957 Y-1.572 E5.50971 F360.000
G1 X-6.388 Y-2.003 E5.58211 F360.000
G1 X-7.547 Y-2.151 E5.72106 F360.000
G1 X-7.977 Y-2.581 E5.79346 F360.000
G1 X-9.275 Y-2.868 E5.95149 F360.000
G1 X-9.136 Y-2.729 E5.97480 F360.000
G1 F1800.000 E4.97480
G92 E0
G1 X-8.953 Y-2.538 F7200.000
G1 X-12.379 Y-3.132 F7200.000
G1 X-11.277 Y1.540 F7200.000
G1 X3.145 Y0.998 F7200.000
G1 X0.932 Y3.998 F7200.000
G1 X-8.730 Y4.119 F7200.000
G1 E1.00000 F1800.000
G1 X-8.472 Y4.377 E1.04423 F360.000
G1 X-7.702 Y4.119 E1.14247 F360.000
G1 X-7.443 Y4.377 E1.18670 F360.000
G1 X-6.673 Y4.119 E1.28494 F360.000
G1 X-6.415 Y4.377 E1.32916 F360.000
G1 X-5.645 Y4.119 E1.42740 F360.000
G1 X-5.386 Y4.377 E1.47163 F360.000
G1 X-4.616 Y4.119 E1.56987 F360.000
G1 X-4.358 Y4.377 E1.61410 F360.000
G1 X-3.588 Y4.119 E1.71234 F360.000
G1 X-3.329 Y4.377 E1.75657 F360.000
G1 X-2.559 Y4.119 E1.85481 F360.000
G1 X-2.300 Y4.377 E1.89903 F360.000
G1 X-1.530 Y4.119 E1.99727 F360.000
G1 X-1.272 Y4.377 E2.04150 F360.000
G1 X-0.502 Y4.119 E2.13974 F360.000
G1 X0.007 Y4.628 E2.22687 F360.000
G1 X0.527 Y4.119 E2.31484 F360.000
G1 X0.589 Y4.181 E2.32550 F360.000
G1 X-8.730 Y4.119 F7200.000
G1 X-9.628 Y4.250 E2.43521 F360.000
G1 X-9.501 Y4.376 E2.45683 F360.000
M106 S255
M104 S195 ; set temperature
M140 S60 ; set bed temperature
G1 F1800.000 E1.45683
G92 E0
G1 Z0.650 F7200.000
G1 X1.055 Y5.394 F7200.000
G1 E1.00000 F1800.000
G1 X1.091 Y5.188 E1.00870 F600.000
G1 X1.211 Y4.898 E1.02172
G1 X1.331 Y4.727 E1.03042
G1 X1.479 Y4.579 E1.03912
G1 X1.731 Y4.417 E1.05160
G1 X1.940 Y4.339 E1.06084
G1 X2.146 Y4.303 E1.06954
G1 X2.355 Y4.303 E1.07824
G1 X2.561 Y4.339 E1.08694
G1 X2.757 Y4.410 E1.09563
G1 X2.939 Y4.515 E1.10433
G1 X3.170 Y4.727 E1.11736
G1 X3.290 Y4.898 E1.12605
G1 X3.410 Y5.188 E1.13908
G1 X3.446 Y5.394 E1.14778
G1 X3.446 Y5.603 E1.15648
G1 X3.410 Y5.809 E1.16517
G1 X3.290 Y6.098 E1.17820
G1 X3.170 Y6.270 E1.18690
G1 X3.022 Y6.418 E1.19559
G1 X2.850 Y6.538 E1.20429
G1 X2.661 Y6.626 E1.21299
G1 X2.459 Y6.680 E1.22169
G1 X2.146 Y6.694 E1.23471
G1 X1.940 Y6.657 E1.24341
G1 X1.743 Y6.586 E1.25211
G1 X1.489 Y6.426 E1.26459
G1 X1.331 Y6.270 E1.27383
G1 X1.211 Y6.098 E1.28253
G1 X1.122 Y5.909 E1.29123
G1 X1.068 Y5.707 E1.29993
G1 X1.052 Y5.454 E1.31047
G1 X0.885 Y5.271 F7200.000
G1 F1800.000 E0.31047
G92 E0
G1 X3.619 Y3.998 F7200.000
G1 E1.00000 F1800.000
G1 X4.681 Y3.981 E1.04416 F774.151
G1 X5.108 Y3.925 E1.06207
G1 X5.529 Y3.833 E1.07999
G1 X5.941 Y3.705 E1.09791
G1 X6.340 Y3.542 E1.11583
G1 X6.723 Y3.345 E1.13374
G1 X7.088 Y3.116 E1.15166
G1 X7.432 Y2.856 E1.16958
G1 X7.753 Y2.568 E1.18750
G1 X8.047 Y2.253 E1.20542
G1 X8.313 Y1.914 E1.22333
G1 X8.549 Y1.554 E1.24125
G1 X8.753 Y1.174 E1.25917
G1 X8.924 Y0.778 E1.27709
G1 X9.060 Y0.369 E1.29500
G1 X9.160 Y-0.050 E1.31292
G1 X9.223 Y-0.476 E1.33084
G1 X9.250 Y-0.906 E1.34876
G1 X9.240 Y-1.337 E1.36668
G1 X9.193 Y-1.766 E1.38459
G1 X9.108 Y-2.188 E1.40251
G1 X8.988 Y-2.602 E1.42043
G1 X8.833 Y-3.004 E1.43834
G1 X8.643 Y-3.391 E1.45626
G1 X8.421 Y-3.761 E1.47418
G1 X8.168 Y-4.109 E1.49210
G1 X7.886 Y-4.435 E1.51002
G1 X7.577 Y-4.736 E1.52793
G1 X7.243 Y-5.008 E1.54585
G1 X6.887 Y-5.251 E1.56377
G1 X6.512 Y-5.462 E1.58169
G1 X6.119 Y-5.640 E1.59961
G1 X5.713 Y-5.784 E1.61752
G1 X5.235 Y-5.902 E1.63798
G1 X4.871 Y-5.964 E1.65335
G1 X4.441 Y-5.999 E1.67127
G1 X4.010 Y-5.997 E1.68918
G1 X3.521 Y-5.947 E1.70964
G1 X3.157 Y-5.882 E1.72501
G1 X2.741 Y-5.770 E1.74293
G1 X2.336 Y-5.622 E1.76085
G1 X1.945 Y-5.440 E1.77877
G1 X1.572 Y-5.225 E1.79668
G1 X1.218 Y-4.979 E1.81460
G1 X0.887 Y-4.703 E1.83252
G1 X0.581 Y-4.399 E1.85044
G1 X0.316 Y-4.087 E1.86746
G1 X-0.869 Y-2.564 E1.94770
G1 X-1.099 Y-2.291 E1.96252
G1 X-1.337 Y-2.054 E1.97647
G1 X-1.593 Y-1.838 E1.99043
G1 X-1.867 Y-1.644 E2.00438
G1 X-2.156 Y-1.474 E2.01833
G1 X-2.459 Y-1.328 E2.03228
G1 X-2.772 Y-1.209 E2.04624
G1 X-3.095 Y-1.116 E2.06019
G1 X-3.424 Y-1.050 E2.07414
G1 X-3.757 Y-1.013 E2.08809
G1 X-4.093 Y-1.003 E2.10205
G1 X-4.428 Y-1.022 E2.11600
G1 X-4.760 Y-1.068 E2.12995
G1 X-5.088 Y-1.142 E2.14390
G1 X-5.427 Y-1.250 E2.15873
G1 X-9.253 Y-2.645 E2.32801
G1 X-9.338 Y-2.710 E2.33249
G1 X-9.382 Y-2.785 E2.33608
G1 X-9.396 Y-2.892 E2.34057
G1 X-9.363 Y-2.995 E2.34505
G1 X-9.253 Y-3.096 E2.35127
G1 X-9.169 Y-3.118 E2.35487
G1 X-9.083 Y-3.111 E2.35847
G1 X-4.957 Y-1.623 E2.54082
G1 X-4.379 Y-1.517 E2.56523
G1 X-3.793 Y-1.510 E2.58963
G1 X-3.501 Y-1.543 E2.60185
G1 X-3.212 Y-1.600 E2.61407
G1 X-2.656 Y-1.786 E2.63847
G1 X-2.391 Y-1.913 E2.65069
G1 X-1.898 Y-2.232 E2.67509
G1 X-1.465 Y-2.629 E2.69950
G1 X-0.105 Y-4.360 E2.79102
G1 X0.214 Y-4.737 E2.81157
G1 X0.550 Y-5.070 E2.83122
G1 X0.913 Y-5.373 E2.85087
G1 X1.301 Y-5.643 E2.87052
G1 X1.710 Y-5.879 E2.89018
G1 X2.138 Y-6.079 E2.90983
G1 X2.582 Y-6.242 E2.92948
G1 X3.038 Y-6.366 E2.94913
G1 X3.504 Y-6.450 E2.96878
G1 X3.974 Y-6.494 E2.98843
G1 X4.447 Y-6.497 E3.00809
G1 X4.918 Y-6.460 E3.02774
G1 X5.384 Y-6.383 E3.04739
G1 X5.842 Y-6.265 E3.06704
G1 X6.288 Y-6.109 E3.08669
G1 X6.720 Y-5.915 E3.10635
G1 X7.132 Y-5.685 E3.12600
G1 X7.524 Y-5.420 E3.14565
G1 X7.891 Y-5.123 E3.16530
G1 X8.232 Y-4.795 E3.18495
G1 X8.543 Y-4.439 E3.20461
G1 X8.822 Y-4.058 E3.22426
G1 X9.068 Y-3.654 E3.24391
