; generated by Slic3r 1.0.0RC2 on 2014-02-10 at 23:29:46

; layer_height = 0.25
; perimeters = 3
; top_solid_layers = 3
; bottom_solid_layers = 3
; fill_density = 0.4
; perimeter_speed = 60
; infill_speed = 100
; travel_speed = 200
; nozzle_diameter = 0.4
; filament_diameter = 1.75
; extrusion_multiplier = 1
; perimeters extrusion width = 0.40mm
; infill extrusion width = 0.53mm
; solid infill extrusion width = 0.53mm
; top infill extrusion width = 0.53mm
; first layer extrusion width = 0.50mm

G21 ; set units to millimeters
M107
M190 S70 ; wait for bed temperature to be reached
M104 S210 ; set temperature
G28 ; home all axes
G1 Z5 F5000 ; lift nozzle
M109 S210 ; wait for temperature to be reached
G90 ; use absolute coordinates
G92 E0
M82 ; use absolute distances for extrusion
M204 S9000
G1 F1800.000 E-3.00000
G1 Z1.250 F12000.000
G92 E0
G1 X13.270 Y33.487 F12000.000
G1 Z0.250 F12000.000
G1 E3.00000 F1800.000
G1 X-13.280 Y33.487 E4.32056 F1080.000
G1 X-15.040 Y33.407 E4.40819
G1 X-16.050 Y33.297 E4.45872
G1 X-17.540 Y33.037 E4.53395
G1 X-18.080 Y32.917 E4.56146
G1 X-19.540 Y32.517 E4.63676
G1 X-20.500 Y32.187 E4.68725
G1 X-20.960 Y32.007 E4.71182
G1 X-21.900 Y31.607 E4.76263
G1 X-22.390 Y31.377 E4.78955
G1 X-23.390 Y30.857 E4.84561
G1 X-24.630 Y30.107 E4.91769
G1 X-25.810 Y29.287 E4.98916
G1 X-26.270 Y28.927 E5.01822
G1 X-27.410 Y27.947 E5.09299
G1 X-28.140 Y27.237 E5.14364
G1 X-29.150 Y26.127 E5.21828
G1 X-29.490 Y25.717 E5.24478
G1 X-30.110 Y24.907 E5.29551
G1 X-30.420 Y24.477 E5.32188
G1 X-31.260 Y23.157 E5.39970
G1 X-31.730 Y22.307 E5.44801
G1 X-32.370 Y20.967 E5.52187
G1 X-32.600 Y20.427 E5.55106
G1 X-32.950 Y19.477 E5.60142
G1 X-33.380 Y18.067 E5.67474
G1 X-33.530 Y17.497 E5.70406
G1 X-33.780 Y16.277 E5.76600
G1 X-39.340 Y-15.333 E7.36237
G1 X-39.450 Y-16.533 E7.42230
G1 X-39.460 Y-25.253 E7.85602
G1 X-39.420 Y-26.053 E7.89586
G1 X-39.320 Y-26.773 E7.93202
G1 X-39.160 Y-27.473 E7.96773
G1 X-38.840 Y-28.423 E8.01759
G1 X-38.520 Y-29.093 E8.05452
G1 X-38.070 Y-29.853 E8.09845
G1 X-37.530 Y-30.573 E8.14322
G1 X-36.860 Y-31.283 E8.19177
G1 X-36.090 Y-31.903 E8.24095
G1 X-35.170 Y-32.493 E8.29531
G1 X-34.430 Y-32.833 E8.33581
G1 X-33.470 Y-33.163 E8.38630
G1 X-32.460 Y-33.363 E8.43751
G1 X-31.400 Y-33.443 E8.49039
G1 X31.400 Y-33.443 E11.61396
G1 X32.500 Y-33.353 E11.66886
G1 X33.480 Y-33.153 E11.71860
G1 X34.420 Y-32.833 E11.76799
G1 X35.160 Y-32.493 E11.80850
G1 X36.080 Y-31.903 E11.86286
G1 X36.850 Y-31.283 E11.91203
G1 X37.520 Y-30.573 E11.96059
G1 X37.690 Y-30.363 E11.97402
G1 X38.060 Y-29.853 E12.00536
G1 X38.390 Y-29.313 E12.03684
G1 X38.830 Y-28.423 E12.08622
G1 X39.150 Y-27.473 E12.13608
G1 X39.380 Y-26.323 E12.19441
G1 X39.410 Y-26.063 E12.20743
G1 X39.460 Y-25.243 E12.24829
G1 X39.440 Y-16.523 E12.68201
G1 X39.330 Y-15.333 E12.74145
G1 X33.730 Y16.497 E14.34894
G1 X33.390 Y18.027 E14.42690
G1 X33.100 Y19.017 E14.47821
G1 X32.930 Y19.527 E14.50495
G1 X32.570 Y20.477 E14.55548
G1 X31.960 Y21.837 E14.62962
G1 X31.240 Y23.167 E14.70484
G1 X30.440 Y24.437 E14.77950
G1 X30.130 Y24.877 E14.80627
G1 X29.490 Y25.717 E14.85879
G1 X29.140 Y26.137 E14.88598
G1 X28.460 Y26.897 E14.93671
G1 X28.100 Y27.277 E14.96274
G1 X27.360 Y27.987 E15.01375
G1 X26.250 Y28.937 E15.08642
G1 X25.790 Y29.297 E15.11547
G1 X24.960 Y29.887 E15.16612
G1 X23.690 Y30.687 E15.24078
G1 X23.250 Y30.937 E15.26595
G1 X22.380 Y31.387 E15.31467
G1 X21.020 Y31.987 E15.38860
G1 X20.560 Y32.167 E15.41317
G1 X19.490 Y32.537 E15.46949
G1 X17.960 Y32.947 E15.54827
G1 X17.500 Y33.047 E15.57168
G1 X16.020 Y33.307 E15.64642
G1 X15.020 Y33.417 E15.69646
G1 X13.342 Y33.484 E15.78000
G1 X13.470 Y33.007 F12000.000
G1 X-13.280 Y33.007 E17.11051 F1080.000
G1 X-14.990 Y32.927 E17.19565
G1 X-16.000 Y32.817 E17.24619
G1 X-17.460 Y32.567 E17.31986
G1 X-17.960 Y32.457 E17.34533
G1 X-19.390 Y32.067 E17.41905
G1 X-20.350 Y31.737 E17.46954
G1 X-20.780 Y31.567 E17.49254
G1 X-22.170 Y30.957 E17.56804
G1 X-23.170 Y30.437 E17.62410
G1 X-23.610 Y30.187 E17.64927
G1 X-24.380 Y29.707 E17.69440
G1 X-25.530 Y28.897 E17.76437
G1 X-25.960 Y28.567 E17.79133
G1 X-27.080 Y27.597 E17.86502
G1 X-28.120 Y26.567 E17.93782
G1 X-28.800 Y25.807 E17.98855
G1 X-29.730 Y24.617 E18.06367
G1 X-30.020 Y24.217 E18.08824
G1 X-30.600 Y23.327 E18.14108
G1 X-30.840 Y22.917 E18.16471
G1 X-31.510 Y21.677 E18.23481
G1 X-31.940 Y20.757 E18.28532
G1 X-32.150 Y20.257 E18.31230
G1 X-32.630 Y18.927 E18.38262
G1 X-32.930 Y17.927 E18.43455
G1 X-33.060 Y17.397 E18.46170
G1 X-33.310 Y16.187 E18.52315
G1 X-38.870 Y-15.423 E20.11952
G1 X-38.970 Y-16.533 E20.17495
G1 X-38.980 Y-25.253 E20.60867
G1 X-38.940 Y-26.023 E20.64702
G1 X-38.850 Y-26.683 E20.68015
G1 X-38.700 Y-27.333 E20.71333
G1 X-38.400 Y-28.233 E20.76052
G1 X-38.100 Y-28.863 E20.79522
G1 X-37.670 Y-29.583 E20.83694
G1 X-37.160 Y-30.273 E20.87961
G1 X-36.530 Y-30.933 E20.92500
G1 X-35.820 Y-31.513 E20.97060
G1 X-34.940 Y-32.073 E21.02248
G1 X-34.250 Y-32.383 E21.06010
G1 X-33.340 Y-32.703 E21.10808
G1 X-32.390 Y-32.883 E21.15617
G1 X-31.400 Y-32.963 E21.20557
G1 X31.400 Y-32.963 E24.32915
G1 X32.420 Y-32.883 E24.38004
G1 X33.350 Y-32.693 E24.42725
G1 X34.240 Y-32.383 E24.47412
G1 X34.930 Y-32.073 E24.51175
G1 X35.810 Y-31.513 E24.56363
G1 X36.520 Y-30.933 E24.60923
G1 X37.150 Y-30.273 E24.65461
G1 X37.320 Y-30.063 E24.66805
G1 X37.660 Y-29.583 E24.69731
G1 X37.970 Y-29.083 E24.72657
G1 X38.390 Y-28.233 E24.77372
G1 X38.690 Y-27.333 E24.82091
G1 X38.910 Y-26.263 E24.87524
G1 X38.940 Y-26.003 E24.88826
G1 X38.980 Y-25.253 E24.92562
G1 X38.960 Y-16.533 E25.35934
G1 X38.860 Y-15.423 E25.41477
G1 X33.300 Y16.187 E27.01114
G1 X33.050 Y17.397 E27.07259
G1 X32.930 Y17.887 E27.09769
G1 X32.480 Y19.357 E27.17415
G1 X32.120 Y20.307 E27.22468
G1 X31.320 Y22.037 E27.31948
G1 X30.590 Y23.327 E27.39321
G1 X30.040 Y24.177 E27.44356
G1 X29.750 Y24.587 E27.46854
G1 X28.790 Y25.817 E27.54615
G1 X28.110 Y26.577 E27.59687
G1 X27.770 Y26.927 E27.62114
G1 X26.720 Y27.917 E27.69292
G1 X25.940 Y28.577 E27.74374
G1 X25.510 Y28.907 E27.77070
G1 X24.320 Y29.737 E27.84286
G1 X23.440 Y30.277 E27.89422
G1 X22.160 Y30.957 E27.96631
G1 X21.720 Y31.167 E27.99056
G1 X20.830 Y31.547 E28.03869
G1 X19.340 Y32.077 E28.11735
G1 X18.820 Y32.237 E28.14441
G1 X17.840 Y32.487 E28.19472
G1 X16.430 Y32.757 E28.26612
G1 X15.970 Y32.827 E28.28927
G1 X14.970 Y32.937 E28.33930
G1 X14.460 Y32.977 E28.36475
G1 X13.542 Y33.005 E28.41044
G1 F1800.000 E25.41044
G1 Z1.250 F12000.000
G92 E0
G1 X13.298 Y24.740 F12000.000
G1 Z0.250 F12000.000
G1 E3.00000 F1800.000
G1 X-13.296 Y24.740 E4.32274 F1080.000
G1 X-14.253 Y24.701 E4.37041
G1 X-15.229 Y24.581 E4.41931
G1 X-16.192 Y24.382 E4.46821
G1 X-17.212 Y24.079 E4.52112
G1 X-18.119 Y23.725 E4.56953
G1 X-18.970 Y23.312 E4.61662
G1 X-19.848 Y22.793 E4.66733
G1 X-20.621 Y22.246 E4.71446
G1 X-21.384 Y21.610 E4.76384
G1 X-22.082 Y20.922 E4.81260
G1 X-22.784 Y20.101 E4.86633
G1 X-23.323 Y19.356 E4.91206
G1 X-23.839 Y18.507 E4.96144
G1 X-24.283 Y17.620 E5.01080
G1 X-24.650 Y16.705 E5.05985
G1 X-24.956 Y15.706 E5.11181
G1 X-25.156 Y14.790 E5.15845
G1 X-26.901 Y4.893 E5.65828
G1 X-27.028 Y3.936 E5.70633
G1 X-27.070 Y2.882 E5.75877
G1 X-27.029 Y1.952 E5.80506
G1 X-26.901 Y0.968 E5.85444
G1 X-26.688 Y-0.002 E5.90381
G1 X-26.381 Y-0.982 E5.95492
G1 X-25.998 Y-1.905 E6.00462
G1 X-25.526 Y-2.808 E6.05529
G1 X-24.998 Y-3.635 E6.10411
G1 X-24.367 Y-4.452 E6.15546
G1 X-23.739 Y-5.137 E6.20165
G1 X-23.009 Y-5.809 E6.25100
G1 X-22.175 Y-6.450 E6.30336
G1 X-21.336 Y-6.982 E6.35274
G1 X-20.451 Y-7.442 E6.40237
G1 X-19.556 Y-7.812 E6.45051
G1 X-18.618 Y-8.108 E6.49945
G1 X-17.597 Y-8.335 E6.55148
G1 X-16.613 Y-8.463 E6.60082
G1 X-15.662 Y-8.504 E6.64819
G1 X15.654 Y-8.504 E8.20578
G1 X16.607 Y-8.463 E8.25322
G1 X17.641 Y-8.327 E8.30509
G1 X18.607 Y-8.112 E8.35430
G1 X19.540 Y-7.818 E8.40296
G1 X20.455 Y-7.440 E8.45221
G1 X21.336 Y-6.982 E8.50161
G1 X22.223 Y-6.415 E8.55397
G1 X23.009 Y-5.809 E8.60334
G1 X23.739 Y-5.137 E8.65270
G1 X24.367 Y-4.452 E8.69888
G1 X24.997 Y-3.637 E8.75015
G1 X25.526 Y-2.808 E8.79906
G1 X25.994 Y-1.915 E8.84918
G1 X26.395 Y-0.939 E8.90169
G1 X26.688 Y-0.002 E8.95053
G1 X26.901 Y0.968 E8.99991
G1 X27.023 Y1.891 E9.04622
G1 X27.072 Y2.944 E9.09865
G1 X27.027 Y3.938 E9.14812
G1 X26.902 Y4.891 E9.19597
G1 X25.157 Y14.784 E9.69559
G1 X24.938 Y15.773 E9.74601
G1 X24.650 Y16.705 E9.79450
G1 X24.283 Y17.620 E9.84354
G1 X23.839 Y18.507 E9.89290
G1 X23.323 Y19.356 E9.94229
G1 X22.737 Y20.163 E9.99191
G1 X22.125 Y20.876 E10.03861
G1 X21.384 Y21.610 E10.09051
G1 X20.616 Y22.250 E10.14024
G1 X19.854 Y22.789 E10.18666
G1 X18.973 Y23.310 E10.23759
G1 X18.116 Y23.726 E10.28497
G1 X17.136 Y24.105 E10.33724
G1 X16.192 Y24.382 E10.38614
G1 X15.229 Y24.581 E10.43504
G1 X14.251 Y24.701 E10.48406
G1 X13.370 Y24.737 E10.52793
G1 X13.288 Y24.261 F12000.000
G1 X-13.287 Y24.261 E11.84974 F1080.000
G1 X-14.217 Y24.223 E11.89603
G1 X-15.155 Y24.108 E11.94307
G1 X-16.082 Y23.916 E11.99011
G1 X-17.047 Y23.630 E12.04018
G1 X-17.920 Y23.290 E12.08678
G1 X-18.748 Y22.888 E12.13258
G1 X-19.584 Y22.393 E12.18090
G1 X-20.335 Y21.862 E12.22664
G1 X-21.067 Y21.251 E12.27406
G1 X-21.740 Y20.587 E12.32110
G1 X-22.400 Y19.815 E12.37162
G1 X-22.928 Y19.086 E12.41635
G1 X-23.422 Y18.272 E12.46376
G1 X-23.848 Y17.419 E12.51115
G1 X-24.201 Y16.538 E12.55835
G1 X-24.491 Y15.594 E12.60750
G1 X-24.687 Y14.697 E12.65315
G1 X-26.428 Y4.820 E13.15201
G1 X-26.551 Y3.891 E13.19859
G1 X-26.592 Y2.899 E13.24800
G1 X-26.552 Y1.988 E13.29334
G1 X-26.429 Y1.043 E13.34072
G1 X-26.224 Y0.113 E13.38810
G1 X-25.931 Y-0.818 E13.43662
G1 X-25.565 Y-1.702 E13.48422
G1 X-25.116 Y-2.561 E13.53244
G1 X-24.608 Y-3.358 E13.57946
G1 X-24.010 Y-4.133 E13.62814
G1 X-23.395 Y-4.805 E13.67345
G1 X-22.694 Y-5.449 E13.72082
G1 X-21.907 Y-6.053 E13.77014
G1 X-21.103 Y-6.564 E13.81753
G1 X-20.255 Y-7.005 E13.86507
G1 X-19.389 Y-7.363 E13.91168
G1 X-18.486 Y-7.648 E13.95877
G1 X-17.522 Y-7.862 E14.00787
G1 X-16.578 Y-7.985 E14.05522
G1 X-15.651 Y-8.025 E14.10138
G1 X15.647 Y-8.025 E15.65808
G1 X16.574 Y-7.985 E15.70427
G1 X17.551 Y-7.857 E15.75325
G1 X18.478 Y-7.651 E15.80052
G1 X19.378 Y-7.367 E15.84746
G1 X20.257 Y-7.003 E15.89476
G1 X21.103 Y-6.564 E15.94216
G1 X21.939 Y-6.030 E15.99149
G1 X22.694 Y-5.449 E16.03887
G1 X23.395 Y-4.805 E16.08624
G1 X24.010 Y-4.133 E16.13155
G1 X24.607 Y-3.359 E16.18017
G1 X25.116 Y-2.561 E16.22725
G1 X25.562 Y-1.708 E16.27514
G1 X25.941 Y-0.790 E16.32452
G1 X26.224 Y0.113 E16.37158
G1 X26.429 Y1.043 E16.41897
G1 X26.548 Y1.948 E16.46432
G1 X26.593 Y2.940 E16.51372
G1 X26.551 Y3.893 E16.56116
G1 X26.429 Y4.819 E16.60762
G1 X24.687 Y14.693 E17.10636
G1 X24.478 Y15.640 E17.15456
G1 X24.201 Y16.538 E17.20133
G1 X23.848 Y17.419 E17.24853
G1 X23.422 Y18.272 E17.29593
G1 X22.927 Y19.086 E17.34334
G1 X22.366 Y19.860 E17.39090
G1 X21.770 Y20.555 E17.43644
G1 X21.067 Y21.251 E17.48563
G1 X20.332 Y21.865 E17.53325
G1 X19.588 Y22.391 E17.57857
G1 X18.750 Y22.887 E17.62702
G1 X17.918 Y23.290 E17.67301
G1 X16.989 Y23.650 E17.72254
G1 X16.082 Y23.916 E17.76958
G1 X15.155 Y24.108 E17.81662
G1 X14.216 Y24.224 E17.86373
G1 X13.360 Y24.259 E17.90632
G1 X13.278 Y23.783 F12000.000
G1 X-13.278 Y23.783 E19.22719 F756.000
G1 X-14.180 Y23.746 E19.27211
G1 X-15.082 Y23.635 E19.31728
G1 X-15.971 Y23.451 E19.36246
G1 X-16.882 Y23.180 E19.40970
G1 X-17.721 Y22.854 E19.45448
G1 X-18.526 Y22.463 E19.49900
G1 X-19.321 Y21.994 E19.54492
G1 X-20.049 Y21.478 E19.58929
G1 X-20.750 Y20.892 E19.63473
G1 X-21.398 Y20.252 E19.68004
G1 X-22.017 Y19.529 E19.72736
G1 X-22.532 Y18.817 E19.77109
G1 X-23.006 Y18.036 E19.81653
G1 X-23.413 Y17.218 E19.86196
G1 X-23.752 Y16.372 E19.90732
G1 X-24.025 Y15.481 E19.95364
G1 X-24.217 Y14.604 E19.99830
G1 X-25.956 Y4.746 E20.49619
G1 X-26.074 Y3.847 E20.54130
G1 X-26.113 Y2.915 E20.58768
G1 X-26.075 Y2.024 E20.63207
G1 X-25.956 Y1.119 E20.67746
G1 X-25.759 Y0.228 E20.72285
G1 X-25.482 Y-0.653 E20.76878
G1 X-25.132 Y-1.498 E20.81427
G1 X-24.706 Y-2.314 E20.86004
G1 X-24.218 Y-3.081 E20.90527
G1 X-23.654 Y-3.814 E20.95127
G1 X-23.050 Y-4.472 E20.99570
G1 X-22.378 Y-5.089 E21.04109
G1 X-21.640 Y-5.656 E21.08738
G1 X-20.870 Y-6.146 E21.13278
G1 X-20.059 Y-6.568 E21.17822
G1 X-19.221 Y-6.914 E21.22330
G1 X-18.354 Y-7.188 E21.26855
G1 X-17.448 Y-7.389 E21.31471
G1 X-16.544 Y-7.508 E21.36007
G1 X-15.641 Y-7.547 E21.40502
G1 X15.639 Y-7.547 E22.96084
G1 X16.542 Y-7.508 E23.00577
G1 X17.461 Y-7.387 E23.05187
G1 X18.350 Y-7.189 E23.09720
G1 X19.217 Y-6.916 E23.14242
G1 X20.060 Y-6.567 E23.18776
G1 X20.870 Y-6.146 E23.23316
G1 X21.654 Y-5.646 E23.27946
G1 X22.378 Y-5.089 E23.32485
G1 X23.050 Y-4.472 E23.37023
G1 X23.654 Y-3.814 E23.41467
G1 X24.217 Y-3.081 E23.46065
G1 X24.706 Y-2.314 E23.50589
G1 X25.131 Y-1.500 E23.55156
G1 X25.486 Y-0.641 E23.59781
G1 X25.759 Y0.228 E23.64309
G1 X25.956 Y1.119 E23.68848
G1 X26.072 Y2.004 E23.73288
G1 X26.114 Y2.935 E23.77925
G1 X26.074 Y3.847 E23.82466
G1 X25.956 Y4.746 E23.86972
G1 X24.217 Y14.603 E24.36757
G1 X24.019 Y15.506 E24.41357
G1 X23.752 Y16.372 E24.45862
G1 X23.413 Y17.218 E24.50398
G1 X23.006 Y18.036 E24.54941
G1 X22.532 Y18.817 E24.59485
G1 X21.995 Y19.557 E24.64034
G1 X21.414 Y20.235 E24.68472
G1 X20.750 Y20.892 E24.73121
G1 X20.048 Y21.479 E24.77673
G1 X19.322 Y21.993 E24.82094
G1 X18.527 Y22.463 E24.86691
G1 X17.720 Y22.855 E24.91150
G1 X16.843 Y23.194 E24.95830
G1 X15.971 Y23.451 E25.00348
G1 X15.082 Y23.635 E25.04866
G1 X14.180 Y23.746 E25.09386
G1 X13.350 Y23.780 E25.13516
G1 X13.045 Y24.201 F12000.000
G1 X13.251 Y25.326 F12000.000
G1 X-13.251 Y25.326 E26.45336 F1080.000
G1 X-14.199 Y25.291 E26.50053
G1 X-15.121 Y25.190 E26.54663
G1 X-16.033 Y25.021 E26.59277
G1 X-17.051 Y24.745 E26.64524
G1 X-17.810 Y24.484 E26.68515
G1 X-18.665 Y24.119 E26.73140
G1 X-19.491 Y23.693 E26.77763
G1 X-20.285 Y23.205 E26.82400
G1 X-21.070 Y22.638 E26.87214
G1 X-21.755 Y22.062 E26.91666
G1 X-22.423 Y21.413 E26.96297
G1 X-23.041 Y20.717 E27.00928
G1 X-23.607 Y19.976 E27.05566
G1 X-24.116 Y19.198 E27.10191
G1 X-24.566 Y18.384 E27.14818
G1 X-24.955 Y17.540 E27.19439
G1 X-25.281 Y16.670 E27.24061
G1 X-25.541 Y15.780 E27.28674
G1 X-25.741 Y14.845 E27.33426
G1 X-31.261 Y-16.458 E28.91526
G1 X-31.293 Y-16.822 E28.93342
G1 X-31.293 Y-25.268 E29.35350
G1 X-20.865 Y-25.268 E29.87217
G1 X-20.179 Y-24.042 E29.94205
G1 X-20.172 Y-16.826 E30.30096
G1 X-5.153 Y-16.826 E31.04801
G1 X-5.147 Y-24.041 E31.40688
G1 X-4.460 Y-25.268 E31.47681
G1 X4.460 Y-25.268 E31.92048
G1 X5.146 Y-24.042 E31.99037
G1 X5.153 Y-16.826 E32.34927
G1 X20.172 Y-16.826 E33.09633
G1 X20.178 Y-24.041 E33.45519
G1 X20.865 Y-25.268 E33.52513
G1 X31.293 Y-25.268 E34.04380
G1 X31.293 Y-16.822 E34.46388
G1 X31.261 Y-16.458 E34.48204
G1 X25.742 Y14.844 E36.06298
G1 X25.541 Y15.780 E36.11059
G1 X25.281 Y16.670 E36.15669
G1 X24.956 Y17.536 E36.20272
G1 X24.564 Y18.386 E36.24928
G1 X24.115 Y19.199 E36.29549
G1 X23.607 Y19.977 E36.34168
G1 X23.043 Y20.715 E36.38787
G1 X22.420 Y21.416 E36.43451
G1 X21.751 Y22.066 E36.48094
G1 X21.036 Y22.665 E36.52729
G1 X20.289 Y23.203 E36.57310
G1 X19.501 Y23.687 E36.61911
G1 X18.672 Y24.116 E36.66551
G1 X17.773 Y24.498 E36.71412
G1 X16.890 Y24.797 E36.76047
G1 X15.997 Y25.029 E36.80639
G1 X15.270 Y25.164 E36.84315
G1 X14.187 Y25.292 E36.89740
G1 X13.323 Y25.323 E36.94040
G1 X13.260 Y25.804 F12000.000
G1 X-13.260 Y25.804 E38.25946 F1080.000
G1 X-14.234 Y25.769 E38.30794
G1 X-15.190 Y25.663 E38.35577
G1 X-16.136 Y25.488 E38.40364
G1 X-17.205 Y25.198 E38.45872
G1 X-17.980 Y24.932 E38.49948
G1 X-18.867 Y24.553 E38.54745
G1 X-19.724 Y24.111 E38.59542
G1 X-20.549 Y23.605 E38.64353
G1 X-21.375 Y23.006 E38.69428
G1 X-22.074 Y22.420 E38.73966
G1 X-22.767 Y21.747 E38.78771
G1 X-23.408 Y21.025 E38.83575
G1 X-24.007 Y20.239 E38.88488
G1 X-24.523 Y19.449 E38.93182
G1 X-24.991 Y18.603 E38.97992
G1 X-25.397 Y17.724 E39.02806
G1 X-25.735 Y16.821 E39.07603
G1 X-26.005 Y15.897 E39.12390
G1 X-26.211 Y14.937 E39.17274
G1 X-31.734 Y-16.385 E40.75470
G1 X-31.771 Y-16.811 E40.77597
G1 X-31.771 Y-25.226 E41.19448
G1 X-31.726 Y-25.480 E41.20734
G1 X-31.611 Y-25.650 E41.21754
G1 X-31.469 Y-25.731 E41.22571
