; generated by Slic3r 1.0.0RC2 on 2014-02-10 at 20:55:09

; layer_height = 0.35
; perimeters = 3
; top_solid_layers = 3
; bottom_solid_layers = 3
; fill_density = 0.4
; perimeter_speed = 50
; infill_speed = 80
; travel_speed = 120
; nozzle_diameter = 0.4
; filament_diameter = 1.75
; extrusion_multiplier = 1
; perimeters extrusion width = 0.40mm
; infill extrusion width = 0.42mm
; solid infill extrusion width = 0.42mm
; top infill extrusion width = 0.42mm
; first layer extrusion width = 0.80mm

G21 ; set units to millimeters
M107
M190 S65 ; wait for bed temperature to be reached
M104 S200 ; set temperature
G28 ; home all axes
G1 Z5 F5000 ; lift nozzle

M109 S200 ; wait for temperature to be reached
G90 ; use absolute coordinates
G92 E0
M82 ; use absolute distances for extrusion
G1 F1800.000 E-1.00000
G92 E0
G1 Z0.400 F7200.000
G1 X-0.137 Y-16.737 F7200.000
G1 E1.00000 F1800.000
G1 X29.723 Y0.153 E5.07434 F900.000
G1 X30.873 Y0.973 E5.24209
G1 X31.823 Y2.013 E5.40938
G1 X32.533 Y3.243 E5.57805
G1 X32.973 Y4.583 E5.74555
G1 X33.123 Y5.993 E5.91396
G1 X33.123 Y12.493 E6.68593
G1 X33.003 Y13.803 E6.84216
G1 X32.613 Y15.063 E6.99881
G1 X31.993 Y16.223 E7.15502
G1 X31.163 Y17.243 E7.31120
G1 X30.143 Y18.073 E7.46738
G1 X28.983 Y18.693 E7.62359
G1 X27.723 Y19.083 E7.78024
G1 X26.413 Y19.203 E7.93648
G1 X-9.867 Y19.203 E12.24528
G1 X-10.837 Y19.163 E12.36058
G1 X-12.287 Y19.013 E12.53371
G1 X-12.847 Y18.923 E12.60107
G1 X-14.267 Y18.623 E12.77344
G1 X-15.207 Y18.363 E12.88927
G1 X-15.707 Y18.203 E12.95162
G1 X-16.617 Y17.873 E13.06658
G1 X-17.137 Y17.663 E13.13318
G1 X-18.027 Y17.253 E13.24956
G1 X-18.467 Y17.033 E13.30799
G1 X-19.317 Y16.563 E13.42334
G1 X-19.747 Y16.303 E13.48302
G1 X-20.557 Y15.773 E13.59798
G1 X-21.037 Y15.423 E13.66854
G1 X-21.797 Y14.823 E13.78354
G1 X-22.857 Y13.883 E13.95180
G1 X-23.237 Y13.513 E14.01479
G1 X-23.907 Y12.803 E14.13073
G1 X-24.267 Y12.393 E14.19553
G1 X-24.877 Y11.633 E14.31127
G1 X-25.207 Y11.193 E14.37659
G1 X-25.747 Y10.393 E14.49122
G1 X-26.487 Y9.133 E14.66476
G1 X-26.757 Y8.623 E14.73330
G1 X-27.167 Y7.743 E14.84860
G1 X-27.337 Y7.333 E14.90131
G1 X-27.687 Y6.433 E15.01600
G1 X-27.857 Y5.923 E15.07985
G1 X-28.137 Y4.983 E15.19633
G1 X-28.277 Y4.443 E15.26259
G1 X-28.477 Y3.493 E15.37789
G1 X-28.687 Y2.053 E15.55072
G1 X-28.747 Y1.503 E15.61643
G1 X-28.797 Y0.533 E15.73178
G1 X-28.777 Y-0.937 E15.90638
G1 X-28.747 Y-1.497 E15.97299
G1 X-28.647 Y-2.457 E16.08762
G1 X-28.407 Y-3.887 E16.25983
G1 X-28.287 Y-4.447 E16.32785
G1 X-28.037 Y-5.387 E16.44337
G1 X-27.877 Y-5.887 E16.50571
G1 X-27.377 Y-7.257 E16.67892
G1 X-26.987 Y-8.147 E16.79432
G1 X-26.757 Y-8.627 E16.85754
G1 X-26.297 Y-9.487 E16.97337
G1 X-26.047 Y-9.917 E17.03244
G1 X-25.527 Y-10.737 E17.14776
G1 X-25.207 Y-11.187 E17.21334
G1 X-24.317 Y-12.347 E17.38698
G1 X-23.677 Y-13.077 E17.50229
G1 X-23.267 Y-13.497 E17.57199
G1 X-22.207 Y-14.487 E17.74425
G1 X-21.057 Y-15.417 E17.91990
G1 X-20.267 Y-15.977 E18.03491
G1 X-18.977 Y-16.767 E18.21456
G1 X-18.517 Y-17.017 E18.27674
G1 X-17.647 Y-17.447 E18.39200
G1 X-17.167 Y-17.657 E18.45422
G1 X-15.777 Y-18.197 E18.63133
G1 X-14.847 Y-18.487 E18.74702
G1 X-14.357 Y-18.617 E18.80723
G1 X-13.407 Y-18.837 E18.92305
G1 X-12.867 Y-18.937 E18.98827
G1 X-11.907 Y-19.077 E19.10349
G1 X-11.357 Y-19.137 E19.16920
G1 X-10.397 Y-19.197 E19.28344
G1 X-8.997 Y-19.207 E19.44971
G1 X-8.377 Y-19.187 E19.52338
G1 X-7.407 Y-19.097 E19.63908
G1 X-6.027 Y-18.887 E19.80486
G1 X-5.437 Y-18.767 E19.87637
G1 X-4.487 Y-18.527 E19.99274
G1 X-3.127 Y-18.097 E20.16214
G1 X-2.597 Y-17.907 E20.22901
G1 X-1.247 Y-17.317 E20.40399
G1 X-0.230 Y-16.789 E20.54001
G1 F1800.000 E19.54001
G92 E0
G1 X0.577 Y-3.400 F7200.000
G1 E1.00000 F1800.000
G1 X0.577 Y4.600 E1.95022 F630.000
G1 X-1.258 Y4.600 E2.16812
G1 X-1.258 Y-1.671 E2.91297
G1 X-4.384 Y-1.671 E3.28430
G1 X-4.267 Y-0.939 E3.37238
G1 X-4.247 Y-0.572 E3.41605
G1 X-4.268 Y-0.179 E3.46273
G1 X-4.331 Y0.194 E3.50770
G1 X-4.433 Y0.546 E3.55123
G1 X-4.575 Y0.873 E3.59363
G1 X-4.755 Y1.173 E3.63517
G1 X-4.971 Y1.442 E3.67615
G1 X-5.221 Y1.677 E3.71687
G1 X-5.502 Y1.874 E3.75761
G1 X-5.811 Y2.031 E3.79868
G1 X-6.143 Y2.144 E3.84039
G1 X-6.496 Y2.213 E3.88305
G1 X-6.864 Y2.236 E3.92696
G1 X-7.219 Y2.215 E3.96910
G1 X-7.556 Y2.152 E4.00987
G1 X-7.875 Y2.043 E4.04989
G1 X-8.171 Y1.888 E4.08957
G1 X-8.439 Y1.688 E4.12932
G1 X-8.675 Y1.444 E4.16957
G1 X-8.875 Y1.161 E4.21077
G1 X-9.213 Y0.496 E4.29932
G1 X-9.616 Y1.204 E4.39596
G1 X-9.792 Y1.424 E4.42953
G1 X-10.002 Y1.617 E4.46328
G1 X-10.240 Y1.778 E4.49749
G1 X-10.503 Y1.910 E4.53246
G1 X-10.789 Y2.011 E4.56848
G1 X-11.095 Y2.083 E4.60585
G1 X-11.421 Y2.126 E4.64482
G1 X-11.756 Y2.140 E4.68468
G1 X-14.489 Y2.140 E5.00923
G1 X-14.115 Y2.692 E5.08837
G1 X-14.058 Y2.802 E5.10310
G1 X-13.991 Y3.046 E5.13317
G1 X-13.991 Y3.306 E5.16403
G1 X-14.058 Y3.550 E5.19410
G1 X-14.115 Y3.661 E5.20884
G1 X-14.264 Y3.854 E5.23790
G1 X-14.458 Y4.004 E5.26696
G1 X-14.569 Y4.060 E5.28170
G1 X-14.813 Y4.128 E5.31177
G1 X-15.072 Y4.128 E5.34262
G1 X-15.198 Y4.102 E5.35782
G1 X-15.427 Y4.004 E5.38744
G1 X-15.529 Y3.935 E5.40203
G1 X-15.701 Y3.762 E5.43102
G1 X-15.826 Y3.550 E5.46030
G1 X-15.868 Y3.431 E5.47524
G1 X-15.903 Y3.176 E5.50582
G1 X-15.894 Y3.046 E5.52129
G1 X-15.826 Y2.802 E5.55136
G1 X-15.770 Y2.692 E5.56610
G1 X-15.396 Y2.140 E5.64523
G1 X-15.807 Y2.140 E5.69402
G1 X-15.807 Y1.281 E5.79611
G1 X-18.257 Y3.672 E6.20263
G1 X-18.257 Y2.140 E6.38450
G1 X-19.756 Y2.140 E6.56256
G1 X-19.756 Y0.496 E6.75789
G1 X-18.257 Y0.496 E6.93595
G1 X-18.257 Y-1.878 E7.21781
G1 X-18.722 Y-1.834 E7.27327
G1 X-18.997 Y-1.758 E7.30720
G1 X-19.307 Y-1.610 E7.34800
G1 X-19.999 Y-1.202 E7.44338
G1 X-19.999 Y-3.023 E7.65960
G1 X-19.470 Y-3.277 E7.72925
G1 X-18.971 Y-3.436 E7.79148
G1 X-18.971 Y-3.478 E7.79647
G1 X-18.455 Y-3.496 E7.85781
G1 X-18.169 Y-3.481 E7.89181
G1 X-17.897 Y-3.435 E7.92456
G1 X-17.643 Y-3.358 E7.95603
G1 X-17.410 Y-3.251 E7.98651
G1 X-17.200 Y-3.115 E8.01626
G1 X-17.016 Y-2.951 E8.04550
G1 X-16.860 Y-2.764 E8.07441
G1 X-16.733 Y-2.558 E8.10315
G1 X-16.637 Y-2.336 E8.13191
G1 X-16.569 Y-2.102 E8.16085
G1 X-16.529 Y-1.858 E8.19017
G1 X-16.467 Y-0.649 E8.33399
G1 X-15.807 Y-0.666 E8.41239
G1 X-15.807 Y-3.400 E8.73716
G1 X-14.070 Y-3.400 E8.94341
G1 X-14.097 Y-3.924 E9.00566
G1 X-14.076 Y-4.209 E9.03958
G1 X-14.009 Y-4.485 E9.07328
G1 X-13.898 Y-4.742 E9.10659
G1 X-13.744 Y-4.976 E9.13978
G1 X-13.553 Y-5.182 E9.17315
G1 X-13.329 Y-5.358 E9.20700
G1 X-13.077 Y-5.505 E9.24168
G1 X-12.799 Y-5.623 E9.27757
G1 X-12.497 Y-5.714 E9.31500
G1 X-12.011 Y-5.810 E9.37382
G1 X-11.457 Y-5.829 E9.43966
G1 X-11.114 Y-5.816 E9.48039
G1 X-10.786 Y-5.775 E9.51964
G1 X-10.476 Y-5.709 E9.55737
G1 X-10.184 Y-5.617 E9.59368
G1 X-9.913 Y-5.500 E9.62873
G1 X-9.665 Y-5.358 E9.66268
G1 X-9.443 Y-5.190 E9.69578
G1 X-9.250 Y-4.996 E9.72829
G1 X-9.091 Y-4.776 E9.76051
G1 X-8.971 Y-4.533 E9.79273
G1 X-8.896 Y-4.270 E9.82521
G1 X-8.872 Y-4.002 E9.85715
G1 X-8.882 Y-3.786 E9.88286
G1 X-9.001 Y-2.989 E9.97855
G1 X-8.269 Y-3.283 E10.07225
G1 X-7.744 Y-3.428 E10.13697
G1 X-7.161 Y-3.491 E10.20660
G1 X-6.940 Y-3.496 E10.23285
G1 X-6.537 Y-3.468 E10.28077
G1 X-6.152 Y-3.384 E10.32765
G1 X-5.796 Y-3.248 E10.37287
G1 X-5.473 Y-3.066 E10.41690
G1 X-5.186 Y-2.842 E10.46011
G1 X-4.510 Y-2.137 E10.57617
G1 X-4.510 Y-3.400 E10.72624
G1 X0.470 Y-3.400 E11.31764
G1 X1.291 Y-3.400 F7200.000
G1 X2.176 Y2.197 F7200.000
G1 X3.062 Y3.340 E11.48943 F900.000
G1 X3.653 Y3.965 E11.59161
G1 X4.302 Y4.530 E11.69381
G1 X5.003 Y5.029 E11.79600
G1 X5.749 Y5.458 E11.89819
G1 X6.533 Y5.811 E12.00037
G1 X7.348 Y6.087 E12.10255
G1 X8.187 Y6.283 E12.20477
G1 X8.995 Y6.389 E12.30165
G1 X24.588 Y7.680 E14.15990
G1 X24.588 Y10.669 E14.51483
G1 X-9.548 Y10.669 E18.56897
G1 X-10.412 Y10.635 E18.67177
G1 X-11.237 Y10.539 E18.77031
G1 X-12.051 Y10.378 E18.86886
G1 X-12.850 Y10.155 E18.96740
G1 X-13.629 Y9.871 E19.06593
G1 X-14.384 Y9.526 E19.16447
G1 X-15.110 Y9.125 E19.26301
G1 X-15.802 Y8.668 E19.36155
G1 X-16.457 Y8.158 E19.46009
G1 X-17.071 Y7.599 E19.55863
G1 X-17.639 Y6.995 E19.65717
G1 X-18.158 Y6.348 E19.75571
G1 X-18.476 Y5.882 E19.82270
G1 X-17.004 Y4.445 E20.06701
G1 X-16.632 Y4.866 E20.13373
G1 X-16.406 Y5.066 E20.16964
G1 X-16.153 Y5.237 E20.20583
G1 X-15.878 Y5.377 E20.24251
G1 X-15.581 Y5.481 E20.27986
G1 X-15.267 Y5.546 E20.31795
G1 X-14.942 Y5.568 E20.35660
G1 X-14.618 Y5.546 E20.39525
G1 X-14.304 Y5.481 E20.43334
G1 X-14.007 Y5.377 E20.47070
G1 X-13.731 Y5.237 E20.50738
G1 X-13.479 Y5.066 E20.54357
G1 X-13.252 Y4.866 E20.57948
G1 X-13.052 Y4.639 E20.61541
G1 X-12.881 Y4.387 E20.65159
G1 X-12.742 Y4.112 E20.68828
G1 X-12.551 Y3.569 E20.75663
G1 X-11.297 Y3.551 E20.90554
G1 X-10.838 Y3.490 E20.96058
G1 X-10.386 Y3.384 E21.01574
G1 X-9.943 Y3.227 E21.07150
G1 X-9.516 Y3.014 E21.12823
G1 X-9.273 Y2.848 E21.16315
G1 X-8.934 Y3.101 E21.21336
G1 X-8.439 Y3.360 E21.27967
G1 X-7.920 Y3.536 E21.34476
G1 X-7.394 Y3.636 E21.40844
G1 X-6.862 Y3.667 E21.47172
G1 X-6.313 Y3.633 E21.53698
G1 X-5.773 Y3.527 E21.60230
G1 X-5.254 Y3.350 E21.66748
G1 X-4.765 Y3.102 E21.73255
G1 X-4.318 Y2.788 E21.79747
G1 X-3.921 Y2.415 E21.86218
G1 X-3.581 Y1.992 E21.92666
G1 X-2.930 Y0.907 E22.07689
G1 X-2.686 Y0.975 E22.10697
G1 X-2.686 Y6.029 E22.70719
G1 X2.005 Y6.029 E23.26436
G1 X2.005 Y2.255 E23.71253
G1 X2.074 Y2.232 E23.72116
G1 X1.291 Y1.870 F7200.000
G1 X1.291 Y-0.951 E24.05621 F900.000
G1 X1.743 Y-1.012 E24.11037
G1 X2.061 Y0.136 E24.25185
G1 X2.344 Y0.874 E24.34576
G1 X2.699 Y1.581 E24.43968
G1 X3.120 Y2.250 E24.53359
G1 X3.605 Y2.875 E24.62751
G1 X4.148 Y3.449 E24.72142
G1 X4.745 Y3.969 E24.81534
G1 X5.389 Y4.427 E24.90925
G1 X6.074 Y4.821 E25.00317
G1 X6.795 Y5.146 E25.09708
G1 X7.544 Y5.400 E25.19099
G1 X8.315 Y5.579 E25.28492
G1 X9.072 Y5.679 E25.37561
G1 X25.302 Y7.023 E27.30987
G1 X25.302 Y11.383 E27.82770
G1 X-9.561 Y11.383 E31.96832
G1 X-10.468 Y11.348 E32.07606
G1 X-11.347 Y11.245 E32.18120
G1 X-12.216 Y11.074 E32.28635
G1 X-13.069 Y10.836 E32.39149
G1 X-13.900 Y10.532 E32.49662
G1 X-14.706 Y10.165 E32.60177
G1 X-15.480 Y9.736 E32.70690
G1 X-16.219 Y9.248 E32.81204
G1 X-16.918 Y8.705 E32.91719
G1 X-17.572 Y8.109 E33.02232
G1 X-18.178 Y7.463 E33.12746
G1 X-18.732 Y6.773 E33.23260
G1 X-19.228 Y6.048 E33.33694
G1 X-19.672 Y5.274 E33.44289
G1 X-20.051 Y4.474 E33.54803
G1 X-20.367 Y3.647 E33.65317
G1 X-20.602 Y2.854 E33.75133
G1 X-18.971 Y2.854 E33.94505
G1 X-18.971 Y5.367 E34.24341
G1 X-16.718 Y3.168 E34.61731
G1 X-16.485 Y3.831 E34.70081
G1 X-16.387 Y4.024 E34.72652
G1 X-16.267 Y4.201 E34.75190
G1 X-16.126 Y4.360 E34.77713
G1 X-15.967 Y4.501 E34.80235
G1 X-15.790 Y4.621 E34.82774
G1 X-15.597 Y4.718 E34.85345
G1 X-15.389 Y4.791 E34.87960
G1 X-15.170 Y4.837 E34.90624
G1 X-14.942 Y4.853 E34.93330
G1 X-14.715 Y4.837 E34.96035
G1 X-14.495 Y4.791 E34.98700
G1 X-14.288 Y4.718 E35.01314
G1 X-14.095 Y4.621 E35.03886
G1 X-13.918 Y4.501 E35.06425
G1 X-13.758 Y4.360 E35.08947
G1 X-13.618 Y4.201 E35.11469
G1 X-13.498 Y4.024 E35.14008
G1 X-13.400 Y3.831 E35.16579
G1 X-13.327 Y3.623 E35.19194
G1 X-13.282 Y3.403 E35.21858
G1 X-13.244 Y2.854 E35.28394
G1 X-11.741 Y2.854 E35.46242
G1 X-11.359 Y2.839 E35.50785
G1 X-10.967 Y2.787 E35.55485
G1 X-10.587 Y2.698 E35.60112
G1 X-10.223 Y2.568 E35.64701
G1 X-9.878 Y2.396 E35.69286
G1 X-9.557 Y2.178 E35.73892
G1 X-9.240 Y1.887 E35.79000
G1 X-8.913 Y2.226 E35.84594
G1 X-8.553 Y2.495 E35.89932
G1 X-8.157 Y2.701 E35.95231
G1 X-7.738 Y2.844 E36.00486
G1 X-7.306 Y2.925 E36.05709
G1 X-6.863 Y2.951 E36.10980
G1 X-6.404 Y2.923 E36.16439
G1 X-5.958 Y2.836 E36.21838
G1 X-5.532 Y2.690 E36.27182
G1 X-5.134 Y2.488 E36.32489
G1 X-4.770 Y2.233 E36.37772
G1 X-4.446 Y1.929 E36.43044
G1 X-4.168 Y1.583 E36.48317
G1 X-3.939 Y1.201 E36.53608
G1 X-3.760 Y0.789 E36.58936
G1 X-3.633 Y0.353 E36.64324
G1 X-3.557 Y-0.101 E36.69801
G1 X-3.532 Y-0.572 E36.75393
G1 X-3.553 Y-0.957 E36.79979
G1 X-1.972 Y-0.957 E36.98754
G1 X-1.972 Y5.314 E37.73239
G1 X1.291 Y5.314 E38.11993
G1 X1.291 Y1.977 E38.51628
G1 F1800.000 E37.51628
G92 E0
G1 X-10.945 Y0.127 F7200.000
G1 E1.00000 F1800.000
G1 X-11.005 Y0.283 E1.01992 F540.000
G1 X-11.138 Y0.420 E1.04252
G1 X-11.329 Y0.508 E1.06750
G1 X-11.479 Y0.526 E1.08549
G1 X-11.686 Y0.487 E1.11055
G1 X-11.856 Y0.383 E1.13412
G1 X-11.962 Y0.243 E1.15504
G1 X-11.997 Y0.090 E1.17368
G1 X-11.979 Y-0.051 E1.19058
G1 X-11.900 Y-0.215 E1.21215
G1 X-11.767 Y-0.327 E1.23290
G1 X-11.571 Y-0.388 E1.25727
G1 X-11.308 Y-0.374 E1.28847
G1 X-11.117 Y-0.295 E1.31316
G1 X-11.003 Y-0.175 E1.33277
G1 X-10.944 Y0.020 E1.35696
G1 F1800.000 E0.35696
G92 E0
G1 X-12.024 Y-2.061 F7200.000
G1 E1.00000 F1800.000
G1 X-12.863 Y-1.564 E1.11590 F540.000
G1 X-13.078 Y-1.376 E1.14978
G1 X-13.230 Y-1.199 E1.17751
G1 X-13.360 Y-1.000 E1.20568
G1 X-13.791 Y-0.198 E1.31388
G1 X-14.067 Y-0.267 E1.34771
G1 X-14.067 Y-3.077 E1.68143
G1 X-13.345 Y-2.558 E1.78706
G1 X-13.142 Y-2.446 E1.81459
G1 X-12.918 Y-2.350 E1.84357
G1 X-12.126 Y-2.094 E1.94246
G1 F1800.000 E0.94246
G92 E0
G1 X-15.416 Y-4.829 F7200.000
G1 E1.00000 F1800.000
G1 X-17.574 Y-4.829 E1.25627 F900.000
G1 X-18.012 Y-4.903 E1.30898
G1 X-19.069 Y-4.959 E1.43477
G1 X-18.348 Y-6.089 E1.59405
G1 X-17.848 Y-6.752 E1.69259
G1 X-17.299 Y-7.373 E1.79113
G1 X-16.703 Y-7.951 E1.88967
G1 X-16.064 Y-8.480 E1.98821
G1 X-15.386 Y-8.958 E2.08675
G1 X-14.672 Y-9.381 E2.18529
G1 X-13.928 Y-9.749 E2.28383
G1 X-13.158 Y-10.057 E2.38237
G1 X-12.366 Y-10.304 E2.48091
G1 X-11.557 Y-10.489 E2.57945
G1 X-10.736 Y-10.611 E2.67799
G1 X-9.909 Y-10.668 E2.77653
G1 X-9.079 Y-10.661 E2.87507
G1 X-8.252 Y-10.590 E2.97361
G1 X-7.434 Y-10.454 E3.07215
G1 X-6.628 Y-10.256 E3.17069
G1 X-5.841 Y-9.995 E3.26923
G1 X-5.075 Y-9.674 E3.36777
G1 X-4.338 Y-9.295 E3.46631
G1 X-3.632 Y-8.859 E3.56484
G1 X-2.961 Y-8.370 E3.66339
G1 X-2.331 Y-7.830 E3.76192
G1 X-1.745 Y-7.243 E3.86046
G1 X-1.206 Y-6.612 E3.95900
G1 X-0.718 Y-5.941 E4.05754
G1 X-0.034 Y-4.829 E4.21261
G1 X-6.074 Y-4.829 E4.92991
G1 X-6.335 Y-4.886 E4.96166
G1 X-6.904 Y-4.925 E5.02940
G1 X-7.559 Y-4.898 E5.10721
G1 X-7.863 Y-5.516 E5.18901
G1 X-8.159 Y-5.925 E5.24894
G1 X-8.502 Y-6.269 E5.30663
G1 X-8.876 Y-6.552 E5.36237
G1 X-9.272 Y-6.779 E5.41666
G1 X-9.685 Y-6.958 E5.47009
G1 X-10.112 Y-7.092 E5.52318
G1 X-10.550 Y-7.185 E5.57640
G1 X-10.999 Y-7.240 E5.63011
G1 X-11.454 Y-7.258 E5.68416
G1 X-12.176 Y-7.233 E5.76996
G1 X-12.842 Y-7.101 E5.85064
G1 X-13.285 Y-6.968 E5.90560
G1 X-13.718 Y-6.784 E5.96142
G1 X-14.134 Y-6.542 E6.01865
G1 X-14.525 Y-6.235 E6.07767
G1 X-14.873 Y-5.859 E6.13846
G1 X-15.160 Y-5.422 E6.20054
G1 X-15.374 Y-4.927 E6.26461
G1 X-14.689 Y-4.712 F7200.000
G1 X-14.833 Y-4.115 E6.33759 F900.000
G1 X-16.521 Y-4.115 E6.53805
G1 X-16.521 Y-3.525 E6.60803
G1 X-17.065 Y-3.878 E6.68501
G1 X-17.390 Y-4.027 E6.72746
G1 X-17.733 Y-4.131 E6.77011
G1 X-18.090 Y-4.192 E6.81310
G1 X-18.448 Y-4.211 E6.85569
G1 X-20.187 Y-4.150 E7.06225
G1 X-19.828 Y-4.970 E7.16849
G1 X-19.411 Y-5.751 E7.27363
G1 X-18.935 Y-6.497 E7.37877
G1 X-18.402 Y-7.204 E7.48391
G1 X-17.816 Y-7.867 E7.58905
G1 X-17.180 Y-8.483 E7.69419
G1 X-16.498 Y-9.048 E7.79933
G1 X-15.774 Y-9.558 E7.90447
G1 X-15.013 Y-10.010 E8.00961
G1 X-14.219 Y-10.401 E8.11475
G1 X-13.397 Y-10.730 E8.21989
G1 X-12.552 Y-10.994 E8.32503
G1 X-11.689 Y-11.191 E8.43017
G1 X-10.814 Y-11.321 E8.53531
G1 X-9.930 Y-11.383 E8.64045
G1 X-9.045 Y-11.375 E8.74558
G1 X-8.163 Y-11.299 E8.85072
G1 X-7.290 Y-11.154 E8.95586
G1 X-6.430 Y-10.943 E9.06101
G1 X-5.590 Y-10.664 E9.16615
G1 X-4.773 Y-10.322 E9.27129
G1 X-3.986 Y-9.917 E9.37643
G1 X-3.233 Y-9.452 E9.48156
G1 X-2.518 Y-8.930 E9.58671
G1 X-1.846 Y-8.354 E9.69184
G1 X-1.220 Y-7.728 E9.79698
G1 X-0.645 Y-7.055 E9.90212
G1 X-0.124 Y-6.339 E10.00727
G1 X0.339 Y-5.585 E10.11240
G1 X0.743 Y-4.797 E10.21754
G1 X1.028 Y-4.115 E10.30534
G1 X-5.224 Y-4.115 E11.04784
G1 X-5.224 Y-3.795 E11.08586
G1 X-5.947 Y-4.070 E11.17783
G1 X-6.436 Y-4.177 E11.23724
G1 X-6.922 Y-4.210 E11.29507
G1 X-7.189 Y-4.205 E11.32686
G1 X-7.652 Y-4.166 E11.38194
G1 X-8.104 Y-4.094 E11.43635
G1 X-8.301 Y-4.790 E11.52231
G1 X-8.477 Y-5.146 E11.56946
