; generated by Slic3r 1.0.0RC2 on 2014-02-13 at 21:34:48

; layer_height = 0.25
; perimeters = 3
; top_solid_layers = 3
; bottom_solid_layers = 3
; fill_density = 0.4
; perimeter_speed = 60
; infill_speed = 100
; travel_speed = 200
; nozzle_diameter = 0.4
; filament_diameter = 1.75
; extrusion_multiplier = 1.1
; perimeters extrusion width = 0.40mm
; infill extrusion width = 0.53mm
; solid infill extrusion width = 0.53mm
; top infill extrusion width = 0.53mm
; first layer extrusion width = 0.50mm

G21 ; set units to millimeters
M107
M190 S70 ; wait for bed temperature to be reached
M104 S200 ; set temperature
G28 ; home all axes
G1 Z5 F5000 ; lift nozzle
M207 S1 F30 Z1
M208 S1 F30
M109 S200 ; wait for temperature to be reached
G90 ; use absolute coordinates
G92 E0
M82 ; use absolute distances for extrusion
M204 S9000
G1 Z0.250 F12000.000
G1 X47.130 Y-3.966 F12000.000
G1 X35.210 Y39.674 E2.47511 F1440.000
G1 X34.770 Y41.184 E2.56116
G1 X34.540 Y41.844 E2.59940
G1 X34.240 Y42.484 E2.63807
G1 X33.510 Y43.864 E2.72349
G1 X33.130 Y44.504 E2.76421
G1 X32.680 Y45.094 E2.80481
G1 X31.670 Y46.294 E2.89062
G1 X31.180 Y46.824 E2.93012
G1 X30.640 Y47.294 E2.96928
G1 X29.400 Y48.264 E3.05542
G1 X28.790 Y48.694 E3.09625
G1 X28.130 Y49.054 E3.13738
G1 X26.720 Y49.734 E3.22303
G1 X26.070 Y50.004 E3.26154
G1 X25.390 Y50.214 E3.30048
G1 X23.870 Y50.594 E3.38620
G1 X23.160 Y50.734 E3.42579
G1 X22.450 Y50.794 E3.46478
G1 X20.890 Y50.854 E3.55019
G1 X20.150 Y50.844 E3.59068
G1 X19.430 Y50.754 E3.63038
G1 X17.770 Y50.464 E3.72258
G1 X-29.750 Y41.434 E6.36903
G1 X-30.450 Y41.264 E6.40845
G1 X-31.130 Y41.024 E6.44790
G1 X-33.450 Y40.054 E6.58548
G1 X-34.090 Y39.744 E6.62439
G1 X-34.690 Y39.384 E6.66267
G1 X-36.260 Y38.314 E6.76662
G1 X-36.790 Y37.914 E6.80295
G1 X-37.280 Y37.464 E6.83935
G1 X-38.620 Y36.114 E6.94342
G1 X-39.160 Y35.504 E6.98799
G1 X-39.630 Y34.824 E7.03322
G1 X-40.850 Y32.814 E7.16186
G1 X-41.310 Y31.904 E7.21765
G1 X-41.640 Y30.924 E7.27423
G1 X-42.220 Y28.654 E7.40241
G1 X-43.610 Y22.564 E7.74418
G1 X-43.910 Y21.094 E7.82626
G1 X-44.010 Y20.414 E7.86387
G1 X-47.940 Y-17.926 E9.97253
G1 X-47.970 Y-18.466 E10.00212
G1 X-48.020 Y-20.506 E10.11376
G1 X-47.990 Y-21.356 E10.16030
G1 X-47.860 Y-22.196 E10.20680
G1 X-47.560 Y-23.536 E10.28193
G1 X-47.350 Y-24.276 E10.32402
G1 X-47.060 Y-24.986 E10.36598
G1 X-46.470 Y-26.236 E10.44161
G1 X-46.060 Y-26.986 E10.48837
G1 X-35.110 Y-44.306 E11.60949
G1 X-34.400 Y-45.236 E11.67350
G1 X-33.550 Y-46.026 E11.73699
G1 X-32.850 Y-46.576 E11.78570
G1 X-31.900 Y-47.206 E11.84807
G1 X-30.870 Y-47.666 E11.90978
G1 X-28.920 Y-48.356 E12.02295
G1 X-28.000 Y-48.606 E12.07512
G1 X-25.960 Y-49.026 E12.18907
G1 X-25.190 Y-49.146 E12.23171
G1 X-22.240 Y-49.416 E12.39378
G1 X7.800 Y-50.856 E14.03923
G1 X8.510 Y-50.856 E14.07807
G1 X10.860 Y-50.726 E14.20684
G1 X34.610 Y-48.656 E15.51118
G1 X35.260 Y-48.566 E15.54709
G1 X35.890 Y-48.426 E15.58240
G1 X36.850 Y-48.156 E15.63696
G1 X37.710 Y-47.846 E15.68697
G1 X38.620 Y-47.456 E15.74114
G1 X39.400 Y-47.066 E15.78886
G1 X40.120 Y-46.576 E15.83651
G1 X41.160 Y-45.776 E15.90829
G1 X41.650 Y-45.366 E15.94325
G1 X42.100 Y-44.916 E15.97807
G1 X42.970 Y-43.946 E16.04936
G1 X43.490 Y-43.286 E16.09533
G1 X44.380 Y-42.016 E16.18018
G1 X44.930 Y-41.086 E16.23929
G1 X45.620 Y-39.676 E16.32518
G1 X46.010 Y-38.686 E16.38339
G1 X46.640 Y-36.666 E16.49916
G1 X46.840 Y-35.876 E16.54375
G1 X47.230 Y-33.796 E16.65953
G1 X47.340 Y-32.736 E16.71784
G1 X48.020 Y-10.986 E17.90841
G1 X47.950 Y-8.426 E18.04853
G1 X47.820 Y-7.276 E18.11185
G1 X47.240 Y-4.416 E18.27151
G1 X47.147 Y-4.036 E18.29293
G1 X46.670 Y-4.086 F12000.000
G1 X34.780 Y39.434 E20.76127 F1440.000
G1 X34.310 Y41.044 E20.85304
G1 X34.090 Y41.664 E20.88903
G1 X33.820 Y42.264 E20.92503
G1 X33.090 Y43.644 E21.01045
G1 X32.730 Y44.234 E21.04826
G1 X32.320 Y44.784 E21.08579
G1 X31.310 Y45.984 E21.17161
G1 X30.850 Y46.474 E21.20838
G1 X30.340 Y46.914 E21.24523
G1 X29.100 Y47.884 E21.33137
G1 X28.530 Y48.284 E21.36947
G1 X27.920 Y48.624 E21.40767
G1 X26.510 Y49.304 E21.49332
G1 X25.900 Y49.554 E21.52939
G1 X25.270 Y49.754 E21.56555
G1 X23.750 Y50.134 E21.65128
G1 X23.100 Y50.254 E21.68744
G1 X22.430 Y50.314 E21.72424
G1 X20.870 Y50.374 E21.80966
G1 X20.190 Y50.364 E21.84687
G1 X19.510 Y50.284 E21.88433
G1 X17.960 Y50.014 E21.97041
G1 X-29.660 Y40.964 E24.62244
G1 X-30.310 Y40.804 E24.65906
G1 X-30.950 Y40.584 E24.69609
G1 X-33.270 Y39.614 E24.83367
G1 X-33.860 Y39.324 E24.86964
G1 X-34.420 Y38.984 E24.90548
G1 X-35.990 Y37.914 E25.00944
G1 X-36.480 Y37.544 E25.04303
G1 X-36.940 Y37.124 E25.07711
G1 X-38.280 Y35.774 E25.18118
G1 X-38.780 Y35.204 E25.22266
G1 X-39.220 Y34.574 E25.26471
G1 X-40.440 Y32.564 E25.39335
G1 X-40.870 Y31.714 E25.44547
G1 X-41.180 Y30.804 E25.49806
G1 X-41.800 Y28.374 E25.63527
G1 X-43.110 Y22.614 E25.95847
G1 X-43.440 Y21.004 E26.04838
G1 X-43.530 Y20.364 E26.08374
G1 X-47.460 Y-17.976 E28.19240
G1 X-47.500 Y-18.476 E28.21985
G1 X-47.550 Y-20.516 E28.33149
G1 X-47.520 Y-21.306 E28.37475
G1 X-47.390 Y-22.096 E28.41855
G1 X-47.090 Y-23.436 E28.49368
G1 X-46.900 Y-24.116 E28.53231
G1 X-46.630 Y-24.786 E28.57183
G1 X-46.040 Y-26.036 E28.64746
G1 X-45.660 Y-26.726 E28.69056
G1 X-34.710 Y-44.046 E29.81167
G1 X-34.050 Y-44.906 E29.87098
G1 X-33.250 Y-45.646 E29.93061
G1 X-32.550 Y-46.196 E29.97931
G1 X-31.670 Y-46.786 E30.03728
G1 X-30.710 Y-47.216 E30.09483
G1 X-28.760 Y-47.906 E30.20800
G1 X-27.910 Y-48.146 E30.25633
G1 X-25.870 Y-48.566 E30.37028
G1 X-25.150 Y-48.666 E30.41005
G1 X-21.920 Y-48.956 E30.58748
G1 X7.820 Y-50.376 E32.21648
G1 X8.490 Y-50.376 E32.25314
G1 X10.840 Y-50.246 E32.38191
G1 X34.570 Y-48.176 E33.68516
G1 X35.170 Y-48.096 E33.71828
G1 X35.760 Y-47.966 E33.75133
G1 X36.720 Y-47.696 E33.80589
G1 X37.520 Y-47.406 E33.85245
G1 X38.430 Y-47.016 E33.90662
G1 X39.160 Y-46.656 E33.95115
G1 X39.830 Y-46.206 E33.99531
G1 X40.870 Y-45.406 E34.06710
G1 X41.330 Y-45.016 E34.10009
G1 X41.740 Y-44.596 E34.13220
G1 X42.610 Y-43.626 E34.20349
G1 X43.100 Y-43.016 E34.24630
G1 X43.990 Y-41.746 E34.33115
G1 X44.500 Y-40.876 E34.38633
G1 X45.190 Y-39.466 E34.47221
G1 X45.550 Y-38.546 E34.52626
G1 X46.180 Y-36.526 E34.64203
G1 X46.370 Y-35.786 E34.68383
G1 X46.760 Y-33.706 E34.79962
G1 X46.870 Y-32.716 E34.85412
G1 X47.550 Y-10.966 E36.04469
G1 X47.470 Y-8.446 E36.18264
G1 X47.350 Y-7.366 E36.24209
G1 X46.686 Y-4.156 E36.42143
G1 X38.706 Y-6.660 F12000.000
G1 X38.544 Y-6.162 E36.45011 F1440.000
G1 X38.206 Y-5.317 E36.49989
G1 X37.857 Y-4.634 E36.54186
G1 X37.428 Y-4.008 E36.58338
G1 X36.935 Y-3.452 E36.62404
G1 X36.376 Y-2.990 E36.66373
G1 X35.750 Y-2.605 E36.70389
G1 X35.042 Y-2.283 E36.74647
G1 X34.256 Y-2.030 E36.79166
G1 X33.668 Y-1.923 E36.82434
G1 X32.852 Y-1.876 E36.86909
G1 X32.518 Y-1.882 E36.88735
G1 X31.857 Y-1.940 E36.92364
G1 X31.549 Y-2.007 E36.94090
G1 X30.876 Y-2.246 E36.97997
G1 X30.239 Y-2.559 E37.01881
G1 X29.482 Y-3.016 E37.06719
G1 X29.619 Y-2.136 E37.11596
G1 X29.677 Y-1.538 E37.14882
G1 X29.700 Y-0.901 E37.18370
G1 X29.683 Y-0.334 E37.21473
G1 X29.630 Y0.204 E37.24431
G1 X29.532 Y0.780 E37.27629
G1 X29.403 Y1.314 E37.30632
G1 X29.068 Y2.195 E37.35787
G1 X28.603 Y3.026 E37.40997
G1 X28.013 Y3.777 E37.46224
G1 X27.328 Y4.424 E37.51377
G1 X26.510 Y5.004 E37.56867
G1 X25.593 Y5.491 E37.62548
G1 X24.616 Y5.865 E37.68272
G1 X23.532 Y6.144 E37.74397
G1 X22.203 Y6.342 E37.81745
G1 X20.824 Y6.408 E37.89297
G1 X19.373 Y6.357 E37.97244
G1 X17.936 Y6.196 E38.05153
G1 X16.457 Y5.917 E38.13389
G1 X14.936 Y5.515 E38.21995
G1 X13.585 Y5.040 E38.29835
G1 X12.208 Y4.432 E38.38066
G1 X11.177 Y3.868 E38.44495
G1 X10.413 Y3.362 E38.49510
G1 X9.512 Y2.667 E38.55734
G1 X8.801 Y2.014 E38.61018
G1 X8.127 Y1.286 E38.66446
G1 X7.489 Y0.482 E38.72060
G1 X6.869 Y-0.469 E38.78272
G1 X6.361 Y-1.390 E38.84029
G1 X6.090 Y-1.977 E38.87564
G1 X6.066 Y-1.977 E38.87698
G1 X5.698 Y-2.981 E38.93548
G1 X5.358 Y-4.089 E38.99893
G1 X5.108 Y-5.212 E39.06187
G1 X5.008 Y-5.874 E39.09845
G1 X4.324 Y-5.498 E39.14116
G1 X3.522 Y-5.130 E39.18943
G1 X2.698 Y-4.838 E39.23723
G1 X2.249 Y-4.710 E39.26279
G1 X1.454 Y-4.529 E39.30738
G1 X1.362 Y-4.293 E39.32126
G1 X1.188 Y-3.994 E39.34018
G1 X0.959 Y-3.675 E39.36167
G1 X0.413 Y-3.031 E39.40785
G1 X-0.294 Y-2.323 E39.46262
G1 X0.790 Y-2.320 E39.52193
G1 X1.644 Y-2.265 E39.56878
G1 X1.909 Y-2.227 E39.58341
G1 X3.126 Y-1.971 E39.65147
G1 X4.235 Y-1.573 E39.71591
G1 X5.264 Y-1.016 E39.77991
G1 X6.135 Y-0.341 E39.84018
G1 X6.919 Y0.511 E39.90356
G1 X7.540 Y1.447 E39.96503
G1 X8.043 Y2.539 E40.03078
G1 X8.406 Y3.744 E40.09967
G1 X8.446 Y3.948 E40.11102
G1 X8.489 Y3.948 E40.11336
G1 X8.659 Y5.847 E40.21768
G1 X8.626 Y5.847 E40.21953
G1 X8.617 Y6.559 E40.25852
G1 X8.591 Y6.983 E40.28171
G1 X8.544 Y7.376 E40.30338
G1 X8.441 Y7.824 E40.32852
G1 X8.286 Y8.258 E40.35374
G1 X8.090 Y8.635 E40.37700
G1 X7.836 Y8.973 E40.40012
G1 X7.542 Y9.256 E40.42243
G1 X7.191 Y9.504 E40.44600
G1 X6.785 Y9.709 E40.47085
G1 X6.277 Y9.895 E40.50043
G1 X6.054 Y9.939 E40.51289
G1 X5.640 Y9.984 E40.53567
G1 X4.854 Y10.000 E40.57871
G1 X6.034 Y11.352 E40.67691
G1 X6.540 Y12.037 E40.72352
G1 X6.989 Y12.768 E40.77045
G1 X7.200 Y13.155 E40.79456
G1 X7.452 Y13.674 E40.82611
G1 X7.682 Y14.214 E40.85825
G1 X7.855 Y14.714 E40.88720
G1 X7.978 Y15.155 E40.91226
G1 X8.088 Y15.733 E40.94446
G1 X8.145 Y16.254 E40.97308
G1 X8.170 Y16.760 E41.00082
G1 X8.165 Y17.359 E41.03358
G1 X8.062 Y18.798 E41.11254
G1 X8.012 Y18.798 E41.11530
G1 X7.892 Y19.279 E41.14243
G1 X7.770 Y19.671 E41.16487
G1 X7.134 Y21.419 E41.26664
G1 X6.316 Y23.083 E41.36809
G1 X5.711 Y24.111 E41.43336
G1 X5.095 Y24.967 E41.49103
G1 X4.430 Y25.709 E41.54557
G1 X3.718 Y26.317 E41.59680
G1 X2.994 Y26.764 E41.64335
G1 X2.224 Y27.069 E41.68865
G1 X1.923 Y27.141 E41.70558
G1 X1.699 Y27.167 E41.71795
G1 X1.208 Y27.194 E41.74485
G1 X0.831 Y27.181 E41.76548
G1 X0.831 Y27.367 E41.77564
G1 X-0.645 Y26.803 E41.86209
G1 X-0.939 Y26.671 E41.87974
G1 X-1.591 Y26.327 E41.92006
G1 X-1.405 Y27.129 E41.96509
G1 X-1.343 Y27.504 E41.98590
G1 X-1.304 Y27.866 E42.00578
G1 X-1.291 Y28.615 E42.04678
G1 X-1.324 Y29.089 E42.07276
G1 X-1.382 Y29.485 E42.09469
G1 X-1.471 Y29.847 E42.11508
G1 X-1.629 Y30.297 E42.14115
G1 X-1.772 Y30.595 E42.15928
G1 X-2.007 Y30.981 E42.18395
G1 X-2.262 Y31.323 E42.20732
G1 X-2.561 Y31.667 E42.23226
G1 X-2.831 Y31.934 E42.25303
G1 X-3.150 Y32.210 E42.27611
G1 X-3.796 Y32.663 E42.31928
G1 X-4.221 Y32.905 E42.34604
G1 X-4.633 Y33.110 E42.37119
G1 X-5.639 Y33.546 E42.43117
G1 X-6.712 Y33.914 E42.49326
G1 X-7.276 Y34.066 E42.52521
G1 X-8.284 Y34.259 E42.58136
G1 X-8.810 Y34.317 E42.61033
G1 X-9.267 Y34.340 E42.63536
G1 X-9.855 Y34.325 E42.66755
G1 X-9.855 Y34.453 E42.67453
G1 X-11.017 Y34.117 E42.74070
G1 X-11.716 Y33.824 E42.78215
G1 X-12.209 Y33.534 E42.81344
G1 X-12.636 Y33.207 E42.84288
G1 X-13.046 Y32.794 E42.87472
G1 X-13.412 Y32.321 E42.90742
G1 X-13.703 Y31.827 E42.93881
G1 X-13.977 Y31.241 E42.97417
G1 X-14.189 Y30.623 E43.00993
G1 X-14.289 Y30.221 E43.03262
G1 X-14.633 Y30.424 E43.05449
G1 X-15.039 Y30.598 E43.07867
G1 X-15.436 Y30.710 E43.10124
G1 X-15.860 Y30.768 E43.12464
G1 X-16.266 Y30.771 E43.14685
G1 X-16.690 Y30.716 E43.17024
G1 X-17.109 Y30.606 E43.19396
G1 X-17.506 Y30.453 E43.21721
G1 X-17.789 Y30.317 E43.23439
G1 X-18.825 Y30.990 E43.30201
G1 X-19.477 Y31.359 E43.34298
G1 X-20.151 Y31.692 E43.38412
G1 X-20.877 Y32.015 E43.42757
G1 X-21.570 Y32.283 E43.46824
G1 X-22.287 Y32.522 E43.50960
G1 X-23.008 Y32.722 E43.55052
G1 X-23.631 Y32.857 E43.58539
G1 X-24.064 Y32.921 E43.60937
G1 X-24.929 Y32.980 E43.65676
G1 X-25.428 Y32.988 E43.68411
G1 X-26.356 Y32.957 E43.73488
G1 X-27.059 Y32.877 E43.77360
G1 X-27.059 Y32.949 E43.77755
G1 X-28.288 Y32.553 E43.84820
G1 X-29.165 Y32.177 E43.90040
G1 X-29.440 Y32.043 E43.91716
G1 X-30.136 Y31.633 E43.96136
G1 X-30.783 Y31.157 E44.00530
G1 X-31.404 Y30.598 E44.05102
G1 X-31.945 Y29.995 E44.09531
G1 X-32.401 Y29.363 E44.13795
G1 X-32.780 Y28.695 E44.18000
G1 X-33.070 Y28.003 E44.22101
G1 X-33.248 Y27.324 E44.25942
G1 X-33.305 Y26.953 E44.27996
G1 X-33.337 Y26.359 E44.31253
G1 X-33.334 Y25.991 E44.33264
G1 X-33.221 Y24.652 E44.40619
G1 X-33.185 Y24.652 E44.40814
G1 X-32.940 Y23.652 E44.46446
G1 X-32.643 Y22.707 E44.51866
G1 X-32.297 Y21.801 E44.57170
G1 X-31.959 Y21.078 E44.61538
G1 X-32.059 Y21.078 E44.62083
G1 X-30.896 Y19.223 E44.74062
G1 X-30.358 Y18.465 E44.79144
G1 X-30.017 Y18.047 E44.82098
G1 X-30.092 Y17.931 E44.82856
G1 X-30.696 Y18.099 E44.86282
G1 X-31.483 Y18.393 E44.90882
G1 X-31.829 Y18.561 E44.92984
G1 X-32.123 Y18.730 E44.94843
G1 X-32.390 Y18.918 E44.96625
G1 X-32.593 Y19.099 E44.98116
G1 X-32.833 Y19.349 E45.00010
G1 X-33.033 Y19.614 E45.01827
G1 X-33.334 Y20.275 E45.05803
G1 X-34.385 Y22.252 E45.18048
G1 X-34.869 Y20.114 E45.30039
G1 X-34.890 Y19.923 E45.31092
G1 X-34.900 Y19.100 E45.35597
G1 X-34.878 Y18.746 E45.37535
G1 X-34.792 Y18.064 E45.41297
G1 X-34.663 Y17.471 E45.44619
G1 X-34.469 Y16.800 E45.48437
G1 X-34.184 Y16.076 E45.52698
G1 X-34.004 Y15.721 E45.54872
G1 X-33.830 Y15.437 E45.56695
G1 X-33.649 Y15.185 E45.58392
G1 X-33.425 Y14.942 E45.60199
G1 X-33.195 Y14.741 E45.61872
G1 X-32.938 Y14.565 E45.63575
G1 X-32.668 Y14.436 E45.65215
G1 X-31.980 Y14.244 E45.69122
G1 X-30.861 Y14.021 E45.75366
G1 X-30.486 Y13.962 E45.77438
G1 X-29.426 Y13.846 E45.83275
G1 X-28.436 Y13.822 E45.88695
G1 X-27.619 Y13.891 E45.93177
G1 X-26.892 Y14.068 E45.97274
G1 X-26.308 Y14.355 E46.00832
G1 X-25.890 Y14.759 E46.04014
G1 X-25.649 Y15.290 E46.07207
G1 X-25.617 Y15.886 E46.10470
G1 X-25.631 Y16.007 E46.11137
G1 X-25.772 Y16.481 E46.13841
G1 X-26.554 Y18.148 E46.23919
G1 X-26.816 Y18.825 E46.27890
G1 X-26.950 Y19.500 E46.31655
G1 X-26.981 Y20.145 E46.35190
G1 X-26.921 Y20.783 E46.38695
G1 X-26.775 Y21.351 E46.41903
G1 X-26.541 Y21.877 E46.45050
G1 X-26.231 Y22.332 E46.48065
G1 X-25.850 Y22.705 E46.50979
G1 X-25.407 Y22.986 E46.53850
G1 X-25.040 Y23.167 E46.56092
G1 X-23.263 Y23.159 E46.65813
G1 X-22.573 Y23.116 E46.69595
G1 X-22.018 Y23.023 E46.72674
G1 X-21.395 Y22.881 E46.76170
G1 X-20.823 Y22.714 E46.79432
G1 X-20.227 Y22.504 E46.82886
G1 X-19.732 Y22.290 E46.85837
G1 X-19.195 Y22.014 E46.89142
G1 X-18.764 Y21.752 E46.91902
G1 X-18.327 Y21.432 E46.94863
G1 X-17.916 Y21.080 E46.97826
G1 X-18.745 Y20.787 E47.02635
G1 X-19.238 Y20.582 E47.05556
G1 X-19.734 Y20.347 E47.08561
G1 X-20.227 Y20.082 E47.11621
G1 X-20.634 Y19.824 E47.14258
G1 X-21.107 Y19.491 E47.17425
G1 X-21.832 Y18.880 E47.22613
G1 X-22.383 Y18.329 E47.26874
G1 X-22.906 Y17.715 E47.31288
G1 X-23.344 Y17.117 E47.35344
G1 X-23.771 Y16.428 E47.39778
G1 X-24.117 Y15.756 E47.43912
G1 X-24.430 Y15.013 E47.48323
G1 X-24.710 Y14.209 E47.52984
G1 X-24.933 Y13.397 E47.57588
G1 X-25.143 Y12.340 E47.63484
G1 X-25.287 Y11.285 E47.69311
G1 X-25.325 Y10.614 E47.72985
G1 X-25.943 Y10.724 E47.76422
G1 X-26.558 Y10.899 E47.79922
G1 X-26.908 Y11.063 E47.82030
G1 X-27.464 Y11.452 E47.85745
G1 X-27.735 Y11.565 E47.87351
G1 X-27.867 Y11.596 E47.88096
G1 X-28.067 Y11.596 E47.89187
G1 X-28.378 Y11.502 E47.90966
G1 X-28.614 Y11.339 E47.92536
G1 X-28.823 Y11.111 E47.94230
G1 X-28.989 Y10.856 E47.95896
G1 X-29.146 Y10.535 E47.97849
G1 X-29.271 Y10.192 E47.99844
G1 X-29.368 Y9.826 E48.01920
G1 X-29.456 Y9.381 E48.04398
G1 X-29.519 Y8.934 E48.06872
G1 X-29.541 Y8.630 E48.08538
G1 X-29.550 Y8.009 E48.11936
G1 X-29.497 Y7.372 E48.15432
G1 X-29.446 Y7.050 E48.17215
G1 X-29.305 Y6.507 E48.20288
G1 X-29.065 Y5.925 E48.23731
G1 X-28.727 Y5.401 E48.27139
G1 X-28.298 Y4.927 E48.30641
G1 X-27.801 Y4.523 E48.34147
G1 X-27.265 Y4.211 E48.37540
G1 X-26.682 Y3.986 E48.40959
G1 X-25.354 Y3.711 E48.48379
G1 X-25.354 Y3.856 E48.49173
G1 X-24.973 Y3.941 E48.51307
G1 X-24.333 Y4.145 E48.54983
G1 X-24.230 Y3.978 E48.56060
G1 X-24.641 Y3.563 E48.59250
G1 X-24.623 Y3.560 E48.59351
G1 X-25.354 Y2.942 E48.64587
G1 X-25.354 Y2.982 E48.64806
G1 X-25.828 Y2.668 E48.67917
G1 X-25.828 Y2.629 E48.68132
G1 X-25.955 Y2.522 E48.69038
G1 X-25.940 Y1.900 E48.72441
G1 X-25.728 Y1.556 E48.74657
G1 X-25.328 Y1.132 E48.77843
G1 X-24.573 Y0.421 E48.83518
G1 X-23.671 Y-0.286 E48.89785
