; generated by Slic3r 1.0.0RC2 on 2014-02-10 at 20:29:39

; layer_height = 0.35
; perimeters = 3
; top_solid_layers = 3
; bottom_solid_layers = 3
; fill_density = 0.4
; perimeter_speed = 50
; infill_speed = 80
; travel_speed = 120
; nozzle_diameter = 0.4
; filament_diameter = 1.75
; extrusion_multiplier = 1
; perimeters extrusion width = 0.40mm
; infill extrusion width = 0.42mm
; solid infill extrusion width = 0.42mm
; top infill extrusion width = 0.42mm
; first layer extrusion width = 0.80mm

G21 ; set units to millimeters
M107
M190 S65 ; wait for bed temperature to be reached
M104 S200 ; set temperature
G28 ; home all axes
G1 Z5 F5000 ; lift nozzle

M109 S200 ; wait for temperature to be reached
G90 ; use absolute coordinates
G92 E0
M82 ; use absolute distances for extrusion
G1 F1800.000 E-1.00000
G92 E0
G1 Z0.400 F7200.000
G1 X17.839 Y-9.419 F7200.000
G1 E1.00000 F1800.000
G1 X50.309 Y32.441 E7.29182 F900.000
G1 X51.059 Y33.661 E7.46190
G1 X51.539 Y35.011 E7.63207
G1 X51.709 Y36.431 E7.80192
G1 X51.579 Y37.861 E7.97245
G1 X51.159 Y39.231 E8.14264
G1 X47.669 Y47.241 E9.18032
G1 X47.189 Y48.131 E9.30042
G1 X46.599 Y48.941 E9.41943
G1 X45.289 Y50.461 E9.65775
G1 X44.489 Y51.241 E9.79045
G1 X43.589 Y51.881 E9.92160
G1 X35.989 Y56.321 E10.96696
G1 X34.629 Y56.921 E11.14351
G1 X33.179 Y57.211 E11.31913
G1 X31.699 Y57.171 E11.49496
G1 X30.269 Y56.821 E11.66981
G1 X28.939 Y56.151 E11.84668
G1 X-15.361 Y27.401 E18.11884
G1 X-16.181 Y26.771 E18.24165
G1 X-16.901 Y26.021 E18.36513
G1 X-29.221 Y10.951 E20.67690
G1 X-29.751 Y10.211 E20.78500
G1 X-30.171 Y9.401 E20.89336
G1 X-51.151 Y-38.379 E27.09091
G1 X-51.551 Y-39.589 E27.24227
G1 X-51.711 Y-40.849 E27.39311
G1 X-51.631 Y-42.119 E27.54424
G1 X-51.321 Y-43.349 E27.69489
G1 X-50.781 Y-44.499 E27.84578
G1 X-50.031 Y-45.529 E27.99710
G1 X-44.241 Y-52.069 E29.03448
G1 X-43.521 Y-52.769 E29.15375
G1 X-42.701 Y-53.359 E29.27372
G1 X-40.991 Y-54.399 E29.51142
G1 X-39.991 Y-54.889 E29.64368
G1 X-38.931 Y-55.219 E29.77553
G1 X-30.321 Y-57.089 E30.82194
G1 X-28.941 Y-57.239 E30.98680
G1 X-27.561 Y-57.109 E31.15142
G1 X-26.241 Y-56.699 E31.31558
G1 X-25.031 Y-56.019 E31.48042
G1 X-23.981 Y-55.109 E31.64544
G1 X12.139 Y-16.389 E37.93427
G1 X17.772 Y-9.502 E38.99090
G1 F1800.000 E37.99090
G92 E0
G1 X1.909 Y4.069 F7200.000
G1 E1.00000 F1800.000
G1 X-3.027 Y3.574 E1.58918 F900.000
G1 X-4.732 Y8.461 E2.20398
G1 X0.172 Y11.614 E2.89640
G1 X-7.703 Y16.138 E3.97509
G1 X-10.826 Y17.699 E4.38977
G1 X-12.255 Y15.951 E4.65788
G1 X-10.105 Y13.200 E5.07255
G1 X-4.796 Y7.165 E6.02725
G1 X-8.494 Y2.642 E6.72106
G1 X-4.478 Y2.023 E7.20366
G1 X-3.963 Y-3.112 E7.81654
G1 X1.841 Y3.986 E8.90543
G1 X-8.679 Y3.045 F7200.000
G1 X-15.299 Y6.848 E9.81216 F540.000
G1 X-18.422 Y8.409 E10.22683
G1 X-19.851 Y6.661 E10.49495
G1 X-17.701 Y3.910 E10.90962
G1 X-11.871 Y-2.716 E11.95785
G1 X-9.500 Y2.798 E12.67071
G1 X-8.804 Y2.690 E12.75441
G1 X-8.715 Y2.944 E12.78634
G1 X-8.498 Y3.765 F7200.000
G1 X-14.961 Y7.478 E13.67155 F900.000
G1 X-18.614 Y9.303 E14.15650
G1 X-20.765 Y6.671 E14.56022
G1 X-18.251 Y3.454 E15.04516
G1 X-11.662 Y-4.036 E16.23000
G1 X-9.062 Y2.007 E17.01132
G1 X-5.133 Y1.401 E17.48351
G1 X-4.501 Y-4.899 E18.23549
G1 X3.553 Y4.952 E19.74663
G1 X-2.539 Y4.340 E20.47371
G1 X-3.873 Y8.165 E20.95478
G1 X1.546 Y11.648 E21.71981
G1 X-7.365 Y16.768 E22.94045
G1 X-11.018 Y18.593 E23.42539
G1 X-13.170 Y15.961 E23.82911
G1 X-10.655 Y12.744 E24.31405
G1 X-5.732 Y7.148 E25.19927
G1 X-8.431 Y3.848 E25.70558
G1 X-8.668 Y4.686 F7200.000
G1 X-14.623 Y8.108 E26.52132 F900.000
G1 X-18.805 Y10.197 E27.07653
G1 X-21.680 Y6.681 E27.61586
G1 X-18.801 Y2.998 E28.17107
G1 X-12.481 Y-4.186 E29.30742
G1 X-13.825 Y-5.829 E29.55949
G1 X-12.049 Y-6.744 E29.79676
G1 X-8.625 Y1.217 E30.82605
G1 X-5.789 Y0.780 E31.16689
G1 X-5.040 Y-6.682 E32.05751
G1 X-3.202 Y-4.985 E32.35462
G1 X-3.408 Y-4.690 E32.39736
G1 X3.566 Y3.840 E33.70585
G1 X3.896 Y3.696 E33.74855
G1 X5.193 Y5.834 E34.04549
G1 X-2.050 Y5.107 E34.91002
G1 X-3.013 Y7.869 E35.25736
G1 X4.460 Y12.672 E36.31243
G1 X3.054 Y14.091 E36.54970
G1 X1.604 Y12.438 E36.81086
G1 X-7.028 Y17.398 E37.99312
G1 X-11.209 Y19.487 E38.54833
G1 X-14.084 Y15.971 E39.08766
G1 X-11.205 Y12.288 E39.64287
G1 X-6.668 Y7.131 E40.45862
G1 X-8.600 Y4.769 E40.82103
G1 X-8.837 Y5.607 F7200.000
G1 X-14.285 Y8.737 E41.56730 F900.000
G1 X-18.997 Y11.091 E42.19278
G1 X-22.594 Y6.692 E42.86771
G1 X-19.351 Y2.542 E43.49319
G1 X-13.417 Y-4.203 E44.56008
G1 X-14.862 Y-5.970 E44.83121
G1 X-13.474 Y-6.952 E45.03314
G1 X-13.410 Y-6.846 E45.04785
G1 X-11.695 Y-7.730 E45.27697
G1 X-8.187 Y0.427 E46.33154
G1 X-6.444 Y0.158 E46.54103
G1 X-5.578 Y-8.472 E47.57120
G1 X-4.504 Y-7.160 E47.77262
G1 X-3.314 Y-6.060 E47.96505
G1 X0.216 Y-8.875 E48.50126
G1 X0.622 Y-8.403 E48.57509
G1 X-0.419 Y-7.420 E48.74515
G1 X-1.139 Y-6.602 E48.87453
G1 X-1.816 Y-5.717 E49.00698
G1 X-2.513 Y-4.724 E49.15100
G1 X3.777 Y2.969 E50.33124
G1 X4.888 Y2.483 E50.47522
G1 X5.890 Y1.995 E50.60767
G1 X6.835 Y1.452 E50.73705
G1 X8.005 Y0.627 E50.90711
G1 X8.387 Y1.118 E50.98094
G1 X4.927 Y4.019 E51.51714
G1 X5.768 Y5.404 E51.70957
G1 X6.841 Y6.717 E51.91100
G1 X-1.561 Y5.874 E52.91388
G1 X-2.153 Y7.572 E53.12749
G1 X5.491 Y12.485 E54.20671
G1 X4.474 Y13.848 E54.40864
G1 X4.380 Y13.767 E54.42335
G1 X3.023 Y15.138 E54.65247
G1 X1.453 Y13.349 E54.93516
G1 X-6.690 Y18.027 E56.05045
G1 X-11.401 Y20.381 E56.67593
G1 X-14.998 Y15.982 E57.35086
G1 X-11.755 Y11.832 E57.97635
G1 X-7.605 Y7.114 E58.72261
G1 X-8.769 Y5.690 E58.94114
G1 F1800.000 E57.94114
G92 E0
G1 X3.703 Y-10.196 F7200.000
G1 E1.00000 F1800.000
G1 X3.683 Y-10.534 E1.04024 F540.000
G1 X5.734 Y-11.100 E1.29300
G1 X5.926 Y-10.536 E1.36381
G1 X4.781 Y-10.072 E1.51057
G1 X4.644 Y-10.056 E1.52695
G1 X3.809 Y-10.180 E1.62714
G1 X3.833 Y-9.500 F7200.000
G1 X3.597 Y-9.522 E1.65531 F540.000
G1 X2.947 Y-9.526 E1.73251
G1 X2.596 Y-9.432 E1.77561
G1 X1.707 Y-9.088 E1.88885
G1 X0.790 Y-8.637 E2.01017
G1 X0.511 Y-9.098 E2.07426
G1 X1.565 Y-9.870 E2.22946
G1 X2.486 Y-10.498 E2.36184
G1 X3.314 Y-10.999 E2.47674
G1 X4.162 Y-11.407 E2.58856
G1 X4.934 Y-11.620 E2.68371
G1 X5.309 Y-11.637 E2.72827
G1 X5.622 Y-11.590 E2.76582
G1 X5.893 Y-11.492 E2.80007
G1 X6.108 Y-11.359 E2.83011
G1 X6.332 Y-11.137 E2.86757
G1 X6.472 Y-10.902 E2.90006
G1 X6.529 Y-10.700 E2.92497
G1 X6.528 Y-10.547 E2.94316
G1 X6.462 Y-10.360 E2.96672
G1 X6.306 Y-10.147 E2.99798
G1 X5.682 Y-9.666 E3.09157
G1 X4.960 Y-9.374 E3.18404
G1 X4.633 Y-9.335 E3.22316
G1 X4.365 Y-9.375 E3.25530
G1 X3.937 Y-9.476 E3.30757
G1 F1800.000 E2.30757
G92 E0
G1 X6.522 Y-10.263 F7200.000
G1 X5.820 Y-6.369 F7200.000
G1 X10.753 Y-7.805 F7200.000
G1 X7.917 Y-13.891 F7200.000
G1 X35.966 Y28.370 F7200.000
G1 X14.383 Y-0.745 F7200.000
G1 X8.762 Y0.931 F7200.000
G1 X11.149 Y-4.148 F7200.000
G1 E1.00000 F1800.000
G1 X11.664 Y-3.848 E1.07081 F540.000
G1 X10.702 Y-1.950 E1.32356
G1 X10.374 Y-2.037 E1.36380
G1 X10.423 Y-2.987 E1.47672
G1 X10.467 Y-3.117 E1.49310
G1 X11.090 Y-4.058 E1.62712
G1 X10.843 Y-4.598 F7200.000
G1 X11.083 Y-4.708 E1.65839 F540.000
G1 X11.279 Y-4.735 E1.68195
G1 X11.429 Y-4.706 E1.70014
G1 X11.616 Y-4.610 E1.72505
G1 X11.819 Y-4.427 E1.75753
G1 X11.992 Y-4.163 E1.79500
G1 X12.079 Y-3.926 E1.82504
G1 X12.122 Y-3.640 E1.85929
G1 X12.105 Y-3.325 E1.89683
G1 X12.015 Y-2.961 E1.94140
G1 X11.653 Y-2.246 E2.03655
G1 X11.051 Y-1.458 E2.15432
G1 X10.373 Y-0.727 E2.27276
G1 X9.630 Y-0.006 E2.39564
G1 X8.664 Y0.874 E2.55084
G1 X8.268 Y0.508 E2.61494
G1 X8.892 Y-0.300 E2.73625
G1 X9.405 Y-1.104 E2.84950
G1 X9.567 Y-1.429 E2.89260
G1 X9.692 Y-2.066 E2.96980
G1 X9.718 Y-2.302 E2.99796
G1 X9.701 Y-2.849 E3.06295
G1 X9.715 Y-3.119 E3.09510
G1 X9.819 Y-3.432 E3.13422
G1 X10.248 Y-4.081 E3.22669
G1 X10.763 Y-4.528 E3.30755
G1 X10.392 Y-5.152 F7200.000
G1 X10.456 Y-5.206 E3.31742 F630.000
G1 X10.880 Y-5.400 E3.37286
G1 X11.298 Y-5.459 E3.42299
G1 X11.665 Y-5.388 E3.46744
G1 X12.026 Y-5.203 E3.51560
G1 X12.353 Y-4.906 E3.56807
G1 X12.648 Y-4.448 E3.63271
G1 X12.767 Y-4.123 E3.67387
G1 X12.837 Y-3.685 E3.72655
G1 X12.815 Y-3.219 E3.78194
G1 X12.688 Y-2.713 E3.84387
G1 X12.270 Y-1.885 E3.95404
G1 X11.635 Y-1.041 E4.07946
G1 X10.946 Y-0.291 E4.20045
G1 X10.122 Y0.511 E4.33701
G1 X9.229 Y1.322 E4.48037
G1 X7.732 Y2.613 E4.71503
G1 X5.857 Y4.174 E5.00487
G1 X6.352 Y4.991 E5.11829
G1 X7.764 Y6.717 E5.38312
G1 X6.744 Y7.425 E5.53056
G1 X-1.072 Y6.641 E6.46347
G1 X-1.293 Y7.276 E6.54336
G1 X44.448 Y36.675 E13.00110
G1 X43.799 Y37.684 E13.14362
G1 X5.802 Y13.263 E18.50803
G1 X5.308 Y13.925 E18.60614
G1 X40.946 Y44.610 E24.19148
G1 X40.163 Y45.520 E24.33400
G1 X4.419 Y14.743 E29.93595
G1 X3.838 Y15.330 E30.03406
G1 X33.539 Y49.173 E35.38187
G1 X32.637 Y49.965 E35.52439
G1 X1.302 Y14.259 E41.16643
G1 X-6.352 Y18.657 E42.21476
G1 X-11.592 Y21.275 E42.91051
G1 X-15.912 Y15.992 E43.72105
G1 X-12.305 Y11.376 E44.41681
G1 X-8.541 Y7.097 E45.09359
G1 X-9.007 Y6.528 E45.18096
G1 X-13.948 Y9.367 E45.85775
G1 X-19.188 Y11.985 E46.55350
G1 X-23.508 Y6.702 E47.36404
G1 X-19.901 Y2.086 E48.05979
G1 X-14.354 Y-4.220 E49.05720
G1 X-44.438 Y-41.014 E54.70179
G1 X-43.509 Y-41.773 E54.84431
G1 X-14.918 Y-6.806 E60.20873
G1 X-14.244 Y-7.283 E60.30684
G1 X-38.655 Y-47.479 E65.89217
G1 X-37.629 Y-48.102 E66.03470
G1 X-13.145 Y-7.786 E71.63664
G1 X-12.411 Y-8.164 E71.73475
G1 X-30.200 Y-49.530 E77.08256
G1 X-29.098 Y-50.004 E77.22508
G1 X-7.750 Y-0.363 E83.64277
G1 X-7.099 Y-0.463 E83.72092
G1 X-6.291 Y-8.518 E84.68230
G1 X-5.395 Y-9.377 E84.82975
G1 X-3.983 Y-7.650 E85.09458
G1 X-3.282 Y-7.003 E85.20799
G1 X-1.379 Y-8.531 E85.49784
G1 X0.183 Y-9.741 E85.73250
G1 X1.156 Y-10.455 E85.87586
G1 X2.023 Y-11.049 E86.00064
G1 X2.978 Y-11.630 E86.13341
G1 X3.822 Y-12.040 E86.24485
G1 X4.738 Y-12.307 E86.35817
G1 X4.826 Y-12.329 E86.36893
G1 X5.347 Y-12.353 E86.43086
G1 X5.808 Y-12.282 E86.48626
G1 X6.223 Y-12.127 E86.53894
G1 X6.518 Y-11.945 E86.58009
G1 X6.908 Y-11.566 E86.64474
G1 X7.134 Y-11.186 E86.69721
G1 X7.244 Y-10.795 E86.74537
G1 X7.241 Y-10.421 E86.78982
G1 X7.100 Y-10.023 E86.83995
G1 X6.825 Y-9.646 E86.89539
G1 X6.028 Y-9.039 E87.01431
G1 X5.138 Y-8.679 E87.12840
G1 X4.582 Y-8.621 E87.19482
G1 X4.229 Y-8.673 E87.23714
G1 X3.719 Y-8.794 E87.29944
G1 X3.038 Y-8.811 E87.38026
G1 X2.818 Y-8.752 E87.40737
G1 X1.895 Y-8.385 E87.52529
G1 X0.982 Y-7.751 E87.65736
G1 X0.093 Y-6.923 E87.80160
G1 X-0.654 Y-6.068 E87.93643
G1 X-1.242 Y-5.293 E88.05199
G1 X-1.619 Y-4.758 E88.12967
G1 X3.988 Y2.099 E89.18167
G1 X4.586 Y1.835 E89.25932
G1 X5.463 Y1.414 E89.37488
G1 X6.449 Y0.851 E89.50972
G1 X7.437 Y0.145 E89.65396
G1 X8.240 Y-0.625 E89.78602
G1 X8.783 Y-1.456 E89.90395
G1 X8.885 Y-1.661 E89.93106
G1 X9.003 Y-2.331 E90.01188
G1 X8.986 Y-2.855 E90.07417
G1 X9.005 Y-3.211 E90.11649
G1 X9.173 Y-3.744 E90.18292
G1 X9.703 Y-4.545 E90.29700
G1 X10.311 Y-5.082 E90.39334
G1 X10.471 Y-5.124 F7200.000
G1 X4.924 Y6.639 F7200.000
G1 X3.203 Y2.087 F7200.000
G1 X-7.817 Y7.035 F7200.000
G1 X-0.382 Y8.575 F7200.000
G1 X-0.824 Y11.589 F7200.000
G1 X-0.944 Y11.469 E90.41375 F1080.000
G1 X-1.446 Y11.988 E90.50057
G1 X-3.804 Y9.631 E90.90112
G1 X-5.610 Y8.846 F7200.000
G1 X-2.095 Y12.361 E91.49830 F1080.000
G1 X-2.744 Y12.734 E91.58821
G1 X-6.101 Y9.377 E92.15852
G1 X-6.579 Y9.921 E92.24550
G1 X-3.393 Y13.107 E92.78681
G1 X-4.042 Y13.479 E92.87672
G1 X-7.057 Y10.464 E93.38903
G1 X-7.535 Y11.008 E93.47600
G1 X-4.691 Y13.852 E93.95931
G1 X-5.340 Y14.225 E94.04922
G1 X-8.013 Y11.551 E94.50352
G1 X-8.492 Y12.095 E94.59050
G1 X-5.989 Y14.598 E95.01579
G1 X-6.637 Y14.971 E95.10570
G1 X-8.970 Y12.638 E95.50199
G1 X-9.448 Y13.182 E95.58897
G1 X-7.286 Y15.344 E95.95626
G1 X-7.935 Y15.716 E96.04618
G1 X-9.914 Y13.737 E96.38239
G1 X-10.362 Y14.311 E96.46984
G1 X-8.617 Y16.057 E96.76644
G1 X-9.298 Y16.397 E96.85794
G1 X-10.811 Y14.884 E97.11493
G1 X-11.259 Y15.458 E97.20238
G1 X-9.979 Y16.737 E97.41976
G1 X-10.944 Y16.795 E97.53580
G1 X-10.661 Y17.078 E97.58385
G1 F1800.000 E96.58385
G92 E0
G1 X-0.382 Y8.575 F7200.000
G1 X-7.817 Y7.035 F7200.000
G1 X-9.659 Y-3.283 F7200.000
G1 X-18.256 Y7.789 F7200.000
G1 E1.00000 F1800.000
G1 X-18.547 Y7.497 E1.05094 F1080.000
G1 X-17.554 Y7.438 E1.17396
G1 X-18.842 Y6.150 E1.39927
G1 X-18.380 Y5.560 E1.49199
G1 X-16.853 Y7.088 E1.75929
G1 X-16.151 Y6.737 E1.85631
G1 X-17.919 Y4.969 E2.16561
G1 X-17.457 Y4.379 E2.25832
G1 X-15.453 Y6.383 E2.60898
G1 X-14.785 Y5.999 E2.70431
G1 X-16.974 Y3.811 E3.08719
G1 X-16.481 Y3.251 E3.17940
G1 X-14.117 Y5.615 E3.59304
G1 X-13.449 Y5.231 E3.68836
G1 X-15.989 Y2.691 E4.13274
G1 X-15.496 Y2.132 E4.22496
G1 X-12.781 Y4.847 E4.70009
G1 X-12.113 Y4.463 E4.79542
G1 X-15.004 Y1.572 E5.30129
G1 X-14.512 Y1.012 E5.39351
G1 X-11.444 Y4.080 E5.93014
G1 X-10.776 Y3.696 E6.02547
G1 X-14.019 Y0.453 E6.59285
G1 X-13.527 Y-0.107 E6.68506
G1 X-10.108 Y3.312 E7.28319
G1 X-10.365 Y2.003 E7.44818
G1 X-13.035 Y-0.667 E7.91526
G1 X-12.542 Y-1.226 E8.00747
G1 X-11.159 Y0.157 E8.24953
G1 X-11.952 Y-1.689 F7200.000
G1 X-12.024 Y-1.760 E8.26196 F1080.000
G1 F1800.000 E7.26196
G92 E0
G1 X-9.659 Y-3.283 F7200.000
G1 X-7.817 Y7.035 F7200.000
G1 X-3.572 Y-1.817 F7200.000
G1 E1.00000 F1800.000
G1 X-3.310 Y-1.554 E1.04568 F1080.000
G1 X0.657 Y3.460 F7200.000
G1 X-3.702 Y-0.899 E1.80489 F1080.000
G1 X-3.797 Y0.053 E1.92272
G1 X-0.507 Y3.343 E2.49578
G1 X-1.671 Y3.226 E2.63989
G1 X-3.893 Y1.005 E3.02679
G1 X-3.988 Y1.957 E3.14463
G1 X-2.836 Y3.110 E3.34537
G1 X-3.506 Y3.486 E3.44012
G1 X-4.483 Y2.510 E3.61023
G1 X-5.390 Y2.650 E3.72331
G1 X-3.777 Y4.263 E4.00430
G1 X-4.048 Y5.040 E4.10560
G1 X-6.298 Y2.790 E4.49746
G1 X-7.205 Y2.930 E4.61054
G1 X-4.319 Y5.816 E5.11328
G1 X-4.881 Y6.301 E5.20474
G1 X-4.590 Y6.593 E5.25550
G1 X2.700 Y12.593 F7200.000
G1 X3.088 Y12.981 E5.32069 F360.000
G1 X4.736 Y14.332 F7200.000
G1 X4.922 Y14.517 E5.33660 F360.000
G1 X3.528 Y15.735 F7200.000
G1 X3.343 Y15.550 E5.35149 F360.000
G1 X4.815 Y17.504 F7200.000
G1 X6.989 Y19.678 E5.52597 F360.000
G1 X8.275 Y21.447 F7200.000
G1 X10.449 Y23.621 E5.70045 F360.000
G1 X11.736 Y25.391 F7200.000
G1 X13.910 Y27.564 E5.87493 F360.000
G1 X15.196 Y29.334 F7200.000
G1 X17.370 Y31.508 E6.04940 F360.000
G1 X18.657 Y33.277 F7200.000
G1 X20.831 Y35.451 E6.22387 F360.000
G1 X22.117 Y37.220 F7200.000
G1 X24.291 Y39.394 E6.39834 F360.000
G1 X25.578 Y41.163 F7200.000
G1 X27.752 Y43.337 E6.57280 F360.000
G1 X29.039 Y45.107 F7200.000
G1 X31.212 Y47.280 E6.74726 F360.000
G1 X32.499 Y49.050 F7200.000
G1 X32.692 Y49.243 E6.76276 F360.000
G1 F1800.000 E5.76276
G92 E0
G1 X32.411 Y48.798 F7200.000
G1 X32.694 Y44.572 F7200.000
G1 X37.552 Y46.438 F7200.000
G1 X37.345 Y42.302 F7200.000
G1 X38.260 Y43.223 F7200.000
G1 E1.00000 F1800.000
G1 X36.340 Y41.302 E1.16441 F360.000
G1 X34.556 Y40.033 F7200.000
G1 X32.635 Y38.113 E1.32883 F360.000
G1 X30.852 Y36.844 F7200.000
G1 X28.931 Y34.923 E1.49324 F360.000
G1 X27.147 Y33.654 F7200.000
G1 X25.227 Y31.734 E1.65766 F360.000
G1 X23.443 Y30.465 F7200.000
G1 X21.523 Y28.544 E1.82207 F360.000
G1 X19.739 Y27.275 F7200.000
G1 X17.818 Y25.355 E1.98648 F360.000
G1 X16.035 Y24.086 F7200.000
G1 X14.114 Y22.165 E2.15090 F360.000
G1 X12.330 Y20.896 F7200.000
G1 X10.410 Y18.976 E2.31531 F360.000
G1 X8.626 Y17.707 F7200.000
G1 X6.705 Y15.786 E2.47972 F360.000
G1 X-0.382 Y8.575 F7200.000
G1 X7.373 Y13.678 F7200.000
G1 X8.075 Y13.891 E2.52195 F360.000
G1 X8.742 Y14.558 E2.57620 F360.000
G1 X9.444 Y14.771 E2.61843 F360.000
G1 X10.111 Y15.438 E2.67268 F360.000
G1 X10.814 Y15.651 E2.71491 F360.000
G1 X11.480 Y16.318 E2.76916 F360.000
G1 X12.183 Y16.531 E2.81139 F360.000
G1 X12.850 Y17.198 E2.86565 F360.000
G1 X13.552 Y17.411 E2.90787 F360.000
G1 X14.219 Y18.078 E2.96213 F360.000
G1 X14.921 Y18.291 E3.00435 F360.000
G1 X15.588 Y18.958 E3.05861 F360.000
G1 X16.291 Y19.171 E3.10083 F360.000
G1 X16.957 Y19.838 E3.15509 F360.000
G1 X17.660 Y20.052 E3.19731 F360.000
G1 X18.327 Y20.718 E3.25157 F360.000
G1 X19.029 Y20.932 E3.29379 F360.000
G1 X19.696 Y21.598 E3.34805 F360.000
G1 X20.398 Y21.812 E3.39027 F360.000
G1 X21.065 Y22.478 E3.44453 F360.000
G1 X21.768 Y22.692 E3.48675 F360.000
G1 X22.434 Y23.359 E3.54101 F360.000
