; generated by Slic3r 1.0.0RC2 on 2014-02-18 at 23:57:32

; layer_height = 0.25
; perimeters = 3
; top_solid_layers = 3
; bottom_solid_layers = 3
; fill_density = 0.4
; perimeter_speed = 50
; infill_speed = 60
; travel_speed = 120
; nozzle_diameter = 0.4
; filament_diameter = 1.75
; extrusion_multiplier = 1.0
; perimeters extrusion width = 0.40mm
; infill extrusion width = 0.53mm
; solid infill extrusion width = 0.53mm
; top infill extrusion width = 0.53mm
; first layer extrusion width = 0.50mm

G21 ; set units to millimeters
M107
M190 S58 ; wait for bed temperature to be reached
M104 S190 ; set temperature
G28 ; home all axes
G1 Z5 F5000 ; lift nozzle
M207 S1 F30 Z1
M208 S1 F30
M109 S190 ; wait for temperature to be reached
G90 ; use absolute coordinates
G92 E0
M82 ; use absolute distances for extrusion
M204 S9000
G1 Z0.250 F7200.000
G1 X2.267 Y20.905 F7200.000
G1 X-23.823 Y20.905 E1.29768 F1200.000
G1 X-24.553 Y20.865 E1.33404
G1 X-25.283 Y20.745 E1.37084
G1 X-27.333 Y20.305 E1.47512
G1 X-28.033 Y20.115 E1.51120
G1 X-28.713 Y19.855 E1.54741
G1 X-30.613 Y19.005 E1.65094
G1 X-31.253 Y18.685 E1.68653
G1 X-31.853 Y18.295 E1.72212
G1 X-33.553 Y17.065 E1.82649
G1 X-34.123 Y16.605 E1.86292
G1 X-34.633 Y16.085 E1.89915
G1 X-36.033 Y14.535 E2.00303
G1 X-36.503 Y13.965 E2.03978
G1 X-36.903 Y13.345 E2.07648
G1 X-37.943 Y11.535 E2.18031
G1 X-38.273 Y10.895 E2.21612
G1 X-38.523 Y10.225 E2.25169
G1 X-39.173 Y8.235 E2.35582
G1 X-39.373 Y7.515 E2.39298
G1 X-39.483 Y6.775 E2.43020
G1 X-39.693 Y4.695 E2.53418
G1 X-39.733 Y3.995 E2.56905
G1 X-39.693 Y3.295 E2.60392
G1 X-39.483 Y1.215 E2.70791
G1 X-39.373 Y0.475 E2.74512
G1 X-39.173 Y-0.245 E2.78228
G1 X-38.523 Y-2.235 E2.88641
G1 X-38.273 Y-2.905 E2.92198
G1 X-37.943 Y-3.545 E2.95779
G1 X-36.903 Y-5.355 E3.06162
G1 X-36.503 Y-5.975 E3.09832
G1 X-36.033 Y-6.545 E3.13507
G1 X-34.633 Y-8.095 E3.23896
G1 X-34.123 Y-8.615 E3.27518
G1 X-33.553 Y-9.075 E3.31161
G1 X-31.633 Y-10.455 E3.42922
G1 X-19.643 Y-18.455 E4.14614
G1 X-18.603 Y-19.025 E4.20513
G1 X-16.733 Y-19.855 E4.30689
G1 X-16.063 Y-20.105 E4.34246
G1 X-15.373 Y-20.295 E4.37806
G1 X-13.283 Y-20.745 E4.48439
G1 X-12.563 Y-20.865 E4.52070
G1 X-11.823 Y-20.905 E4.55756
G1 X14.267 Y-20.905 E5.85524
G1 X14.987 Y-20.865 E5.89110
G1 X15.697 Y-20.755 E5.92684
G1 X17.747 Y-20.325 E6.03102
G1 X18.457 Y-20.135 E6.06758
G1 X19.147 Y-19.875 E6.10425
G1 X21.057 Y-19.025 E6.20824
G1 X21.707 Y-18.685 E6.24472
G1 X22.317 Y-18.295 E6.28073
G1 X24.007 Y-17.065 E6.38470
G1 X24.547 Y-16.635 E6.41903
G1 X25.037 Y-16.155 E6.45315
G1 X36.117 Y-4.135 E7.26626
G1 X36.647 Y-3.465 E7.30875
G1 X37.167 Y-2.635 E7.35746
G1 X37.797 Y-1.015 E7.44392
G1 X38.017 Y0.705 E7.53017
G1 X38.007 Y7.305 E7.85844
G1 X37.847 Y8.775 E7.93199
G1 X37.327 Y10.285 E8.01142
G1 X36.557 Y11.585 E8.08657
G1 X35.537 Y12.685 E8.16119
G1 X34.287 Y13.535 E8.23637
G1 X32.897 Y14.095 E8.31091
G1 X27.177 Y15.715 E8.60660
G1 X26.727 Y15.825 E8.62964
G1 X3.727 Y20.745 E9.79951
G1 X2.997 Y20.865 E9.83630
G1 X2.339 Y20.901 E9.86910
G1 X2.267 Y20.425 F7200.000
G1 X-23.823 Y20.425 E11.16677 F1200.000
G1 X-24.503 Y20.385 E11.20065
G1 X-25.183 Y20.275 E11.23492
G1 X-27.233 Y19.835 E11.33920
G1 X-27.883 Y19.665 E11.37262
G1 X-28.523 Y19.415 E11.40679
G1 X-30.423 Y18.565 E11.51032
G1 X-31.013 Y18.265 E11.54324
G1 X-31.573 Y17.905 E11.57636
G1 X-33.273 Y16.675 E11.68072
G1 X-33.803 Y16.245 E11.71467
G1 X-34.283 Y15.765 E11.74843
G1 X-35.683 Y14.215 E11.85232
G1 X-36.113 Y13.685 E11.88627
G1 X-36.493 Y13.105 E11.92075
G1 X-37.533 Y11.295 E12.02458
G1 X-37.833 Y10.695 E12.05795
G1 X-38.073 Y10.075 E12.09102
G1 X-38.723 Y8.085 E12.19514
G1 X-38.903 Y7.415 E12.22965
G1 X-39.013 Y6.725 E12.26440
G1 X-39.223 Y4.645 E12.36838
G1 X-39.253 Y3.995 E12.40075
G1 X-39.223 Y3.345 E12.43311
G1 X-39.013 Y1.265 E12.53710
G1 X-38.903 Y0.575 E12.57185
G1 X-38.723 Y-0.095 E12.60635
G1 X-38.073 Y-2.085 E12.71048
G1 X-37.833 Y-2.705 E12.74355
G1 X-37.533 Y-3.305 E12.77691
G1 X-36.493 Y-5.115 E12.88074
G1 X-36.113 Y-5.695 E12.91523
G1 X-35.683 Y-6.225 E12.94918
G1 X-34.283 Y-7.775 E13.05306
G1 X-33.803 Y-8.255 E13.08683
G1 X-33.273 Y-8.685 E13.12077
G1 X-31.373 Y-10.055 E13.23728
G1 X-19.383 Y-18.055 E13.95421
G1 X-18.413 Y-18.585 E14.00918
G1 X-16.543 Y-19.415 E14.11095
G1 X-15.923 Y-19.655 E14.14401
G1 X-15.273 Y-19.825 E14.17743
G1 X-13.183 Y-20.275 E14.28377
G1 X-12.513 Y-20.385 E14.31754
G1 X-11.823 Y-20.425 E14.35191
G1 X14.267 Y-20.425 E15.64959
G1 X14.937 Y-20.385 E15.68297
G1 X15.597 Y-20.285 E15.71618
G1 X17.647 Y-19.855 E15.82036
G1 X18.307 Y-19.675 E15.85439
G1 X18.947 Y-19.435 E15.88838
G1 X20.857 Y-18.585 E15.99237
G1 X21.467 Y-18.275 E16.02640
G1 X22.037 Y-17.905 E16.06020
G1 X23.727 Y-16.675 E16.16416
G1 X24.227 Y-16.275 E16.19601
G1 X24.677 Y-15.825 E16.22766
G1 X35.757 Y-3.805 E17.04077
G1 X36.267 Y-3.185 E17.08070
G1 X36.747 Y-2.405 E17.12626
G1 X37.337 Y-0.905 E17.20643
G1 X37.537 Y0.705 E17.28712
G1 X37.527 Y7.305 E17.61540
G1 X37.377 Y8.675 E17.68395
G1 X36.897 Y10.085 E17.75803
G1 X36.177 Y11.295 E17.82806
G1 X35.217 Y12.315 E17.89773
G1 X34.067 Y13.115 E17.96741
G1 X32.767 Y13.635 E18.03705
G1 X26.627 Y15.365 E18.35433
G1 X3.627 Y20.275 E19.52410
G1 X2.947 Y20.385 E19.55836
G1 X2.339 Y20.421 E19.58867
G1 X2.280 Y12.670 F7200.000
G1 X0.175 Y12.670 E19.69339 F1200.000
G1 X-1.870 Y12.166 E19.79812
G1 X-3.734 Y11.188 E19.90284
G1 X-5.310 Y9.792 E20.00757
G1 X-6.506 Y8.059 E20.11229
G1 X-7.253 Y6.090 E20.21702
G1 X-7.492 Y4.121 E20.31568
G1 X-9.720 Y4.670 E20.42981
G1 X-11.825 Y4.670 E20.53454
G1 X-14.053 Y4.121 E20.64867
G1 X-14.292 Y6.090 E20.74733
G1 X-15.039 Y8.059 E20.85206
G1 X-16.235 Y9.792 E20.95678
G1 X-17.811 Y11.188 E21.06151
G1 X-19.675 Y12.166 E21.16623
G1 X-21.720 Y12.670 E21.27096
G1 X-23.825 Y12.670 E21.37568
G1 X-25.870 Y12.166 E21.48041
G1 X-27.734 Y11.188 E21.58513
G1 X-29.310 Y9.792 E21.68986
G1 X-30.506 Y8.059 E21.79458
G1 X-31.253 Y6.090 E21.89931
G1 X-31.506 Y4.000 E22.00403
G1 X-31.253 Y1.910 E22.10875
G1 X-30.506 Y-0.059 E22.21348
G1 X-29.310 Y-1.792 E22.31820
G1 X-27.734 Y-3.188 E22.42293
G1 X-25.870 Y-4.166 E22.52765
G1 X-23.825 Y-4.670 E22.63238
G1 X-21.720 Y-4.670 E22.73710
G1 X-19.492 Y-4.121 E22.85124
G1 X-19.253 Y-6.090 E22.94990
G1 X-18.506 Y-8.059 E23.05462
G1 X-17.310 Y-9.792 E23.15935
G1 X-15.734 Y-11.188 E23.26407
G1 X-13.870 Y-12.166 E23.36880
G1 X-10.993 Y-12.875 E23.51615
G1 X-10.993 Y-12.670 E23.52635
G1 X-9.720 Y-12.670 E23.58969
G1 X-7.675 Y-12.166 E23.69441
G1 X-5.811 Y-11.188 E23.79914
G1 X-4.235 Y-9.792 E23.90386
G1 X-3.039 Y-8.059 E24.00859
G1 X-2.292 Y-6.090 E24.11331
G1 X-2.053 Y-4.121 E24.21197
G1 X0.175 Y-4.670 E24.32611
G1 X2.280 Y-4.670 E24.43083
G1 X4.508 Y-4.121 E24.54497
G1 X4.747 Y-6.090 E24.64363
G1 X5.494 Y-8.059 E24.74835
G1 X6.690 Y-9.792 E24.85308
G1 X8.266 Y-11.188 E24.95780
G1 X10.130 Y-12.166 E25.06253
G1 X12.175 Y-12.670 E25.16725
G1 X14.280 Y-12.670 E25.27198
G1 X16.325 Y-12.166 E25.37670
G1 X18.189 Y-11.188 E25.48142
G1 X19.765 Y-9.792 E25.58615
G1 X20.961 Y-8.059 E25.69087
G1 X21.708 Y-6.090 E25.79560
G1 X21.961 Y-4.000 E25.90032
G1 X21.708 Y-1.910 E26.00505
G1 X20.961 Y0.059 E26.10977
G1 X19.765 Y1.792 E26.21450
G1 X18.189 Y3.188 E26.31922
G1 X16.325 Y4.166 E26.42395
G1 X14.280 Y4.670 E26.52867
G1 X12.175 Y4.670 E26.63340
G1 X9.947 Y4.121 E26.74753
G1 X9.708 Y6.090 E26.84619
G1 X8.961 Y8.059 E26.95092
G1 X7.765 Y9.792 E27.05564
G1 X6.189 Y11.188 E27.16037
G1 X4.325 Y12.166 E27.26509
G1 X2.350 Y12.653 E27.36625
G1 X2.222 Y12.192 F7200.000
G1 X0.233 Y12.192 E27.46519 F840.000
G1 X-1.699 Y11.716 E27.56413
G1 X-3.460 Y10.791 E27.66308
G1 X-4.949 Y9.472 E27.76202
G1 X-6.079 Y7.835 E27.86097
G1 X-6.785 Y5.975 E27.95991
G1 X-7.024 Y4.000 E28.05886
G1 X-6.932 Y3.235 E28.09716
G1 X-7.846 Y3.716 E28.14855
G1 X-9.778 Y4.192 E28.24750
G1 X-11.767 Y4.192 E28.34644
G1 X-13.699 Y3.716 E28.44539
G1 X-14.614 Y3.235 E28.49678
G1 X-14.521 Y4.000 E28.53509
G1 X-14.760 Y5.975 E28.63403
G1 X-15.466 Y7.835 E28.73297
G1 X-16.596 Y9.472 E28.83192
G1 X-18.085 Y10.791 E28.93086
G1 X-19.846 Y11.716 E29.02981
G1 X-21.778 Y12.192 E29.12875
G1 X-23.767 Y12.192 E29.22770
G1 X-25.699 Y11.716 E29.32664
G1 X-27.460 Y10.791 E29.42559
G1 X-28.949 Y9.472 E29.52453
G1 X-30.079 Y7.835 E29.62348
G1 X-30.785 Y5.975 E29.72242
G1 X-31.024 Y4.000 E29.82136
G1 X-30.785 Y2.025 E29.92031
G1 X-30.079 Y0.165 E30.01925
G1 X-28.949 Y-1.472 E30.11820
G1 X-27.460 Y-2.791 E30.21714
G1 X-25.699 Y-3.716 E30.31609
G1 X-23.767 Y-4.192 E30.41503
G1 X-21.778 Y-4.192 E30.51398
G1 X-19.846 Y-3.716 E30.61292
G1 X-18.932 Y-3.235 E30.66431
G1 X-19.024 Y-4.000 E30.70262
G1 X-18.785 Y-5.975 E30.80156
G1 X-18.079 Y-7.835 E30.90051
G1 X-16.949 Y-9.472 E30.99945
G1 X-15.460 Y-10.791 E31.09840
G1 X-13.699 Y-11.716 E31.19734
G1 X-11.472 Y-12.264 E31.31142
G1 X-11.472 Y-12.192 E31.31504
G1 X-9.778 Y-12.192 E31.39929
G1 X-7.846 Y-11.716 E31.49824
G1 X-6.085 Y-10.791 E31.59718
G1 X-4.596 Y-9.472 E31.69612
G1 X-3.466 Y-7.835 E31.79507
G1 X-2.760 Y-5.975 E31.89401
G1 X-2.521 Y-4.000 E31.99296
G1 X-2.614 Y-3.235 E32.03127
G1 X-1.699 Y-3.716 E32.08266
G1 X0.233 Y-4.192 E32.18160
G1 X2.222 Y-4.192 E32.28054
G1 X4.154 Y-3.716 E32.37949
G1 X5.068 Y-3.235 E32.43088
G1 X4.976 Y-4.000 E32.46919
G1 X5.215 Y-5.975 E32.56813
G1 X5.921 Y-7.835 E32.66707
G1 X7.051 Y-9.472 E32.76602
G1 X8.540 Y-10.791 E32.86496
G1 X10.301 Y-11.716 E32.96391
G1 X12.233 Y-12.192 E33.06285
G1 X14.222 Y-12.192 E33.16180
G1 X16.154 Y-11.716 E33.26074
G1 X17.915 Y-10.791 E33.35969
G1 X19.404 Y-9.472 E33.45863
G1 X20.534 Y-7.835 E33.55758
G1 X21.240 Y-5.975 E33.65652
G1 X21.479 Y-4.000 E33.75547
G1 X21.240 Y-2.025 E33.85441
G1 X20.534 Y-0.165 E33.95335
G1 X19.404 Y1.472 E34.05230
G1 X17.915 Y2.791 E34.15124
G1 X16.154 Y3.716 E34.25019
G1 X14.222 Y4.192 E34.34913
G1 X12.233 Y4.192 E34.44808
G1 X10.301 Y3.716 E34.54702
G1 X9.386 Y3.235 E34.59841
G1 X9.479 Y4.000 E34.63672
G1 X9.240 Y5.975 E34.73566
G1 X8.534 Y7.835 E34.83461
G1 X7.404 Y9.472 E34.93355
G1 X5.915 Y10.791 E35.03250
G1 X4.154 Y11.716 E35.13144
G1 X2.292 Y12.174 E35.22682
G1 X2.017 Y12.624 F7200.000
G1 X2.196 Y13.217 F7200.000
G1 X0.259 Y13.217 E35.32318 F1200.000
G1 X-1.636 Y12.814 E35.41954
G1 X-3.406 Y12.026 E35.51591
G1 X-4.974 Y10.887 E35.61227
G1 X-6.270 Y9.447 E35.70864
G1 X-7.239 Y7.769 E35.80500
G1 X-7.837 Y5.927 E35.90137
G1 X-7.953 Y4.823 E35.95655
G1 X-9.804 Y5.217 E36.05064
G1 X-11.741 Y5.217 E36.14701
G1 X-13.592 Y4.823 E36.24110
G1 X-13.708 Y5.927 E36.29629
G1 X-14.306 Y7.769 E36.39265
G1 X-15.275 Y9.447 E36.48901
G1 X-16.571 Y10.887 E36.58538
G1 X-18.139 Y12.026 E36.68174
G1 X-19.909 Y12.814 E36.77811
G1 X-21.804 Y13.217 E36.87447
G1 X-23.741 Y13.217 E36.97084
G1 X-25.636 Y12.814 E37.06720
G1 X-27.406 Y12.026 E37.16357
G1 X-28.974 Y10.887 E37.25993
G1 X-30.270 Y9.447 E37.35629
G1 X-31.239 Y7.769 E37.45266
G1 X-31.837 Y5.927 E37.54902
G1 X-32.040 Y4.000 E37.64539
G1 X-31.837 Y2.073 E37.74175
G1 X-31.239 Y0.231 E37.83812
G1 X-30.270 Y-1.447 E37.93448
G1 X-28.974 Y-2.887 E38.03085
G1 X-27.406 Y-4.026 E38.12721
G1 X-25.636 Y-4.814 E38.22357
G1 X-23.741 Y-5.217 E38.31994
G1 X-21.804 Y-5.217 E38.41630
G1 X-19.953 Y-4.823 E38.51039
G1 X-19.837 Y-5.927 E38.56558
G1 X-19.239 Y-7.769 E38.66195
G1 X-18.270 Y-9.447 E38.75831
G1 X-16.974 Y-10.887 E38.85467
G1 X-15.406 Y-12.026 E38.95104
G1 X-13.636 Y-12.814 E39.04740
G1 X-11.741 Y-13.217 E39.14377
G1 X-9.804 Y-13.217 E39.24013
G1 X-7.909 Y-12.814 E39.33650
G1 X-6.139 Y-12.026 E39.43286
G1 X-4.571 Y-10.887 E39.52923
G1 X-3.275 Y-9.447 E39.62559
G1 X-2.306 Y-7.769 E39.72195
G1 X-1.708 Y-5.927 E39.81832
G1 X-1.592 Y-4.823 E39.87350
G1 X0.259 Y-5.217 E39.96760
G1 X2.196 Y-5.217 E40.06396
G1 X4.047 Y-4.823 E40.15805
G1 X4.163 Y-5.927 E40.21324
G1 X4.761 Y-7.769 E40.30960
G1 X5.730 Y-9.447 E40.40597
G1 X7.026 Y-10.887 E40.50233
G1 X8.594 Y-12.026 E40.59869
G1 X10.364 Y-12.814 E40.69506
G1 X12.259 Y-13.217 E40.79142
G1 X14.196 Y-13.217 E40.88779
G1 X16.091 Y-12.814 E40.98415
G1 X17.861 Y-12.026 E41.08052
G1 X19.429 Y-10.887 E41.17688
G1 X20.725 Y-9.447 E41.27325
G1 X21.694 Y-7.769 E41.36961
G1 X22.292 Y-5.927 E41.46598
G1 X22.495 Y-4.000 E41.56234
G1 X22.292 Y-2.073 E41.65870
G1 X21.694 Y-0.231 E41.75507
G1 X20.725 Y1.447 E41.85143
G1 X19.429 Y2.887 E41.94780
G1 X17.861 Y4.026 E42.04416
G1 X16.091 Y4.814 E42.14053
G1 X14.196 Y5.217 E42.23689
G1 X12.259 Y5.217 E42.33326
G1 X10.408 Y4.823 E42.42735
G1 X10.292 Y5.927 E42.48253
G1 X9.694 Y7.769 E42.57890
G1 X8.725 Y9.447 E42.67526
G1 X7.429 Y10.887 E42.77163
G1 X5.861 Y12.026 E42.86799
G1 X4.091 Y12.814 E42.96435
G1 X2.266 Y13.202 E43.05715
G1 X2.246 Y13.695 F7200.000
G1 X0.208 Y13.695 E43.15852 F840.000
G1 X-1.785 Y13.271 E43.25988
G1 X-3.647 Y12.443 E43.36125
G1 X-5.296 Y11.245 E43.46262
G1 X-6.659 Y9.730 E43.56399
G1 X-7.678 Y7.965 E43.66536
G1 X-8.308 Y6.027 E43.76672
G1 X-8.374 Y5.402 E43.79798
G1 X-9.754 Y5.695 E43.86813
G1 X-11.792 Y5.695 E43.96950
G1 X-13.171 Y5.402 E44.03966
G1 X-13.237 Y6.027 E44.07091
G1 X-13.867 Y7.965 E44.17228
G1 X-14.886 Y9.730 E44.27365
G1 X-16.249 Y11.245 E44.37502
G1 X-17.898 Y12.443 E44.47638
G1 X-19.760 Y13.271 E44.57775
G1 X-21.754 Y13.695 E44.67912
G1 X-23.792 Y13.695 E44.78049
G1 X-25.785 Y13.271 E44.88186
G1 X-27.647 Y12.443 E44.98322
G1 X-29.296 Y11.245 E45.08459
G1 X-30.659 Y9.730 E45.18596
G1 X-31.678 Y7.965 E45.28733
G1 X-32.308 Y6.027 E45.38869
G1 X-32.521 Y4.000 E45.49006
G1 X-32.308 Y1.973 E45.59143
G1 X-31.678 Y0.035 E45.69280
G1 X-30.659 Y-1.730 E45.79417
G1 X-29.313 Y-3.225 E45.89424
G1 X-27.647 Y-4.443 E45.99687
G1 X-25.785 Y-5.271 E46.09824
G1 X-23.792 Y-5.695 E46.19961
G1 X-21.754 Y-5.695 E46.30098
G1 X-20.374 Y-5.402 E46.37114
G1 X-20.308 Y-6.027 E46.40239
G1 X-19.678 Y-7.965 E46.50376
G1 X-18.659 Y-9.730 E46.60512
G1 X-17.296 Y-11.245 E46.70649
G1 X-15.647 Y-12.443 E46.80786
G1 X-13.785 Y-13.271 E46.90923
G1 X-11.792 Y-13.695 E47.01059
G1 X-9.754 Y-13.695 E47.11196
G1 X-7.760 Y-13.271 E47.21333
G1 X-5.898 Y-12.443 E47.31470
G1 X-4.249 Y-11.245 E47.41607
G1 X-2.886 Y-9.730 E47.51743
G1 X-1.867 Y-7.965 E47.61880
G1 X-1.237 Y-6.027 E47.72017
G1 X-1.171 Y-5.402 E47.75142
G1 X0.208 Y-5.695 E47.82158
G1 X2.246 Y-5.695 E47.92295
G1 X3.626 Y-5.402 E47.99311
G1 X3.692 Y-6.027 E48.02436
G1 X4.322 Y-7.965 E48.12573
G1 X5.341 Y-9.730 E48.22709
G1 X6.704 Y-11.245 E48.32846
G1 X8.353 Y-12.443 E48.42983
G1 X10.215 Y-13.271 E48.53120
G1 X12.208 Y-13.695 E48.63257
G1 X14.246 Y-13.695 E48.73393
G1 X16.240 Y-13.271 E48.83530
G1 X18.102 Y-12.443 E48.93667
G1 X19.751 Y-11.245 E49.03804
G1 X21.114 Y-9.730 E49.13941
G1 X22.133 Y-7.965 E49.24077
G1 X22.763 Y-6.027 E49.34214
G1 X22.976 Y-4.000 E49.44351
G1 X22.763 Y-1.973 E49.54488
G1 X22.133 Y-0.035 E49.64624
G1 X21.114 Y1.730 E49.74761
G1 X19.751 Y3.245 E49.84898
G1 X18.102 Y4.443 E49.95035
G1 X16.240 Y5.271 E50.05172
G1 X14.246 Y5.695 E50.15308
G1 X12.208 Y5.695 E50.25445
G1 X10.829 Y5.402 E50.32461
G1 X10.763 Y6.027 E50.35586
G1 X10.133 Y7.965 E50.45723
G1 X9.114 Y9.730 E50.55860
G1 X7.751 Y11.245 E50.65997
G1 X6.102 Y12.443 E50.76133
G1 X4.240 Y13.271 E50.86270
G1 X2.317 Y13.680 E50.96050
G1 X1.979 Y13.298 F7200.000
G1 X25.227 Y1.501 F7200.000
G1 X25.227 Y4.000 E51.08482 F840.000
G1 X27.075 Y2.934 E51.19090
G1 X25.227 Y4.000 F7200.000
G1 X27.075 Y5.066 E51.29699 F840.000
G1 X25.227 Y4.000 F7200.000
G1 X23.380 Y2.934 E51.40307 F840.000
G1 X25.227 Y4.000 F7200.000
G1 X23.380 Y5.066 E51.50915 F840.000
G1 X25.227 Y6.133 F7200.000
G1 X25.227 Y4.000 E51.61524 F840.000
M106 S255
M104 S185 ; set temperature
M140 S56 ; set bed temperature
M204 S9000
G1 Z0.500 F7200.000
G1 X20.723 Y0.178 F7200.000
M204 S9000
G1 X19.668 Y1.706 E51.69243 F1963.833
G1 X18.115 Y3.081 E51.77867
G1 X16.279 Y4.045 E51.86491
G1 X14.265 Y4.542 E51.95115
G1 X12.190 Y4.542 E52.03739
G1 X10.176 Y4.045 E52.12363
G1 X9.847 Y3.873 E52.13908
G1 X9.582 Y6.059 E52.23065
G1 X8.846 Y7.999 E52.31689
G1 X7.668 Y9.706 E52.40313
G1 X6.115 Y11.081 E52.48937
G1 X4.279 Y12.045 E52.57561
G1 X2.265 Y12.542 E52.66185
G1 X0.190 Y12.542 E52.74809
G1 X-1.824 Y12.045 E52.83432
G1 X-3.660 Y11.081 E52.92056
G1 X-5.213 Y9.706 E53.00680
