; generated by Slic3r 1.0.0RC2 on 2014-02-11 at 21:08:12

; layer_height = 0.25
; perimeters = 3
; top_solid_layers = 3
; bottom_solid_layers = 3
; fill_density = 0.4
; perimeter_speed = 60
; infill_speed = 100
; travel_speed = 200
; nozzle_diameter = 0.4
; filament_diameter = 1.75
; extrusion_multiplier = 1
; perimeters extrusion width = 0.40mm
; infill extrusion width = 0.53mm
; solid infill extrusion width = 0.53mm
; top infill extrusion width = 0.53mm
; first layer extrusion width = 0.50mm

G21 ; set units to millimeters
M107
M190 S70 ; wait for bed temperature to be reached
M104 S210 ; set temperature
G28 ; home all axes
G1 Z5 F5000 ; lift nozzle
M109 S210 ; wait for temperature to be reached
G90 ; use absolute coordinates
G92 E0
M82 ; use absolute distances for extrusion
M204 S9000
G1 F1800.000 E-1.00000
G1 Z1.250 F12000.000
G92 E0
G1 X-34.984 Y18.130 F12000.000
G1 Z0.250 F12000.000
G1 E1.00000 F1800.000
G1 X-33.984 Y-47.870 E4.28311 F1440.000
G1 X-33.704 Y-49.690 E4.37470
G1 X-32.964 Y-51.370 E4.46601
G1 X-32.014 Y-52.920 E4.55643
G1 X-30.974 Y-54.440 E4.64804
G1 X-29.874 Y-55.870 E4.73777
G1 X-28.704 Y-57.250 E4.82776
G1 X-27.454 Y-58.590 E4.91891
G1 X-26.094 Y-59.900 E5.01283
G1 X-25.034 Y-60.830 E5.08297
G1 X-23.644 Y-61.950 E5.17175
G1 X-22.184 Y-63.020 E5.26179
G1 X-20.634 Y-64.030 E5.35380
G1 X-19.064 Y-64.940 E5.44406
G1 X-17.454 Y-65.770 E5.53416
G1 X-15.824 Y-66.520 E5.62340
G1 X-13.744 Y-67.340 E5.73460
G1 X-12.344 Y-67.800 E5.80790
G1 X-10.314 Y-68.370 E5.91277
G1 X-8.554 Y-68.770 E6.00255
G1 X-7.104 Y-69.030 E6.07582
G1 X-4.914 Y-69.300 E6.18557
G1 X-3.044 Y-69.430 E6.27881
G1 X-1.634 Y-69.460 E6.34895
G1 X0.246 Y-69.240 E6.44310
G1 X1.996 Y-68.530 E6.53703
G1 X27.546 Y-53.780 E8.00441
G1 X29.046 Y-52.610 E8.09903
G1 X30.176 Y-51.080 E8.19364
G1 X30.846 Y-49.850 E8.26330
G1 X31.606 Y-48.300 E8.34917
G1 X32.416 Y-46.430 E8.45053
G1 X32.926 Y-45.050 E8.52370
G1 X33.446 Y-43.430 E8.60833
G1 X33.996 Y-41.390 E8.71342
G1 X34.336 Y-39.810 E8.79380
G1 X34.586 Y-38.360 E8.86699
G1 X34.826 Y-36.280 E8.97113
G1 X34.946 Y-34.540 E9.05788
G1 X34.976 Y-32.930 E9.13798
G1 X33.976 Y33.100 E12.42258
G1 X33.946 Y34.570 E12.49571
G1 X33.826 Y36.290 E12.58147
G1 X33.586 Y38.350 E12.68462
G1 X33.346 Y39.740 E12.75478
G1 X32.976 Y41.460 E12.84229
G1 X32.546 Y43.100 E12.92662
G1 X31.916 Y45.050 E13.02854
G1 X31.296 Y46.700 E13.11622
G1 X30.716 Y48.050 E13.18930
G1 X29.856 Y49.820 E13.28718
G1 X29.186 Y51.060 E13.35728
G1 X28.056 Y52.600 E13.45228
G1 X26.546 Y53.780 E13.54760
G1 X0.996 Y68.530 E15.01498
G1 X-0.774 Y69.240 E15.10984
G1 X-2.674 Y69.450 E15.20492
G1 X-4.474 Y69.400 E15.29448
G1 X-5.944 Y69.290 E15.36780
G1 X-7.784 Y69.060 E15.46003
G1 X-9.524 Y68.770 E15.54777
G1 X-9.894 Y68.690 E15.56660
G1 X-11.674 Y68.280 E15.65745
G1 X-13.094 Y67.880 E15.73083
G1 X-15.134 Y67.190 E15.83794
G1 X-16.514 Y66.650 E15.91165
G1 X-18.194 Y65.890 E16.00336
G1 X-20.094 Y64.910 E16.10970
G1 X-21.364 Y64.180 E16.18255
G1 X-22.914 Y63.180 E16.27430
G1 X-23.204 Y62.990 E16.29155
G1 X-24.634 Y61.950 E16.37949
G1 X-25.784 Y61.040 E16.45243
G1 X-27.164 Y59.830 E16.54372
G1 X-28.714 Y58.310 E16.65170
G1 X-29.944 Y56.970 E16.74217
G1 X-30.884 Y55.850 E16.81490
G1 X-32.224 Y54.080 E16.92532
G1 X-33.014 Y52.920 E16.99512
G1 X-33.964 Y51.360 E17.08597
G1 X-34.724 Y49.630 E17.17996
G1 X-34.984 Y47.750 E17.27435
G1 X-34.984 Y18.202 E18.74404
G1 X-34.504 Y18.140 F12000.000
G1 X-33.504 Y-47.860 E22.02715 F1440.000
G1 X-33.244 Y-49.550 E22.11220
G1 X-32.564 Y-51.130 E22.19775
G1 X-31.804 Y-52.380 E22.27051
G1 X-30.594 Y-54.150 E22.37716
G1 X-29.704 Y-55.320 E22.45027
G1 X-28.354 Y-56.920 E22.55440
G1 X-27.124 Y-58.240 E22.64414
G1 X-25.774 Y-59.540 E22.73736
G1 X-24.494 Y-60.660 E22.82195
G1 X-23.344 Y-61.580 E22.89520
G1 X-21.894 Y-62.630 E22.98425
G1 X-20.094 Y-63.800 E23.09103
G1 X-18.824 Y-64.530 E23.16389
G1 X-17.234 Y-65.350 E23.25287
G1 X-15.624 Y-66.090 E23.34100
G1 X-13.954 Y-66.760 E23.43050
G1 X-11.944 Y-67.420 E23.53573
G1 X-10.534 Y-67.820 E23.60863
G1 X-8.464 Y-68.300 E23.71432
G1 X-7.014 Y-68.560 E23.78759
G1 X-5.204 Y-68.790 E23.87834
G1 X-3.034 Y-68.950 E23.98656
G1 X-1.624 Y-68.980 E24.05671
G1 X0.126 Y-68.780 E24.14432
G1 X1.756 Y-68.110 E24.23197
G1 X27.306 Y-53.360 E25.69936
G1 X28.706 Y-52.270 E25.78761
G1 X29.756 Y-50.850 E25.87545
G1 X30.426 Y-49.620 E25.94511
G1 X31.176 Y-48.090 E26.02986
G1 X31.966 Y-46.270 E26.12855
G1 X32.476 Y-44.890 E26.20172
G1 X32.996 Y-43.280 E26.28588
G1 X33.536 Y-41.290 E26.38843
G1 X33.816 Y-39.980 E26.45506
G1 X34.166 Y-37.920 E26.55899
G1 X34.326 Y-36.520 E26.62908
G1 X34.446 Y-34.840 E26.71285
G1 X34.496 Y-32.940 E26.80739
G1 X33.496 Y33.090 E30.09199
G1 X33.466 Y34.560 E30.16513
G1 X33.326 Y36.510 E30.26236
G1 X33.166 Y37.910 E30.33245
G1 X33.106 Y38.270 E30.35060
G1 X32.816 Y39.930 E30.43442
G1 X32.506 Y41.360 E30.50720
G1 X32.086 Y42.970 E30.58996
G1 X31.566 Y44.610 E30.67553
G1 X30.856 Y46.510 E30.77642
G1 X30.276 Y47.860 E30.84950
G1 X29.436 Y49.590 E30.94515
G1 X28.766 Y50.830 E31.01526
G1 X27.716 Y52.270 E31.10390
G1 X26.306 Y53.360 E31.19254
G1 X0.756 Y68.110 E32.65992
G1 X-0.894 Y68.780 E32.74850
G1 X-2.664 Y68.980 E32.83710
G1 X-4.134 Y68.940 E32.91024
G1 X-6.254 Y68.780 E33.01598
G1 X-7.724 Y68.590 E33.08971
G1 X-9.794 Y68.220 E33.19430
G1 X-11.544 Y67.820 E33.28358
G1 X-12.964 Y67.420 E33.35696
G1 X-14.674 Y66.850 E33.44662
G1 X-16.654 Y66.070 E33.55246
G1 X-17.994 Y65.460 E33.62569
G1 X-19.854 Y64.500 E33.72980
G1 X-21.124 Y63.770 E33.80266
G1 X-22.654 Y62.780 E33.89330
G1 X-24.334 Y61.570 E33.99628
G1 X-25.484 Y60.660 E34.06922
G1 X-26.844 Y59.470 E34.15911
G1 X-28.154 Y58.200 E34.24986
G1 X-29.364 Y56.900 E34.33819
G1 X-30.514 Y55.540 E34.42678
G1 X-31.824 Y53.810 E34.53471
G1 X-32.804 Y52.370 E34.62135
G1 X-33.564 Y51.120 E34.69411
G1 X-34.264 Y49.500 E34.78189
G1 X-34.504 Y47.750 E34.86974
G1 X-34.504 Y18.212 E36.33893
G1 F1800.000 E35.33893
G1 Z1.250 F12000.000
G92 E0
G1 X-11.616 Y-40.322 F12000.000
G1 Z0.250 F12000.000
G1 E1.00000 F1800.000
G1 X-22.469 Y-46.588 E1.62330 F1440.000
G1 X-21.424 Y-48.034 E1.71205
G1 X-20.830 Y-48.791 E1.75989
G1 X-20.184 Y-49.551 E1.80949
G1 X-19.241 Y-50.560 E1.87816
G1 X-18.242 Y-51.516 E1.94698
G1 X-17.191 Y-52.416 E2.01580
G1 X-16.091 Y-53.257 E2.08462
G1 X-14.947 Y-54.035 E2.15344
G1 X-13.762 Y-54.748 E2.22226
G1 X-12.539 Y-55.395 E2.29108
G1 X-11.282 Y-55.974 E2.35990
G1 X-9.995 Y-56.481 E2.42872
G1 X-8.736 Y-56.900 E2.49469
G1 X-7.458 Y-57.252 E2.56064
G1 X-6.163 Y-57.535 E2.62659
G1 X-4.854 Y-57.749 E2.69255
G1 X-2.748 Y-57.980 E2.79794
G1 X-2.748 Y-45.447 E3.42133
G1 X-4.346 Y-45.136 E3.50232
G1 X-5.277 Y-44.878 E3.55037
G1 X-6.185 Y-44.548 E3.59842
G1 X-7.064 Y-44.149 E3.64647
G1 X-7.911 Y-43.683 E3.69451
G1 X-8.718 Y-43.153 E3.74256
G1 X-9.483 Y-42.561 E3.79067
G1 X-10.095 Y-42.013 E3.83151
G1 X-10.670 Y-41.426 E3.87239
G1 X-11.569 Y-40.377 E3.94112
G1 X-11.721 Y-40.936 F12000.000
G1 X-21.770 Y-46.738 E4.51829 F1008.000
G1 X-21.041 Y-47.746 E4.58020
G1 X-20.457 Y-48.491 E4.62729
G1 X-19.826 Y-49.234 E4.67577
G1 X-18.899 Y-50.224 E4.74322
G1 X-17.919 Y-51.163 E4.81072
G1 X-16.888 Y-52.045 E4.87823
G1 X-15.810 Y-52.870 E4.94573
G1 X-14.687 Y-53.633 E5.01323
G1 X-13.525 Y-54.333 E5.08074
G1 X-12.325 Y-54.967 E5.14824
G1 X-11.092 Y-55.534 E5.21575
G1 X-9.829 Y-56.032 E5.28325
G1 X-8.596 Y-56.443 E5.34792
G1 X-7.342 Y-56.787 E5.41258
G1 X-6.072 Y-57.065 E5.47725
G1 X-4.789 Y-57.275 E5.54191
G1 X-3.226 Y-57.446 E5.62011
G1 X-3.226 Y-45.842 E6.19728
G1 X-4.456 Y-45.602 E6.25961
G1 X-5.423 Y-45.334 E6.30950
G1 X-6.366 Y-44.991 E6.35940
G1 X-7.279 Y-44.577 E6.40929
G1 X-8.158 Y-44.093 E6.45919
G1 X-8.996 Y-43.543 E6.50908
G1 X-9.790 Y-42.929 E6.55897
G1 X-10.426 Y-42.359 E6.60145
G1 X-11.023 Y-41.749 E6.64390
G1 X-11.674 Y-40.990 E6.69365
G1 X-11.985 Y-40.537 F12000.000
G1 F1800.000 E5.69365
G1 Z1.250 F12000.000
G92 E0
G1 X9.936 Y-38.121 F12000.000
G1 Z0.250 F12000.000
G1 E1.00000 F1800.000
G1 X20.780 Y-44.382 E1.62283 F1440.000
G1 X21.315 Y-43.221 E1.68642
G1 X21.833 Y-41.978 E1.75338
G1 X22.295 Y-40.674 E1.82220
G1 X22.683 Y-39.346 E1.89102
G1 X22.997 Y-37.998 E1.95983
G1 X23.236 Y-36.635 E2.02865
G1 X23.400 Y-35.261 E2.09747
G1 X23.487 Y-33.880 E2.16629
G1 X23.497 Y-32.497 E2.23511
G1 X23.431 Y-31.115 E2.30393
G1 X23.299 Y-29.817 E2.36882
G1 X23.099 Y-28.528 E2.43368
G1 X22.832 Y-27.252 E2.49854
G1 X22.499 Y-25.991 E2.56340
G1 X22.101 Y-24.749 E2.62827
G1 X21.638 Y-23.530 E2.69313
G1 X20.793 Y-21.611 E2.79742
G1 X9.936 Y-27.880 E3.42097
G1 X10.422 Y-29.263 E3.49391
G1 X10.646 Y-30.069 E3.53553
G1 X10.815 Y-30.889 E3.57715
G1 X10.929 Y-31.718 E3.61877
G1 X10.987 Y-32.553 E3.66039
G1 X10.989 Y-33.389 E3.70201
G1 X10.935 Y-34.224 E3.74362
G1 X10.822 Y-35.068 E3.78597
G1 X10.652 Y-35.902 E3.82832
G1 X10.426 Y-36.723 E3.87063
G1 X9.960 Y-38.053 E3.94075
G1 X10.519 Y-37.905 F12000.000
G1 X20.565 Y-43.705 E4.51775 F1008.000
G1 X20.877 Y-43.028 E4.55480
G1 X21.388 Y-41.802 E4.62089
G1 X21.840 Y-40.522 E4.68839
G1 X22.221 Y-39.220 E4.75589
G1 X22.529 Y-37.898 E4.82340
G1 X22.764 Y-36.561 E4.89090
G1 X22.924 Y-35.213 E4.95841
G1 X23.009 Y-33.859 E5.02591
G1 X23.019 Y-32.502 E5.09341
G1 X22.954 Y-31.146 E5.16091
G1 X22.824 Y-29.874 E5.22451
G1 X22.628 Y-28.611 E5.28809
G1 X22.366 Y-27.360 E5.35168
G1 X22.039 Y-26.124 E5.41526
G1 X21.648 Y-24.907 E5.47885
G1 X21.195 Y-23.711 E5.54243
G1 X20.570 Y-22.292 E5.61955
G1 X10.519 Y-28.095 E6.19681
G1 X10.879 Y-29.120 E6.25080
G1 X11.111 Y-29.957 E6.29402
G1 X11.287 Y-30.808 E6.33724
G1 X11.405 Y-31.669 E6.38046
G1 X11.465 Y-32.535 E6.42368
G1 X11.468 Y-33.404 E6.46690
G1 X11.411 Y-34.271 E6.51011
G1 X11.294 Y-35.148 E6.55408
G1 X11.118 Y-36.014 E6.59805
G1 X10.883 Y-36.865 E6.64199
G1 X10.543 Y-37.837 E6.69319
G1 X10.306 Y-38.333 F12000.000
G1 X8.866 Y-37.913 F12000.000
G1 X9.219 Y-37.088 E6.73783 F1008.000
G1 X9.499 Y-36.261 E6.78125
G1 X9.721 Y-35.392 E6.82590
G1 X9.874 Y-34.507 E6.87054
G1 X9.963 Y-33.563 E6.91773
G1 X9.833 Y-33.355 E6.92994
G1 X9.768 Y-33.199 E6.93833
G1 X9.742 Y-33.044 E6.94612
G1 X9.751 Y-32.885 E6.95404
G1 X9.794 Y-32.733 E6.96194
G1 X9.964 Y-32.440 E6.97877
G1 X9.867 Y-31.440 E7.02874
G1 X9.699 Y-30.506 E7.07591
G1 X9.454 Y-29.590 E7.12308
G1 X9.144 Y-28.721 E7.16899
G1 X8.742 Y-27.834 E7.21742
G1 X8.280 Y-27.006 E7.26459
G1 X7.750 Y-26.219 E7.31176
G1 X7.157 Y-25.479 E7.35893
G1 X6.505 Y-24.790 E7.40610
G1 X5.799 Y-24.158 E7.45327
G1 X5.063 Y-23.601 E7.49918
G1 X4.241 Y-23.079 E7.54761
G1 X3.400 Y-22.640 E7.59478
G1 X2.526 Y-22.272 E7.64195
G1 X1.624 Y-21.978 E7.68912
G1 X0.726 Y-21.764 E7.73503
G1 X-0.236 Y-21.617 E7.78346
G1 X-1.182 Y-21.554 E7.83063
G1 X-2.131 Y-21.569 E7.87780
G1 X-3.074 Y-21.662 E7.92497
G1 X-4.007 Y-21.833 E7.97214
G1 X-4.923 Y-22.081 E8.01931
G1 X-5.791 Y-22.394 E8.06522
G1 X-6.708 Y-22.812 E8.11535
G1 X-6.824 Y-23.029 E8.12758
G1 X-6.926 Y-23.163 E8.13595
G1 X-7.097 Y-23.293 E8.14666
G1 X-7.243 Y-23.355 E8.15456
G1 X-7.403 Y-23.383 E8.16264
G1 X-7.686 Y-23.376 E8.17670
G1 X-8.492 Y-23.951 E8.22596
G1 X-9.217 Y-24.563 E8.27314
G1 X-9.889 Y-25.233 E8.32031
G1 X-10.503 Y-25.955 E8.36748
G1 X-11.040 Y-26.706 E8.41339
G1 X-11.541 Y-27.541 E8.46181
G1 X-11.958 Y-28.392 E8.50899
G1 X-12.304 Y-29.276 E8.55616
G1 X-12.575 Y-30.184 E8.60333
G1 X-12.770 Y-31.113 E8.65050
G1 X-12.887 Y-32.054 E8.69767
G1 X-12.925 Y-32.976 E8.74358
G1 X-12.887 Y-33.949 E8.79201
G1 X-12.769 Y-34.890 E8.83918
G1 X-12.574 Y-35.818 E8.88635
G1 X-12.303 Y-36.727 E8.93352
G1 X-11.957 Y-37.610 E8.98069
G1 X-11.540 Y-38.461 E9.02786
G1 X-11.066 Y-39.254 E9.07377
G1 X-10.501 Y-40.047 E9.12220
G1 X-9.887 Y-40.769 E9.16937
G1 X-9.215 Y-41.439 E9.21654
G1 X-8.491 Y-42.050 E9.26370
G1 X-7.683 Y-42.625 E9.31300
G1 X-7.438 Y-42.617 E9.32523
G1 X-7.270 Y-42.638 E9.33363
G1 X-7.071 Y-42.722 E9.34436
G1 X-6.945 Y-42.818 E9.35228
G1 X-6.841 Y-42.942 E9.36030
G1 X-6.711 Y-43.187 E9.37410
G1 X-5.832 Y-43.589 E9.42217
G1 X-4.938 Y-43.914 E9.46949
G1 X-4.069 Y-44.153 E9.51432
G1 X-3.159 Y-44.326 E9.56040
G1 X-2.237 Y-44.425 E9.60648
G1 X-1.311 Y-44.449 E9.65257
G1 X-0.361 Y-44.395 E9.69989
G1 X0.532 Y-44.273 E9.74473
G1 X1.437 Y-44.074 E9.79081
G1 X2.322 Y-43.802 E9.83689
G1 X3.183 Y-43.459 E9.88297
G1 X4.013 Y-43.048 E9.92905
G1 X4.783 Y-42.588 E9.97367
G1 X5.495 Y-42.082 E10.01710
G1 X6.204 Y-41.492 E10.06297
G1 X6.846 Y-40.865 E10.10761
G1 X7.436 Y-40.189 E10.15226
G1 X7.972 Y-39.468 E10.19691
G1 X8.449 Y-38.708 E10.24155
G1 X8.833 Y-37.977 E10.28263
G1 X9.342 Y-37.869 F12000.000
G1 F1800.000 E9.28263
G1 Z1.250 F12000.000
G92 E0
G1 X-2.748 Y-20.556 F12000.000
G1 Z0.250 F12000.000
G1 E1.00000 F1800.000
G1 X-2.748 Y-8.020 E1.62351 F1440.000
G1 X-4.832 Y-8.248 E1.72779
G1 X-6.118 Y-8.456 E1.79261
G1 X-7.392 Y-8.732 E1.85743
G1 X-8.650 Y-9.073 E1.92225
G1 X-9.888 Y-9.480 E1.98707
G1 X-11.103 Y-9.951 E2.05189
G1 X-12.292 Y-10.484 E2.11671
G1 X-13.452 Y-11.079 E2.18153
G1 X-14.531 Y-11.704 E2.24357
G1 X-15.578 Y-12.382 E2.30560
G1 X-16.589 Y-13.112 E2.36762
G1 X-17.560 Y-13.889 E2.42949
G1 X-18.496 Y-14.717 E2.49162
G1 X-19.387 Y-15.590 E2.55369
G1 X-20.318 Y-16.601 E2.62204
G1 X-21.192 Y-17.663 E2.69043
G1 X-22.475 Y-19.408 E2.79819
G1 X-11.619 Y-25.676 E3.42164
G1 X-10.571 Y-24.467 E3.50121
G1 X-10.012 Y-23.908 E3.54053
G1 X-9.418 Y-23.385 E3.57989
G1 X-8.792 Y-22.901 E3.61926
G1 X-8.137 Y-22.457 E3.65862
G1 X-7.456 Y-22.056 E3.69793
G1 X-6.680 Y-21.666 E3.74113
G1 X-5.879 Y-21.332 E3.78428
G1 X-5.057 Y-21.054 E3.82743
G1 X-4.218 Y-20.834 E3.87058
G1 X-2.818 Y-20.569 E3.94145
G1 X-3.226 Y-20.160 F12000.000
G1 X-3.226 Y-8.554 E4.51870 F1008.000
G1 X-4.767 Y-8.722 E4.59582
G1 X-6.029 Y-8.927 E4.65939
G1 X-7.279 Y-9.197 E4.72297
G1 X-8.512 Y-9.532 E4.78655
G1 X-9.727 Y-9.931 E4.85013
G1 X-10.918 Y-10.393 E4.91371
G1 X-12.085 Y-10.916 E4.97728
G1 X-13.222 Y-11.499 E5.04086
G1 X-14.280 Y-12.112 E5.10168
G1 X-15.306 Y-12.777 E5.16250
G1 X-16.298 Y-13.492 E5.22331
G1 X-17.252 Y-14.255 E5.28407
G1 X-18.168 Y-15.066 E5.34492
G1 X-19.042 Y-15.921 E5.40575
G1 X-19.955 Y-16.914 E5.47283
G1 X-20.813 Y-17.955 E5.53993
G1 X-21.772 Y-19.261 E5.62054
G1 X-11.722 Y-25.064 E6.19776
G1 X-10.921 Y-24.141 E6.25854
G1 X-10.340 Y-23.559 E6.29945
G1 X-9.723 Y-23.016 E6.34032
G1 X-9.073 Y-22.513 E6.38120
G1 X-8.393 Y-22.052 E6.42208
G1 X-7.685 Y-21.636 E6.46294
G1 X-6.880 Y-21.231 E6.50775
G1 X-6.048 Y-20.884 E6.55256
G1 X-5.195 Y-20.596 E6.59736
G1 X-4.323 Y-20.367 E6.64217
G1 X-3.297 Y-20.173 E6.69415
G1 X-2.749 Y-20.130 F12000.000
G1 F1800.000 E5.69415
G1 Z1.250 F12000.000
G92 E0
G1 X-4.896 Y-7.773 F12000.000
G1 Z0.250 F12000.000
G1 E1.00000 F1800.000
G1 X-2.683 Y-7.532 E1.11072 F1440.000
G1 X-2.683 Y-4.727 E1.25022
G1 X-4.301 Y-4.849 E1.33089
G1 X-5.704 Y-5.025 E1.40125
G1 X-7.097 Y-5.271 E1.47160
G1 X-8.476 Y-5.587 E1.54195
G1 X-9.837 Y-5.971 E1.61231
G1 X-11.178 Y-6.423 E1.68266
G1 X-12.494 Y-6.941 E1.75302
G1 X-13.782 Y-7.524 E1.82337
G1 X-15.040 Y-8.171 E1.89373
G1 X-16.258 Y-8.876 E1.96372
G1 X-17.439 Y-9.641 E2.03372
G1 X-18.581 Y-10.464 E2.10371
G1 X-19.681 Y-11.342 E2.17371
G1 X-20.735 Y-12.274 E2.24370
G1 X-21.742 Y-13.257 E2.31370
G1 X-22.698 Y-14.290 E2.38369
G1 X-23.603 Y-15.368 E2.45369
G1 X-24.452 Y-16.490 E2.52369
G1 X-25.357 Y-17.818 E2.60364
G1 X-22.930 Y-19.220 E2.74306
G1 X-21.570 Y-17.370 E2.85724
G1 X-20.680 Y-16.288 E2.92692
G1 X-19.733 Y-15.258 E2.99655
G1 X-18.823 Y-14.368 E3.05986
G1 X-17.868 Y-13.523 E3.12327
G1 X-16.880 Y-12.731 E3.18626
G1 X-15.849 Y-11.988 E3.24949
G1 X-14.782 Y-11.296 E3.31272
G1 X-13.681 Y-10.659 E3.37599
G1 X-12.499 Y-10.053 E3.44204
G1 X-11.287 Y-9.509 E3.50810
G1 X-10.049 Y-9.029 E3.57416
G1 X-8.787 Y-8.615 E3.64023
G1 X-7.505 Y-8.267 E3.70629
G1 X-6.207 Y-7.986 E3.77235
G1 X-4.967 Y-7.785 E3.83484
G1 X-5.776 Y-4.552 F12000.000
G1 X-7.192 Y-4.802 E3.90639 F1440.000
G1 X-8.594 Y-5.123 E3.97793
G1 X-9.979 Y-5.514 E4.04948
G1 X-11.342 Y-5.973 E4.12102
G1 X-12.680 Y-6.500 E4.19256
G1 X-13.991 Y-7.093 E4.26411
G1 X-15.270 Y-7.751 E4.33565
G1 X-16.508 Y-8.468 E4.40683
G1 X-17.709 Y-9.246 E4.47801
G1 X-18.871 Y-10.082 E4.54919
G1 X-19.989 Y-10.976 E4.62037
