; generated by Slic3r 1.0.0RC2 on 2014-02-10 at 20:01:32

; layer_height = 0.25
; perimeters = 3
; top_solid_layers = 3
; bottom_solid_layers = 3
; fill_density = 0.4
; perimeter_speed = 50
; infill_speed = 80
; travel_speed = 120
; nozzle_diameter = 0.4
; filament_diameter = 1.75
; extrusion_multiplier = 1
; perimeters extrusion width = 0.40mm
; infill extrusion width = 0.53mm
; solid infill extrusion width = 0.53mm
; top infill extrusion width = 0.53mm
; first layer extrusion width = 0.80mm

G21 ; set units to millimeters
M107
M190 S65 ; wait for bed temperature to be reached
M104 S200 ; set temperature
G28 ; home all axes
G1 Z5 F5000 ; lift nozzle

M109 S200 ; wait for temperature to be reached
G90 ; use absolute coordinates
G92 E0
M82 ; use absolute distances for extrusion
G1 F1800.000 E-1.00000
G92 E0
G1 Z0.400 F7200.000
G1 X-1.585 Y-12.283 F7200.000
G1 E1.00000 F1800.000
G1 X-1.005 Y-12.523 E1.07455 F900.000
G1 X-0.045 Y-12.843 E1.19473
G1 X0.235 Y-12.913 E1.22901
G1 X1.355 Y-13.093 E1.36373
G1 X2.075 Y-13.123 E1.44932
G1 X2.945 Y-13.073 E1.55281
G1 X3.405 Y-13.013 E1.60791
G1 X4.305 Y-12.833 E1.71691
G1 X5.315 Y-12.463 E1.84466
G1 X6.205 Y-12.003 E1.96365
G1 X10.615 Y-9.273 E2.57964
G1 X11.255 Y-8.823 E2.67255
G1 X11.835 Y-8.313 E2.76428
G1 X12.415 Y-7.683 E2.86598
G1 X14.325 Y-5.343 E3.22472
G1 X14.615 Y-4.963 E3.28149
G1 X15.525 Y-3.323 E3.50424
G1 X15.935 Y-1.493 E3.72697
G1 X15.965 Y-0.713 E3.81967
G1 X15.885 Y0.297 E3.94000
G1 X15.735 Y1.157 E4.04368
G1 X15.515 Y1.997 E4.14681
G1 X15.105 Y3.017 E4.27737
G1 X14.535 Y3.947 E4.40692
G1 X12.845 Y6.427 E4.76334
G1 X12.095 Y7.457 E4.91466
G1 X11.585 Y8.097 E5.01186
G1 X10.885 Y8.807 E5.13027
G1 X8.065 Y11.237 E5.57238
G1 X7.175 Y11.877 E5.70257
G1 X6.895 Y12.047 E5.74147
G1 X6.055 Y12.477 E5.85355
G1 X5.845 Y12.567 E5.88068
G1 X4.725 Y12.937 E6.02077
G1 X3.875 Y13.107 E6.12372
G1 X3.015 Y13.157 E6.22603
G1 X2.405 Y13.147 E6.29849
G1 X1.515 Y13.057 E6.40473
G1 X0.935 Y12.937 E6.47507
G1 X-7.025 Y10.917 E7.45041
G1 X-8.685 Y10.397 E7.65700
G1 X-9.705 Y9.977 E7.78801
G1 X-10.325 Y9.657 E7.87087
G1 X-10.885 Y9.327 E7.94807
G1 X-11.405 Y8.957 E8.02387
G1 X-12.045 Y8.417 E8.12332
G1 X-12.615 Y7.817 E8.22161
G1 X-13.255 Y6.957 E8.34892
G1 X-13.865 Y5.957 E8.48804
G1 X-14.125 Y5.357 E8.56570
G1 X-14.485 Y4.377 E8.68970
G1 X-14.625 Y3.787 E8.76172
G1 X-14.735 Y3.187 E8.83416
G1 X-15.185 Y0.157 E9.19797
G1 X-15.255 Y-0.923 E9.32650
G1 X-15.175 Y-1.983 E9.45275
G1 X-14.925 Y-3.023 E9.57979
G1 X-14.645 Y-3.873 E9.68607
G1 X-14.425 Y-4.443 E9.75864
G1 X-14.095 Y-5.103 E9.84627
G1 X-13.655 Y-5.803 E9.94447
G1 X-12.995 Y-6.593 E10.06673
G1 X-12.245 Y-7.303 E10.18938
G1 X-11.605 Y-7.833 E10.28807
G1 X-10.895 Y-8.273 E10.38728
G1 X-10.525 Y-8.473 E10.43723
G1 X-9.955 Y-8.743 E10.51214
G1 X-1.683 Y-12.241 E11.57873
G1 F1800.000 E10.57873
G92 E0
G1 X2.244 Y-4.349 F7200.000
G1 E1.00000 F1800.000
G1 X2.514 Y-4.135 E1.04095 F540.000
G1 X2.858 Y-3.815 E1.09669
G1 X3.185 Y-3.567 E1.14543
G1 X4.199 Y-3.010 E1.28288
G1 X4.640 Y-2.817 E1.34004
G1 X5.356 Y-2.465 E1.43476
G1 X5.925 Y-2.124 E1.51358
G1 X6.193 Y-1.625 E1.58081
G1 X6.506 Y-1.124 E1.65101
G1 X7.050 Y-0.437 E1.75503
G1 X6.735 Y-0.149 E1.80574
G1 X6.507 Y0.112 E1.84691
G1 X6.347 Y0.371 E1.88312
G1 X6.222 Y0.625 E1.91669
G1 X5.844 Y1.538 E2.03398
G1 X5.473 Y2.006 E2.10490
G1 X5.153 Y2.482 E2.17300
G1 X4.727 Y2.826 E2.23803
G1 X4.169 Y3.219 E2.31912
G1 X3.909 Y3.427 E2.35867
G1 X2.676 Y4.547 E2.55650
G1 X2.252 Y3.920 E2.64638
G1 X1.479 Y3.552 E2.74799
G1 X0.969 Y3.454 E2.80965
G1 X0.696 Y3.439 E2.84216
G1 X0.094 Y3.462 E2.91367
G1 X-0.257 Y3.453 E2.95547
G1 X-1.130 Y3.363 E3.05964
G1 X-1.716 Y3.278 E3.12995
G1 X-3.042 Y3.029 E3.29020
G1 X-3.897 Y2.901 E3.39290
G1 X-4.291 Y2.824 E3.44059
G1 X-5.826 Y2.354 E3.63124
G1 X-6.266 Y2.119 E3.69051
G1 X-6.300 Y1.576 E3.75512
G1 X-6.254 Y1.380 E3.77898
G1 X-6.237 Y0.892 E3.83697
G1 X-6.105 Y0.643 E3.87045
G1 X-6.140 Y0.230 E3.91969
G1 X-6.069 Y-0.617 E4.02065
G1 X-6.470 Y-0.953 E4.08277
G1 X-5.813 Y-1.151 E4.16424
G1 X-5.358 Y-1.312 E4.22158
G1 X-4.292 Y-1.618 E4.35324
G1 X-3.526 Y-1.876 E4.44924
G1 X-3.346 Y-1.953 E4.47252
G1 X-2.932 Y-2.189 E4.52907
G1 X-2.656 Y-2.403 E4.57057
G1 X-2.054 Y-2.777 E4.65481
G1 X-1.079 Y-3.180 E4.78008
G1 X-0.825 Y-3.249 E4.81130
G1 X-0.518 Y-3.303 E4.84839
G1 X0.341 Y-3.413 E4.95121
G1 X0.661 Y-3.433 E4.98925
G1 X1.175 Y-3.556 E5.05202
G1 X1.526 Y-3.695 E5.09682
G1 X2.165 Y-4.277 E5.19947
G1 X1.478 Y-4.618 F7200.000
G1 X1.697 Y-4.933 E5.24502 F540.000
G1 X1.739 Y-5.147 E5.27090
G1 X2.103 Y-5.341 E5.31985
G1 X2.959 Y-4.693 E5.44743
G1 X3.315 Y-4.364 E5.50503
G1 X3.569 Y-4.170 E5.54294
G1 X4.517 Y-3.650 E5.67130
G1 X4.932 Y-3.470 E5.72506
G1 X5.688 Y-3.098 E5.82509
G1 X6.400 Y-2.675 E5.92349
G1 X6.585 Y-2.403 E5.96261
G1 X6.814 Y-1.978 E6.02001
G1 X7.087 Y-1.540 E6.08119
G1 X7.577 Y-0.921 E6.17501
G1 X7.999 Y-0.451 E6.25001
G1 X7.672 Y0.028 E6.31895
G1 X7.341 Y0.264 E6.36720
G1 X7.083 Y0.537 E6.41189
G1 X6.881 Y0.902 E6.46142
G1 X6.526 Y1.770 E6.57279
G1 X6.439 Y1.935 E6.59497
G1 X6.055 Y2.421 E6.66849
G1 X5.788 Y2.835 E6.72698
G1 X5.568 Y3.071 E6.76523
G1 X4.363 Y3.979 E6.94448
G1 X3.455 Y4.802 E7.09005
G1 X3.059 Y5.238 E7.15999
G1 X2.802 Y5.378 E7.19473
G1 X2.621 Y5.243 E7.22159
G1 X2.313 Y5.096 E7.26208
G1 X2.147 Y5.058 E7.28233
G1 X1.766 Y4.477 E7.36478
G1 X1.254 Y4.233 E7.43215
G1 X0.892 Y4.165 E7.47589
G1 X-0.308 Y4.166 E7.61848
G1 X-1.214 Y4.072 E7.72659
G1 X-1.759 Y3.996 E7.79192
G1 X-3.179 Y3.731 E7.96348
G1 X-4.245 Y3.563 E8.09170
G1 X-4.473 Y3.515 E8.11931
G1 X-4.996 Y3.363 E8.18404
G1 X-6.050 Y3.033 E8.31517
G1 X-6.220 Y2.969 E8.33682
G1 X-6.669 Y2.732 E8.39707
G1 X-6.891 Y2.398 E8.44476
G1 X-6.950 Y2.240 E8.46476
G1 X-6.980 Y2.085 E8.48354
G1 X-7.013 Y1.622 E8.53858
G1 X-7.001 Y1.436 E8.56079
G1 X-6.964 Y1.279 E8.57995
G1 X-6.963 Y0.739 E8.64401
G1 X-6.835 Y0.495 E8.67676
G1 X-6.857 Y0.230 E8.70840
G1 X-6.812 Y-0.308 E8.77250
G1 X-7.354 Y-0.763 E8.85653
G1 X-7.257 Y-1.062 E8.89391
G1 X-7.211 Y-1.295 E8.92211
G1 X-7.042 Y-1.452 E8.94951
G1 X-6.838 Y-1.555 E8.97657
G1 X-5.575 Y-1.992 E9.13542
G1 X-4.915 Y-2.173 E9.21669
G1 X-3.788 Y-2.542 E9.35749
G1 X-3.349 Y-2.772 E9.41638
G1 X-2.840 Y-3.139 E9.49086
G1 X-2.403 Y-3.401 E9.55141
G1 X-2.112 Y-3.538 E9.58964
G1 X-1.318 Y-3.853 E9.69107
G1 X-0.982 Y-3.946 E9.73242
G1 X-0.609 Y-4.012 E9.77739
G1 X0.728 Y-4.175 E9.93746
G1 X0.912 Y-4.225 E9.96008
G1 X1.154 Y-4.322 E9.99101
G1 X1.399 Y-4.546 E10.03041
G1 X0.938 Y-5.091 F7200.000
G1 X1.026 Y-5.218 E10.04873 F630.000
G1 X1.087 Y-5.447 E10.07694
G1 X1.254 Y-5.635 E10.10673
G1 X1.322 Y-5.788 E10.12662
G1 X1.501 Y-5.840 E10.14873
G1 X1.711 Y-5.939 E10.17627
G1 X1.944 Y-6.002 E10.20502
G1 X2.201 Y-5.999 E10.23558
G1 X2.423 Y-5.963 E10.26222
G1 X2.487 Y-5.932 E10.27076
G1 X3.185 Y-5.426 E10.37312
G1 X3.953 Y-4.773 E10.49284
G1 X4.834 Y-4.290 E10.61212
G1 X5.223 Y-4.122 E10.66247
G1 X6.019 Y-3.731 E10.76781
G1 X6.830 Y-3.249 E10.87984
G1 X6.967 Y-3.111 E10.90292
G1 X7.103 Y-2.926 E10.93017
G1 X7.436 Y-2.330 E11.01127
G1 X7.668 Y-1.957 E11.06344
G1 X8.124 Y-1.381 E11.15078
G1 X8.446 Y-1.037 E11.20664
G1 X8.860 Y-0.759 E11.26586
G1 X8.745 Y-0.171 E11.33708
G1 X8.424 Y0.192 E11.39464
G1 X8.215 Y0.492 E11.43800
G1 X8.085 Y0.610 E11.45892
G1 X7.858 Y0.762 E11.49136
G1 X7.659 Y0.963 E11.52493
G1 X7.540 Y1.180 E11.55431
G1 X7.178 Y2.065 E11.66788
G1 X7.040 Y2.322 E11.70260
G1 X6.636 Y2.836 E11.78019
G1 X6.358 Y3.265 E11.84091
G1 X6.163 Y3.493 E11.87648
G1 X5.581 Y3.971 E11.96599
G1 X4.817 Y4.531 E12.07849
G1 X3.951 Y5.317 E12.21738
G1 X3.551 Y5.756 E12.28793
G1 X3.410 Y5.855 E12.30845
G1 X3.155 Y5.992 E12.34273
G1 X2.966 Y6.055 E12.36638
G1 X2.879 Y6.057 E12.37675
G1 X2.646 Y6.040 E12.40452
G1 X2.437 Y5.985 E12.43014
G1 X2.247 Y5.855 E12.45744
G1 X2.080 Y5.775 E12.47952
G1 X1.826 Y5.728 E12.51019
G1 X1.591 Y5.627 E12.54055
G1 X1.433 Y5.266 E12.58731
G1 X1.281 Y5.034 E12.62025
G1 X1.029 Y4.915 E12.65337
G1 X0.665 Y4.868 E12.69689
G1 X0.133 Y4.891 E12.76018
G1 X-0.358 Y4.878 E12.81854
G1 X-1.298 Y4.781 E12.93074
G1 X-1.857 Y4.703 E12.99777
G1 X-3.315 Y4.433 E13.17396
G1 X-4.448 Y4.251 E13.31018
G1 X-5.205 Y4.046 E13.40338
G1 X-6.273 Y3.712 E13.53626
G1 X-6.539 Y3.610 E13.57010
G1 X-7.050 Y3.343 E13.63859
G1 X-7.151 Y3.254 E13.65455
G1 X-7.262 Y3.130 E13.67436
G1 X-7.528 Y2.723 E13.73211
G1 X-7.633 Y2.447 E13.76712
G1 X-7.689 Y2.166 E13.80118
G1 X-7.732 Y1.535 E13.87626
G1 X-7.670 Y1.102 E13.92819
G1 X-7.694 Y0.582 E13.99010
G1 X-7.564 Y0.348 E14.02188
G1 X-7.574 Y0.230 E14.03592
G1 X-7.554 Y0.001 E14.06317
G1 X-7.813 Y-0.215 E14.10321
G1 X-8.011 Y-0.318 E14.12974
G1 X-8.096 Y-0.634 E14.16855
G1 X-8.133 Y-0.902 E14.20077
G1 X-8.020 Y-1.072 E14.22499
G1 X-7.964 Y-1.197 E14.24120
G1 X-7.927 Y-1.321 E14.25658
G1 X-7.902 Y-1.604 E14.29032
G1 X-7.778 Y-1.741 E14.31232
G1 X-7.457 Y-2.033 E14.36380
G1 X-7.076 Y-2.229 E14.41472
G1 X-5.793 Y-2.673 E14.57597
G1 X-4.753 Y-2.971 E14.70448
G1 X-3.950 Y-3.250 E14.80542
G1 X-3.765 Y-3.355 E14.83069
G1 X-3.227 Y-3.740 E14.90920
G1 X-2.752 Y-4.025 E14.97502
G1 X-2.402 Y-4.191 E15.02106
G1 X-1.567 Y-4.523 E15.12780
G1 X-1.139 Y-4.642 E15.18049
G1 X-0.701 Y-4.721 E15.23336
G1 X0.565 Y-4.871 E15.38475
G1 X0.782 Y-4.950 E15.41223
G1 X0.858 Y-5.019 E15.42448
G1 X1.090 Y-5.067 F7200.000
G1 X5.427 Y-1.863 F7200.000
G1 X5.628 Y-1.661 E15.46011 F1080.000
G1 X6.094 Y-0.134 E15.65928
G1 X3.239 Y-2.989 E16.16313
G1 X1.838 Y-3.330 E16.34304
G1 X5.728 Y0.561 E17.02961
G1 X5.414 Y1.308 E17.13067
G1 X1.069 Y-3.037 E17.89727
G1 X0.142 Y-2.903 E18.01419
G1 X4.957 Y1.912 E18.86397
G1 X4.431 Y2.447 E18.95759
G1 X-0.780 Y-2.764 E19.87704
G1 X-1.545 Y-2.468 E19.97942
G1 X3.812 Y2.889 E20.92476
G1 X3.244 Y3.382 E21.01862
G1 X-2.237 Y-2.098 E21.98570
G1 X-2.871 Y-1.671 E22.08109
G1 X2.131 Y3.331 E22.96377
G1 X0.698 Y2.958 E23.14861
G1 X-3.604 Y-1.343 E23.90765
G1 X-4.407 Y-1.085 E24.01289
G1 X-0.362 Y2.959 E24.72656
G1 X-1.568 Y2.815 E24.87808
G1 X-5.230 Y-0.847 E25.52425
G1 X-5.624 Y-0.180 E25.62092
G1 X-2.871 Y2.573 E26.10672
G1 X-4.141 Y2.364 E26.26729
G1 X-5.666 Y0.839 E26.53644
G1 X-5.807 Y1.758 E26.65254
G1 X-5.676 Y1.890 E26.67578
M106 S255
M104 S195 ; set temperature
M140 S60 ; set bed temperature
G1 F1800.000 E25.67578
G92 E0
G1 Z0.650 F7200.000
G1 X-6.189 Y3.075 F7200.000
G1 E1.00000 F1800.000
G1 X-6.642 Y2.850 E1.02099 F631.062
G1 X-6.999 Y2.221 E1.05109
G1 X-7.040 Y1.950 E1.06249
G1 X-7.018 Y1.654 E1.07484
G1 X-6.981 Y1.466 E1.08278
G1 X-6.923 Y1.339 E1.08860
G1 X-6.833 Y1.040 E1.10155
G1 X-6.841 Y0.763 E1.11308
G1 X-6.860 Y0.699 E1.11585
G1 X-6.774 Y0.565 E1.12244
G1 X-6.756 Y0.436 E1.12788
G1 X-6.592 Y0.060 E1.14492
G1 X-6.892 Y-0.437 E1.16906
G1 X-7.002 Y-0.600 E1.17723
G1 X-7.050 Y-0.641 E1.17987
G1 X-7.236 Y-0.972 E1.19567
G1 X-7.256 Y-1.119 E1.20182
G1 X-7.156 Y-1.389 E1.21377
G1 X-7.029 Y-1.433 E1.21938
G1 X-6.693 Y-1.697 E1.23714
G1 X-6.572 Y-1.769 E1.24297
G1 X-5.963 Y-1.973 E1.26970
G1 X-5.481 Y-2.078 E1.29022
G1 X-5.021 Y-2.208 E1.31008
G1 X-3.811 Y-2.663 E1.36381
G1 X-3.469 Y-2.859 E1.38018
G1 X-3.043 Y-3.198 E1.40286
G1 X-2.475 Y-3.575 E1.43118
G1 X-1.472 Y-4.002 E1.47653
G1 X-1.216 Y-4.077 E1.48761
G1 X-0.506 Y-4.205 E1.51762
G1 X0.045 Y-4.273 E1.54069
G1 X0.853 Y-4.311 E1.57433
G1 X1.217 Y-4.376 E1.58966
G1 X1.684 Y-4.662 E1.61244
G1 X1.879 Y-5.018 E1.62934
G1 X2.191 Y-5.156 E1.64350
G1 X2.340 Y-5.245 E1.65073
G1 X2.632 Y-5.111 E1.66407
G1 X3.248 Y-4.533 E1.69919
G1 X3.426 Y-4.381 E1.70892
G1 X3.595 Y-4.274 E1.71725
G1 X3.774 Y-4.186 E1.72553
G1 X4.125 Y-4.082 E1.74074
G1 X4.602 Y-3.811 E1.76359
G1 X5.692 Y-3.326 E1.81317
G1 X6.602 Y-2.778 E1.85735
G1 X6.769 Y-2.614 E1.86706
G1 X7.023 Y-2.114 E1.89039
G1 X7.250 Y-1.777 E1.90726
G1 X7.842 Y-1.088 E1.94506
G1 X8.396 Y-0.544 E1.97731
G1 X8.372 Y-0.335 E1.98606
G1 X7.902 Y0.228 E2.01656
G1 X7.866 Y0.270 E2.01887
G1 X7.670 Y0.382 E2.02823
G1 X7.444 Y0.562 E2.04026
G1 X7.236 Y0.809 E2.05368
G1 X7.023 Y1.188 E2.07176
G1 X6.701 Y1.946 E2.10599
G1 X6.580 Y2.168 E2.11650
G1 X6.267 Y2.547 E2.13694
G1 X5.908 Y3.050 E2.16264
G1 X5.812 Y3.137 E2.16803
G1 X4.699 Y3.904 E2.22423
G1 X4.034 Y4.420 E2.25922
G1 X3.488 Y4.937 E2.29047
G1 X3.190 Y5.263 E2.30883
G1 X2.999 Y5.415 E2.31899
G1 X2.626 Y5.171 E2.33755
G1 X2.312 Y5.099 E2.35092
G1 X2.110 Y5.082 E2.35934
G1 X1.880 Y4.792 E2.37473
G1 X1.701 Y4.617 E2.38516
G1 X1.318 Y4.426 E2.40295
G1 X0.917 Y4.363 E2.41984
G1 X-0.274 Y4.380 E2.46935
G1 X-1.682 Y4.237 E2.52819
G1 X-2.477 Y4.110 E2.56164
G1 X-2.689 Y4.062 E2.57068
G1 X-3.248 Y3.859 E2.59539
G1 X-3.503 Y3.788 E2.60643
G1 X-3.896 Y3.730 E2.62291
G1 X-4.951 Y3.475 E2.66805
G1 X-6.133 Y3.096 E2.71966
G1 X-6.335 Y3.447 F7200.000
G1 X-6.602 Y3.325 E2.73190 F631.062
G1 X-6.942 Y3.127 E2.74824
G1 X-7.386 Y2.351 E2.78543
G1 X-7.441 Y1.923 E2.80335
G1 X-7.385 Y1.435 E2.82378
G1 X-7.237 Y0.994 E2.84310
G1 X-7.243 Y0.815 E2.85057
G1 X-7.289 Y0.651 E2.85765
G1 X-7.158 Y0.423 E2.86856
G1 X-7.144 Y0.325 E2.87266
G1 X-7.041 Y0.090 E2.88336
G1 X-7.303 Y-0.332 E2.90398
G1 X-7.364 Y-0.384 E2.90731
G1 X-7.500 Y-0.626 E2.91887
G1 X-7.674 Y-0.668 E2.92631
G1 X-7.629 Y-0.889 E2.93570
G1 X-7.669 Y-1.133 E2.94600
G1 X-7.610 Y-1.349 E2.95532
G1 X-7.514 Y-1.570 E2.96530
G1 X-7.423 Y-1.680 E2.97125
G1 X-7.300 Y-1.762 E2.97740
G1 X-7.225 Y-1.788 E2.98069
G1 X-6.904 Y-2.037 E2.99759
G1 X-6.746 Y-2.132 E3.00523
G1 X-6.086 Y-2.354 E3.03419
G1 X-5.586 Y-2.464 E3.05545
G1 X-5.157 Y-2.584 E3.07402
G1 X-3.985 Y-3.024 E3.12602
G1 X-3.697 Y-3.188 E3.13982
G1 X-3.277 Y-3.523 E3.16215
G1 X-2.675 Y-3.922 E3.19219
G1 X-1.635 Y-4.369 E3.23923
G1 X-1.302 Y-4.468 E3.25370
G1 X-0.558 Y-4.602 E3.28510
G1 X0.012 Y-4.671 E3.30898
G1 X0.816 Y-4.712 E3.34247
G1 X1.074 Y-4.758 E3.35337
G1 X1.383 Y-4.946 E3.36839
G1 X1.545 Y-5.255 E3.38289
G1 X1.687 Y-5.417 E3.39184
G1 X1.840 Y-5.438 E3.39825
G1 X2.007 Y-5.512 E3.40586
G1 X2.294 Y-5.709 E3.42032
G1 X2.791 Y-5.490 E3.44290
G1 X3.356 Y-4.995 E3.47412
G1 X3.521 Y-4.826 E3.48396
G1 X3.800 Y-4.618 E3.49843
G1 X4.020 Y-4.523 E3.50836
G1 X4.296 Y-4.442 E3.52034
G1 X4.782 Y-4.168 E3.54352
G1 X5.878 Y-3.680 E3.59342
G1 X6.842 Y-3.099 E3.64022
G1 X7.033 Y-2.925 E3.65095
G1 X7.102 Y-2.836 E3.65563
G1 X7.367 Y-2.318 E3.67982
G1 X7.698 Y-1.861 E3.70329
G1 X8.286 Y-1.203 E3.73997
G1 X8.620 Y-0.881 E3.75925
G1 X8.806 Y-0.730 E3.76920
G1 X8.744 Y-0.165 E3.79286
G1 X8.143 Y0.560 E3.83200
G1 X7.894 Y0.715 E3.84420
G1 X7.717 Y0.857 E3.85365
G1 X7.563 Y1.041 E3.86362
G1 X7.387 Y1.355 E3.87859
G1 X7.062 Y2.117 E3.91304
G1 X6.913 Y2.391 E3.92601
G1 X6.582 Y2.794 E3.94768
G1 X6.201 Y3.324 E3.97483
G1 X6.060 Y3.452 E3.98273
G1 X4.936 Y4.226 E4.03947
G1 X4.293 Y4.725 E4.07332
G1 X3.768 Y5.223 E4.10342
G1 X3.476 Y5.546 E4.12149
G1 X3.164 Y5.768 E4.13741
G1 X3.038 Y5.788 E4.14273
G1 X2.727 Y5.723 E4.15594
G1 X2.467 Y5.545 E4.16907
G1 X1.862 Y5.422 E4.19472
G1 X1.588 Y5.069 E4.21333
G1 X1.452 Y4.940 E4.22112
G1 X1.189 Y4.809 E4.23332
G1 X0.969 Y4.765 E4.24263
G1 X0.770 Y4.760 E4.25092
G1 X-0.300 Y4.780 E4.29541
G1 X-1.731 Y4.634 E4.35521
G1 X-2.545 Y4.504 E4.38949
G1 X-2.799 Y4.446 E4.40034
G1 X-3.580 Y4.181 E4.43462
G1 X-3.976 Y4.122 E4.45128
G1 X-5.072 Y3.856 E4.49814
G1 X-6.279 Y3.468 E4.55084
G1 X-6.480 Y3.820 F7200.000
G1 X-7.038 Y3.546 E4.57668 F600.000
G1 X-7.258 Y3.378 E4.58817
G1 X-7.758 Y2.505 E4.62999
G1 X-7.773 Y2.450 E4.63239
G1 X-7.839 Y1.988 E4.65177
G1 X-7.815 Y1.573 E4.66907
G1 X-7.746 Y1.219 E4.68405
G1 X-7.641 Y0.948 E4.69613
G1 X-7.687 Y0.551 E4.71276
G1 X-7.542 Y0.281 E4.72550
G1 X-7.491 Y0.119 E4.73256
G1 X-7.605 Y-0.063 E4.74151
G1 X-7.669 Y-0.119 E4.74507
G1 X-7.763 Y-0.277 E4.75271
G1 X-7.981 Y-0.329 E4.76203
G1 X-8.008 Y-0.464 E4.76773
G1 X-8.077 Y-0.600 E4.77408
G1 X-8.034 Y-0.903 E4.78683
G1 X-8.075 Y-1.118 E4.79589
G1 X-8.057 Y-1.231 E4.80067
G1 X-7.985 Y-1.490 E4.81182
G1 X-7.863 Y-1.764 E4.82430
G1 X-7.819 Y-1.838 E4.82790
G1 X-7.631 Y-2.030 E4.83906
G1 X-7.421 Y-2.143 E4.84897
G1 X-7.123 Y-2.372 E4.86457
G1 X-6.921 Y-2.494 E4.87439
G1 X-6.204 Y-2.736 E4.90586
G1 X-5.292 Y-2.961 E4.94490
G1 X-5.046 Y-3.067 E4.95605
G1 X-4.831 Y-3.123 E4.96530
G1 X-4.159 Y-3.385 E4.99526
