; generated by Slic3r 1.0.0RC2 on 2014-02-10 at 22:33:55

; layer_height = 0.25
; perimeters = 3
; top_solid_layers = 3
; bottom_solid_layers = 3
; fill_density = 0.4
; perimeter_speed = 60
; infill_speed = 100
; travel_speed = 200
; nozzle_diameter = 0.4
; filament_diameter = 1.75
; extrusion_multiplier = 1
; perimeters extrusion width = 0.40mm
; infill extrusion width = 0.53mm
; solid infill extrusion width = 0.53mm
; top infill extrusion width = 0.53mm
; first layer extrusion width = 0.50mm

G21 ; set units to millimeters
M107
M190 S70 ; wait for bed temperature to be reached
M104 S210 ; set temperature
G28 ; home all axes
G1 Z5 F5000 ; lift nozzle
M109 S210 ; wait for temperature to be reached
G90 ; use absolute coordinates
G92 E0
M82 ; use absolute distances for extrusion
M204 S9000
G1 F1800.000 E-3.00000
G1 Z1.250 F12000.000
G92 E0
G1 X73.010 Y41.210 F12000.000
G1 Z0.250 F12000.000
G1 E3.00000 F1800.000
G1 X-73.020 Y41.210 E10.26330 F1080.000
G1 X-74.080 Y41.150 E10.31611
G1 X-75.000 Y41.020 E10.36232
G1 X-75.580 Y40.900 E10.39178
G1 X-76.410 Y40.680 E10.43449
G1 X-76.970 Y40.490 E10.46391
G1 X-77.790 Y40.150 E10.50806
G1 X-78.320 Y39.890 E10.53742
G1 X-79.060 Y39.460 E10.57999
G1 X-79.550 Y39.140 E10.60910
G1 X-80.360 Y38.530 E10.65953
G1 X-80.800 Y38.140 E10.68878
G1 X-81.400 Y37.540 E10.73098
G1 X-81.790 Y37.100 E10.76023
G1 X-82.400 Y36.290 E10.81066
G1 X-82.720 Y35.800 E10.83977
G1 X-83.150 Y35.060 E10.88234
G1 X-83.410 Y34.530 E10.91170
G1 X-83.750 Y33.710 E10.95585
G1 X-83.940 Y33.150 E10.98527
G1 X-84.160 Y32.320 E11.02798
G1 X-84.280 Y31.740 E11.05743
G1 X-84.420 Y30.700 E11.10963
G1 X-84.460 Y29.760 E11.15643
G1 X-84.460 Y-29.770 E14.11735
G1 X-84.420 Y-30.710 E14.16415
G1 X-84.280 Y-31.750 E14.21635
G1 X-84.160 Y-32.330 E14.24581
G1 X-83.940 Y-33.160 E14.28851
G1 X-83.750 Y-33.720 E14.31793
G1 X-83.410 Y-34.540 E14.36208
G1 X-83.150 Y-35.070 E14.39144
G1 X-82.720 Y-35.810 E14.43401
G1 X-82.400 Y-36.300 E14.46312
G1 X-81.790 Y-37.110 E14.51355
G1 X-81.400 Y-37.550 E14.54280
G1 X-80.800 Y-38.150 E14.58500
G1 X-80.360 Y-38.540 E14.61425
G1 X-79.550 Y-39.150 E14.66468
G1 X-79.060 Y-39.470 E14.69379
G1 X-78.320 Y-39.900 E14.73636
G1 X-77.790 Y-40.160 E14.76572
G1 X-76.970 Y-40.500 E14.80988
G1 X-76.410 Y-40.690 E14.83929
G1 X-75.580 Y-40.910 E14.88200
G1 X-75.000 Y-41.030 E14.91146
G1 X-73.960 Y-41.170 E14.96365
G1 X-73.390 Y-41.200 E14.99204
G1 X73.010 Y-41.210 E22.27375
G1 X73.950 Y-41.170 E22.32054
G1 X74.990 Y-41.030 E22.37274
G1 X75.570 Y-40.910 E22.40220
G1 X76.400 Y-40.690 E22.44491
G1 X76.960 Y-40.500 E22.47432
G1 X77.780 Y-40.160 E22.51847
G1 X78.310 Y-39.900 E22.54783
G1 X79.050 Y-39.470 E22.59040
G1 X79.540 Y-39.150 E22.61951
G1 X80.350 Y-38.540 E22.66995
G1 X80.790 Y-38.150 E22.69919
G1 X81.390 Y-37.550 E22.74140
G1 X81.780 Y-37.110 E22.77064
G1 X82.390 Y-36.300 E22.82108
G1 X82.710 Y-35.810 E22.85018
G1 X83.140 Y-35.070 E22.89275
G1 X83.400 Y-34.540 E22.92212
G1 X83.740 Y-33.720 E22.96627
G1 X83.930 Y-33.160 E22.99568
G1 X84.150 Y-32.330 E23.03839
G1 X84.270 Y-31.750 E23.06785
G1 X84.400 Y-30.830 E23.11406
G1 X84.460 Y-29.770 E23.16687
G1 X84.460 Y29.760 E26.12780
G1 X84.440 Y30.250 E26.15219
G1 X84.400 Y30.820 E26.18061
G1 X84.270 Y31.740 E26.22683
G1 X84.150 Y32.320 E26.25629
G1 X83.930 Y33.150 E26.29899
G1 X83.740 Y33.710 E26.32841
G1 X83.400 Y34.530 E26.37256
G1 X83.140 Y35.060 E26.40192
G1 X82.710 Y35.800 E26.44449
G1 X82.390 Y36.290 E26.47360
G1 X81.780 Y37.100 E26.52403
G1 X81.390 Y37.540 E26.55328
G1 X80.790 Y38.140 E26.59548
G1 X80.350 Y38.530 E26.62473
G1 X79.540 Y39.140 E26.67516
G1 X79.050 Y39.460 E26.70427
G1 X78.310 Y39.890 E26.74684
G1 X77.780 Y40.150 E26.77620
G1 X76.960 Y40.490 E26.82036
G1 X76.400 Y40.680 E26.84977
G1 X75.570 Y40.900 E26.89248
G1 X74.990 Y41.020 E26.92194
G1 X74.070 Y41.150 E26.96815
G1 X73.082 Y41.207 E27.01739
G1 X73.010 Y40.730 F12000.000
G1 X-73.020 Y40.730 E34.28069 F1080.000
G1 X-74.040 Y40.670 E34.33151
G1 X-74.900 Y40.550 E34.37470
G1 X-75.480 Y40.430 E34.40416
G1 X-76.250 Y40.230 E34.44373
G1 X-76.810 Y40.040 E34.47314
G1 X-77.580 Y39.720 E34.51462
G1 X-78.110 Y39.460 E34.54398
G1 X-78.800 Y39.060 E34.58365
G1 X-79.290 Y38.740 E34.61276
G1 X-80.050 Y38.170 E34.66001
G1 X-80.490 Y37.780 E34.68925
G1 X-81.040 Y37.230 E34.72794
G1 X-81.430 Y36.790 E34.75719
G1 X-82.000 Y36.030 E34.80444
G1 X-82.320 Y35.540 E34.83355
G1 X-82.720 Y34.850 E34.87321
G1 X-82.980 Y34.320 E34.90258
G1 X-83.300 Y33.550 E34.94405
G1 X-83.490 Y32.990 E34.97346
G1 X-83.690 Y32.220 E35.01303
G1 X-83.810 Y31.640 E35.04249
G1 X-83.940 Y30.670 E35.09117
G1 X-83.980 Y29.760 E35.13648
G1 X-83.980 Y-29.770 E38.09741
G1 X-83.940 Y-30.680 E38.14271
G1 X-83.810 Y-31.650 E38.19139
G1 X-83.690 Y-32.230 E38.22085
G1 X-83.490 Y-33.000 E38.26042
G1 X-83.300 Y-33.560 E38.28983
G1 X-82.980 Y-34.330 E38.33131
G1 X-82.720 Y-34.860 E38.36067
G1 X-82.320 Y-35.550 E38.40034
G1 X-82.000 Y-36.040 E38.42945
G1 X-81.430 Y-36.800 E38.47670
G1 X-81.040 Y-37.240 E38.50594
G1 X-80.490 Y-37.790 E38.54463
G1 X-80.050 Y-38.180 E38.57387
G1 X-79.290 Y-38.750 E38.62112
G1 X-78.800 Y-39.070 E38.65023
G1 X-78.110 Y-39.470 E38.68990
G1 X-77.580 Y-39.730 E38.71927
G1 X-76.810 Y-40.050 E38.76074
G1 X-76.250 Y-40.240 E38.79015
G1 X-75.480 Y-40.440 E38.82972
G1 X-74.900 Y-40.560 E38.85918
G1 X-73.930 Y-40.690 E38.90786
G1 X-73.360 Y-40.720 E38.93625
G1 X73.010 Y-40.730 E46.21646
G1 X73.920 Y-40.690 E46.26177
G1 X74.890 Y-40.560 E46.31045
G1 X75.470 Y-40.440 E46.33991
G1 X76.240 Y-40.240 E46.37948
G1 X76.800 Y-40.050 E46.40889
G1 X77.570 Y-39.730 E46.45036
G1 X78.100 Y-39.470 E46.47973
G1 X78.790 Y-39.070 E46.51939
G1 X79.280 Y-38.750 E46.54850
G1 X80.040 Y-38.180 E46.59575
G1 X80.480 Y-37.790 E46.62500
G1 X81.030 Y-37.240 E46.66369
G1 X81.420 Y-36.800 E46.69293
G1 X81.990 Y-36.040 E46.74018
G1 X82.310 Y-35.550 E46.76929
G1 X82.710 Y-34.860 E46.80896
G1 X82.970 Y-34.330 E46.83832
G1 X83.290 Y-33.560 E46.87980
G1 X83.480 Y-33.000 E46.90921
G1 X83.680 Y-32.230 E46.94878
G1 X83.800 Y-31.650 E46.97824
G1 X83.920 Y-30.790 E47.02143
G1 X83.980 Y-29.770 E47.07225
G1 X83.980 Y29.760 E50.03318
G1 X83.960 Y30.210 E50.05558
G1 X83.920 Y30.780 E50.08400
G1 X83.800 Y31.640 E50.12719
G1 X83.680 Y32.220 E50.15665
G1 X83.480 Y32.990 E50.19622
G1 X83.290 Y33.550 E50.22563
G1 X82.970 Y34.320 E50.26711
G1 X82.710 Y34.850 E50.29647
G1 X82.310 Y35.540 E50.33614
G1 X81.990 Y36.030 E50.36525
G1 X81.420 Y36.790 E50.41250
G1 X81.030 Y37.230 E50.44175
G1 X80.480 Y37.780 E50.48043
G1 X80.040 Y38.170 E50.50968
G1 X79.280 Y38.740 E50.55693
G1 X78.790 Y39.060 E50.58604
G1 X78.100 Y39.460 E50.62571
G1 X77.570 Y39.720 E50.65507
G1 X76.800 Y40.040 E50.69654
G1 X76.240 Y40.230 E50.72596
G1 X75.470 Y40.430 E50.76553
G1 X74.890 Y40.550 E50.79498
G1 X74.030 Y40.670 E50.83817
G1 X73.082 Y40.727 E50.88543
G1 F1800.000 E47.88543
G1 Z1.250 F12000.000
G92 E0
G1 X-68.961 Y-26.784 F12000.000
G1 Z0.250 F12000.000
G1 E3.00000 F1800.000
G1 X-69.183 Y-26.335 E3.02492 F540.000
G1 X-69.461 Y-25.918 E3.04984
G1 X-69.792 Y-25.542 E3.07476
G1 X-70.168 Y-25.211 E3.09967
G1 X-70.585 Y-24.933 E3.12459
G1 X-71.034 Y-24.711 E3.14951
G1 X-71.509 Y-24.550 E3.17443
G1 X-72.000 Y-24.453 E3.19935
G1 X-72.500 Y-24.420 E3.22427
G1 X-73.000 Y-24.453 E3.24919
G1 X-73.491 Y-24.550 E3.27411
G1 X-73.966 Y-24.711 E3.29903
G1 X-74.415 Y-24.933 E3.32395
G1 X-74.832 Y-25.211 E3.34887
G1 X-75.208 Y-25.542 E3.37378
G1 X-75.539 Y-25.918 E3.39870
G1 X-75.817 Y-26.335 E3.42362
G1 X-76.039 Y-26.784 E3.44854
G1 X-76.200 Y-27.259 E3.47346
G1 X-76.397 Y-28.250 E3.52373
G1 X-76.200 Y-29.241 E3.57400
G1 X-76.039 Y-29.716 E3.59892
G1 X-75.817 Y-30.165 E3.62384
G1 X-75.575 Y-30.528 E3.64554
G1 X-75.208 Y-30.958 E3.67366
G1 X-74.778 Y-31.325 E3.70176
G1 X-74.415 Y-31.567 E3.72347
G1 X-73.966 Y-31.789 E3.74839
G1 X-73.491 Y-31.950 E3.77331
G1 X-73.000 Y-32.047 E3.79822
G1 X-72.500 Y-32.080 E3.82314
G1 X-72.000 Y-32.047 E3.84806
G1 X-71.572 Y-31.962 E3.86977
G1 X-71.034 Y-31.789 E3.89788
G1 X-70.585 Y-31.567 E3.92280
G1 X-70.222 Y-31.325 E3.94450
G1 X-69.792 Y-30.958 E3.97261
G1 X-69.461 Y-30.582 E3.99753
G1 X-69.183 Y-30.165 E4.02245
G1 X-68.961 Y-29.716 E4.04737
G1 X-68.800 Y-29.241 E4.07229
G1 X-68.703 Y-28.750 E4.09721
G1 X-68.670 Y-28.250 E4.12213
G1 X-68.703 Y-27.750 E4.14704
G1 X-68.800 Y-27.259 E4.17196
G1 X-68.938 Y-26.852 E4.19331
G1 X-69.404 Y-26.968 F12000.000
G1 X-69.598 Y-26.575 E4.21511 F540.000
G1 X-69.842 Y-26.210 E4.23691
G1 X-70.131 Y-25.881 E4.25871
G1 X-70.460 Y-25.592 E4.28051
G1 X-70.825 Y-25.348 E4.30231
G1 X-71.218 Y-25.155 E4.32410
G1 X-71.633 Y-25.014 E4.34590
G1 X-72.063 Y-24.928 E4.36770
G1 X-72.500 Y-24.899 E4.38950
G1 X-72.937 Y-24.928 E4.41130
G1 X-73.367 Y-25.014 E4.43310
G1 X-73.782 Y-25.155 E4.45490
G1 X-74.175 Y-25.348 E4.47670
G1 X-74.540 Y-25.592 E4.49850
G1 X-74.869 Y-25.881 E4.52030
G1 X-75.158 Y-26.210 E4.54209
G1 X-75.402 Y-26.575 E4.56389
G1 X-75.595 Y-26.968 E4.58569
G1 X-75.736 Y-27.383 E4.60749
G1 X-75.822 Y-27.813 E4.62929
G1 X-75.851 Y-28.250 E4.65109
G1 X-75.822 Y-28.687 E4.67289
G1 X-75.736 Y-29.117 E4.69469
G1 X-75.595 Y-29.532 E4.71649
G1 X-75.402 Y-29.925 E4.73828
G1 X-75.177 Y-30.262 E4.75843
G1 X-74.869 Y-30.619 E4.78187
G1 X-74.512 Y-30.927 E4.80531
G1 X-74.175 Y-31.152 E4.82545
G1 X-73.782 Y-31.346 E4.84725
G1 X-73.367 Y-31.486 E4.86905
G1 X-72.937 Y-31.572 E4.89085
G1 X-72.500 Y-31.601 E4.91265
G1 X-72.063 Y-31.572 E4.93445
G1 X-71.665 Y-31.493 E4.95459
G1 X-71.218 Y-31.346 E4.97803
G1 X-70.825 Y-31.152 E4.99983
G1 X-70.488 Y-30.927 E5.01998
G1 X-70.131 Y-30.619 E5.04342
G1 X-69.842 Y-30.290 E5.06522
G1 X-69.598 Y-29.925 E5.08701
G1 X-69.404 Y-29.532 E5.10881
G1 X-69.264 Y-29.117 E5.13061
G1 X-69.178 Y-28.687 E5.15241
G1 X-69.149 Y-28.250 E5.17421
G1 X-69.178 Y-27.813 E5.19601
G1 X-69.264 Y-27.383 E5.21781
G1 X-69.381 Y-27.036 E5.23604
G1 X-69.145 Y-26.614 F12000.000
G1 X68.670 Y-28.250 F12000.000
G1 X68.703 Y-28.750 E5.26096 F540.000
G1 X68.800 Y-29.241 E5.28587
G1 X68.961 Y-29.716 E5.31079
G1 X69.183 Y-30.165 E5.33571
G1 X69.425 Y-30.528 E5.35742
G1 X69.792 Y-30.958 E5.38553
G1 X70.222 Y-31.325 E5.41364
G1 X70.585 Y-31.567 E5.43534
G1 X71.034 Y-31.789 E5.46026
G1 X71.572 Y-31.962 E5.48837
G1 X72.000 Y-32.047 E5.51007
G1 X72.500 Y-32.080 E5.53499
G1 X73.000 Y-32.047 E5.55991
G1 X73.491 Y-31.950 E5.58483
G1 X73.966 Y-31.789 E5.60975
G1 X74.415 Y-31.567 E5.63467
G1 X74.778 Y-31.325 E5.65637
G1 X75.208 Y-30.958 E5.68448
G1 X75.539 Y-30.582 E5.70940
G1 X75.817 Y-30.165 E5.73432
G1 X76.039 Y-29.716 E5.75924
G1 X76.200 Y-29.241 E5.78416
G1 X76.397 Y-28.250 E5.83443
G1 X76.200 Y-27.259 E5.88470
G1 X76.039 Y-26.784 E5.90962
G1 X75.817 Y-26.335 E5.93454
G1 X75.539 Y-25.918 E5.95946
G1 X75.208 Y-25.542 E5.98438
G1 X74.832 Y-25.211 E6.00930
G1 X74.415 Y-24.933 E6.03422
G1 X73.966 Y-24.711 E6.05914
G1 X73.491 Y-24.550 E6.08406
G1 X73.000 Y-24.453 E6.10897
G1 X72.500 Y-24.420 E6.13389
G1 X72.000 Y-24.453 E6.15881
G1 X71.509 Y-24.550 E6.18373
G1 X71.034 Y-24.711 E6.20865
G1 X70.585 Y-24.933 E6.23357
G1 X70.168 Y-25.211 E6.25849
G1 X69.792 Y-25.542 E6.28341
G1 X69.461 Y-25.918 E6.30833
G1 X69.183 Y-26.335 E6.33324
G1 X68.961 Y-26.784 E6.35816
G1 X68.800 Y-27.259 E6.38308
G1 X68.703 Y-27.750 E6.40800
G1 X68.675 Y-28.178 E6.42935
G1 X69.152 Y-28.217 F12000.000
G1 X69.178 Y-28.687 E6.45279 F540.000
G1 X69.264 Y-29.117 E6.47459
G1 X69.405 Y-29.532 E6.49639
G1 X69.598 Y-29.925 E6.51819
G1 X69.823 Y-30.262 E6.53833
G1 X70.131 Y-30.619 E6.56177
G1 X70.488 Y-30.927 E6.58521
G1 X70.825 Y-31.152 E6.60536
G1 X71.218 Y-31.346 E6.62716
G1 X71.665 Y-31.493 E6.65060
G1 X72.063 Y-31.572 E6.67074
G1 X72.500 Y-31.601 E6.69254
G1 X72.937 Y-31.572 E6.71434
G1 X73.275 Y-31.505 E6.73146
G1 X73.782 Y-31.346 E6.75790
G1 X74.175 Y-31.152 E6.77970
G1 X74.512 Y-30.927 E6.79985
G1 X74.869 Y-30.619 E6.82329
G1 X75.158 Y-30.290 E6.84509
G1 X75.402 Y-29.925 E6.86688
G1 X75.596 Y-29.532 E6.88868
G1 X75.736 Y-29.117 E6.91048
G1 X75.822 Y-28.687 E6.93228
G1 X75.851 Y-28.250 E6.95408
G1 X75.822 Y-27.813 E6.97588
G1 X75.736 Y-27.383 E6.99768
G1 X75.596 Y-26.968 E7.01948
G1 X75.402 Y-26.575 E7.04128
G1 X75.158 Y-26.210 E7.06308
G1 X74.869 Y-25.881 E7.08487
G1 X74.540 Y-25.592 E7.10667
G1 X74.175 Y-25.348 E7.12847
G1 X73.782 Y-25.155 E7.15027
G1 X73.367 Y-25.014 E7.17207
G1 X72.937 Y-24.928 E7.19387
G1 X72.500 Y-24.899 E7.21567
G1 X72.063 Y-24.928 E7.23747
G1 X71.633 Y-25.014 E7.25927
G1 X71.218 Y-25.155 E7.28106
G1 X70.825 Y-25.348 E7.30286
G1 X70.460 Y-25.592 E7.32466
G1 X70.131 Y-25.881 E7.34646
G1 X69.842 Y-26.210 E7.36826
G1 X69.598 Y-26.575 E7.39006
G1 X69.405 Y-26.968 E7.41186
G1 X69.264 Y-27.383 E7.43366
G1 X69.178 Y-27.813 E7.45546
G1 X69.156 Y-28.145 E7.47203
G1 X68.747 Y-28.459 F12000.000
G1 X54.135 Y-18.826 F12000.000
G1 X54.407 Y-18.171 E7.50731 F540.000
G1 X54.499 Y-17.468 E7.54260
G1 X54.407 Y-16.764 E7.57788
G1 X54.135 Y-16.109 E7.61317
G1 X53.703 Y-15.546 E7.64845
G1 X53.141 Y-15.114 E7.68373
G1 X52.485 Y-14.843 E7.71902
G1 X51.782 Y-14.750 E7.75430
G1 X51.079 Y-14.843 E7.78958
G1 X50.423 Y-15.114 E7.82487
G1 X49.860 Y-15.546 E7.86016
G1 X49.428 Y-16.109 E7.89545
G1 X49.157 Y-16.764 E7.93073
G1 X49.086 Y-17.302 E7.95771
G1 X49.064 Y-17.468 E7.96602
G1 X49.157 Y-18.171 E8.00130
G1 X49.428 Y-18.826 E8.03658
G1 X49.759 Y-19.257 E8.06356
G1 X49.860 Y-19.389 E8.07187
G1 X50.423 Y-19.821 E8.10715
G1 X51.079 Y-20.093 E8.14244
G1 X51.782 Y-20.185 E8.17772
G1 X52.485 Y-20.093 E8.21301
G1 X53.141 Y-19.821 E8.24829
G1 X53.703 Y-19.389 E8.28358
G1 X54.092 Y-18.883 E8.31530
G1 X53.717 Y-18.585 F12000.000
G1 X53.941 Y-18.046 E8.34431 F540.000
G1 X54.017 Y-17.468 E8.37333
G1 X53.941 Y-16.889 E8.40235
G1 X53.717 Y-16.350 E8.43137
G1 X53.362 Y-15.887 E8.46038
G1 X52.899 Y-15.532 E8.48940
G1 X52.360 Y-15.309 E8.51842
G1 X51.782 Y-15.233 E8.54744
G1 X51.204 Y-15.309 E8.57645
G1 X50.664 Y-15.532 E8.60547
G1 X50.202 Y-15.887 E8.63449
G1 X49.846 Y-16.350 E8.66351
G1 X49.623 Y-16.889 E8.69253
G1 X49.561 Y-17.365 E8.71637
G1 X49.547 Y-17.468 E8.72155
G1 X49.623 Y-18.046 E8.75056
G1 X49.846 Y-18.585 E8.77958
G1 X50.138 Y-18.965 E8.80342
G1 X50.202 Y-19.048 E8.80860
G1 X50.664 Y-19.403 E8.83761
G1 X51.203 Y-19.626 E8.86663
G1 X51.782 Y-19.702 E8.89565
G1 X52.360 Y-19.626 E8.92467
G1 X52.899 Y-19.403 E8.95368
G1 X53.362 Y-19.048 E8.98270
G1 X53.674 Y-18.642 E9.00815
G1 X53.299 Y-18.344 F12000.000
G1 X53.474 Y-17.921 E9.03090 F540.000
G1 X53.534 Y-17.468 E9.05365
G1 X53.474 Y-17.014 E9.07640
G1 X53.299 Y-16.592 E9.09915
G1 X53.021 Y-16.229 E9.12190
G1 X52.658 Y-15.950 E9.14465
G1 X52.235 Y-15.775 E9.16741
G1 X51.782 Y-15.715 E9.19016
G1 X51.328 Y-15.775 E9.21290
G1 X50.906 Y-15.950 E9.23566
G1 X50.543 Y-16.229 E9.25841
G1 X50.264 Y-16.592 E9.28116
G1 X50.089 Y-17.014 E9.30391
G1 X50.035 Y-17.427 E9.32462
G1 X50.089 Y-17.921 E9.34935
G1 X50.264 Y-18.344 E9.37210
G1 X50.518 Y-18.674 E9.39281
G1 X50.906 Y-18.985 E9.41754
G1 X51.328 Y-19.160 E9.44029
G1 X51.782 Y-19.220 E9.46304
G1 X52.235 Y-19.160 E9.48579
G1 X52.658 Y-18.985 E9.50854
G1 X53.021 Y-18.707 E9.53129
G1 X53.256 Y-18.401 E9.55047
G1 X53.756 Y-18.324 F12000.000
G1 X71.034 Y18.211 F12000.000
G1 X71.509 Y18.050 E9.57539 F540.000
G1 X72.000 Y17.953 E9.60031
G1 X72.500 Y17.920 E9.62523
G1 X73.000 Y17.953 E9.65014
G1 X73.491 Y18.050 E9.67506
G1 X73.966 Y18.211 E9.69998
G1 X74.415 Y18.433 E9.72490
G1 X74.832 Y18.711 E9.74982
G1 X75.208 Y19.042 E9.77474
G1 X75.539 Y19.418 E9.79966
G1 X75.817 Y19.835 E9.82458
G1 X76.039 Y20.284 E9.84950
G1 X76.200 Y20.759 E9.87442
G1 X76.397 Y21.750 E9.92469
G1 X76.200 Y22.741 E9.97496
G1 X76.039 Y23.216 E9.99988
G1 X75.817 Y23.665 E10.02480
G1 X75.539 Y24.082 E10.04972
G1 X75.208 Y24.458 E10.07464
G1 X74.832 Y24.789 E10.09955
G1 X74.415 Y25.067 E10.12447
G1 X73.966 Y25.289 E10.14939
G1 X73.491 Y25.450 E10.17431
G1 X73.000 Y25.547 E10.19923
G1 X72.500 Y25.580 E10.22415
G1 X72.000 Y25.547 E10.24907
G1 X71.509 Y25.450 E10.27399
G1 X71.034 Y25.289 E10.29891
G1 X70.585 Y25.067 E10.32383
G1 X70.168 Y24.789 E10.34875
G1 X69.792 Y24.458 E10.37366
G1 X69.461 Y24.082 E10.39858
G1 X69.183 Y23.665 E10.42350
