; generated by Slic3r 1.0.0RC2 on 2014-02-10 at 21:21:48

; layer_height = 0.35
; perimeters = 3
; top_solid_layers = 3
; bottom_solid_layers = 3
; fill_density = 0.4
; perimeter_speed = 60
; infill_speed = 100
; travel_speed = 200
; nozzle_diameter = 0.4
; filament_diameter = 1.75
; extrusion_multiplier = 1
; perimeters extrusion width = 0.40mm
; infill extrusion width = 0.42mm
; solid infill extrusion width = 0.42mm
; top infill extrusion width = 0.42mm
; first layer extrusion width = 0.80mm

G21 ; set units to millimeters
M107
M190 S60 ; wait for bed temperature to be reached
M104 S195 ; set temperature
G28 ; home all axes
G1 Z5 F5000 ; lift nozzle

M109 S195 ; wait for temperature to be reached
G90 ; use absolute coordinates
G92 E0
M82 ; use absolute distances for extrusion
G1 F1800.000 E-1.00000
G1 Z1.400 F12000.000
G92 E0
G1 X73.010 Y40.960 F12000.000
G1 Z0.400 F12000.000
G1 E1.00000 F1800.000
G1 X-73.020 Y40.960 E18.34328 F1080.000
G1 X-73.490 Y40.950 E18.39911
G1 X-74.060 Y40.910 E18.46697
G1 X-74.950 Y40.780 E18.57380
G1 X-75.530 Y40.660 E18.64414
G1 X-76.330 Y40.450 E18.74237
G1 X-76.890 Y40.260 E18.81260
G1 X-77.690 Y39.930 E18.91538
G1 X-78.220 Y39.670 E18.98549
G1 X-78.930 Y39.260 E19.08286
G1 X-79.420 Y38.940 E19.15237
G1 X-80.200 Y38.340 E19.26924
G1 X-80.640 Y37.950 E19.33907
G1 X-81.210 Y37.380 E19.43481
G1 X-81.600 Y36.940 E19.50464
G1 X-82.200 Y36.160 E19.62151
G1 X-82.520 Y35.670 E19.69102
G1 X-82.930 Y34.960 E19.78839
G1 X-83.190 Y34.430 E19.85850
G1 X-83.520 Y33.630 E19.96128
G1 X-83.710 Y33.070 E20.03151
G1 X-83.920 Y32.270 E20.12974
G1 X-84.040 Y31.690 E20.20009
G1 X-84.170 Y30.680 E20.32103
G1 X-84.210 Y29.760 E20.43040
G1 X-84.210 Y-29.770 E27.50049
G1 X-84.170 Y-30.690 E27.60985
G1 X-84.040 Y-31.700 E27.73080
G1 X-83.920 Y-32.280 E27.80114
G1 X-83.710 Y-33.080 E27.89937
G1 X-83.520 Y-33.640 E27.96960
G1 X-83.190 Y-34.440 E28.07238
G1 X-82.930 Y-34.970 E28.14249
G1 X-82.520 Y-35.680 E28.23987
G1 X-82.200 Y-36.170 E28.30937
G1 X-81.600 Y-36.950 E28.42624
G1 X-81.210 Y-37.390 E28.49607
G1 X-80.600 Y-38.010 E28.59937
G1 X-80.140 Y-38.410 E28.67177
G1 X-79.430 Y-38.940 E28.77700
G1 X-78.960 Y-39.250 E28.84386
G1 X-78.220 Y-39.680 E28.94551
G1 X-77.690 Y-39.940 E29.01562
G1 X-76.890 Y-40.270 E29.11840
G1 X-76.330 Y-40.460 E29.18863
G1 X-75.530 Y-40.670 E29.28686
G1 X-74.950 Y-40.790 E29.35721
G1 X-73.940 Y-40.920 E29.47815
G1 X-73.370 Y-40.950 E29.54594
G1 X73.010 Y-40.960 E46.93078
G1 X73.930 Y-40.920 E47.04015
G1 X74.940 Y-40.790 E47.16109
G1 X75.520 Y-40.670 E47.23144
G1 X76.320 Y-40.460 E47.32967
G1 X76.880 Y-40.270 E47.39990
G1 X77.680 Y-39.940 E47.50268
G1 X78.210 Y-39.680 E47.57279
G1 X78.920 Y-39.270 E47.67016
G1 X79.410 Y-38.950 E47.73967
G1 X80.190 Y-38.350 E47.85654
G1 X80.630 Y-37.960 E47.92637
G1 X81.200 Y-37.390 E48.02211
G1 X81.590 Y-36.950 E48.09194
G1 X82.190 Y-36.170 E48.20881
G1 X82.510 Y-35.680 E48.27832
G1 X82.920 Y-34.970 E48.37569
G1 X83.180 Y-34.440 E48.44580
G1 X83.510 Y-33.640 E48.54858
G1 X83.700 Y-33.080 E48.61881
G1 X83.910 Y-32.280 E48.71704
G1 X84.030 Y-31.700 E48.78739
G1 X84.160 Y-30.810 E48.89421
G1 X84.200 Y-30.240 E48.96207
G1 X84.210 Y-29.770 E49.01790
G1 X84.200 Y30.230 E56.14381
G1 X84.160 Y30.800 E56.21168
G1 X84.030 Y31.690 E56.31850
G1 X83.910 Y32.270 E56.38884
G1 X83.700 Y33.070 E56.48707
G1 X83.510 Y33.630 E56.55731
G1 X83.180 Y34.430 E56.66008
G1 X82.920 Y34.960 E56.73020
G1 X82.510 Y35.670 E56.82757
G1 X82.190 Y36.160 E56.89707
G1 X81.590 Y36.940 E57.01395
G1 X81.200 Y37.380 E57.08378
G1 X80.630 Y37.950 E57.17951
G1 X80.190 Y38.340 E57.24934
G1 X79.410 Y38.940 E57.36622
G1 X78.920 Y39.260 E57.43572
G1 X78.210 Y39.670 E57.53310
G1 X77.680 Y39.930 E57.60321
G1 X76.880 Y40.260 E57.70598
G1 X76.320 Y40.450 E57.77622
G1 X75.520 Y40.660 E57.87445
G1 X74.940 Y40.780 E57.94479
G1 X74.050 Y40.910 E58.05161
G1 X73.117 Y40.958 E58.16255
G1 F1800.000 E57.16255
G1 Z1.400 F12000.000
G92 E0
G1 X-69.266 Y-26.910 F12000.000
G1 Z0.400 F12000.000
G1 E1.00000 F1800.000
G1 X-69.468 Y-26.500 E1.05439 F540.000
G1 X-69.723 Y-26.119 E1.10877
G1 X-70.025 Y-25.775 E1.16316
G1 X-70.369 Y-25.473 E1.21754
G1 X-70.750 Y-25.218 E1.27193
G1 X-71.160 Y-25.016 E1.32632
G1 X-71.594 Y-24.868 E1.38071
G1 X-72.043 Y-24.779 E1.43509
G1 X-72.500 Y-24.749 E1.48948
G1 X-72.957 Y-24.779 E1.54387
G1 X-73.406 Y-24.868 E1.59825
G1 X-73.840 Y-25.016 E1.65264
G1 X-74.250 Y-25.218 E1.70703
G1 X-74.631 Y-25.473 E1.76141
G1 X-74.975 Y-25.775 E1.81580
G1 X-75.277 Y-26.119 E1.87018
G1 X-75.532 Y-26.500 E1.92457
G1 X-75.734 Y-26.910 E1.97896
G1 X-75.882 Y-27.344 E2.03334
G1 X-75.971 Y-27.793 E2.08773
G1 X-76.001 Y-28.250 E2.14212
G1 X-75.971 Y-28.707 E2.19650
G1 X-75.892 Y-29.104 E2.24456
G1 X-75.734 Y-29.590 E2.30523
G1 X-75.532 Y-30.000 E2.35962
G1 X-75.277 Y-30.381 E2.41400
G1 X-74.975 Y-30.725 E2.46839
G1 X-74.587 Y-31.057 E2.52905
G1 X-74.250 Y-31.282 E2.57711
G1 X-73.840 Y-31.484 E2.63150
G1 X-73.324 Y-31.659 E2.69614
G1 X-73.324 Y-31.697 E2.70060
G1 X-72.500 Y-31.751 E2.79870
G1 X-72.043 Y-31.721 E2.85309
G1 X-71.646 Y-31.642 E2.90115
G1 X-71.160 Y-31.484 E2.96182
G1 X-70.750 Y-31.282 E3.01621
G1 X-70.369 Y-31.027 E3.07059
G1 X-70.025 Y-30.725 E3.12498
G1 X-69.723 Y-30.381 E3.17936
G1 X-69.468 Y-30.000 E3.23375
G1 X-69.266 Y-29.590 E3.28814
G1 X-69.118 Y-29.156 E3.34253
G1 X-69.029 Y-28.707 E3.39691
G1 X-68.999 Y-28.250 E3.45130
G1 X-69.029 Y-27.793 E3.50569
G1 X-69.118 Y-27.344 E3.56007
G1 X-69.231 Y-27.012 E3.60174
G1 X-68.995 Y-26.541 F12000.000
G1 X68.999 Y-28.250 F12000.000
G1 X69.029 Y-28.707 E3.65612 F540.000
G1 X69.118 Y-29.156 E3.71051
G1 X69.266 Y-29.590 E3.76490
G1 X69.468 Y-30.000 E3.81928
G1 X69.693 Y-30.337 E3.86735
G1 X70.025 Y-30.725 E3.92801
G1 X70.413 Y-31.057 E3.98867
G1 X70.750 Y-31.282 E4.03673
G1 X71.160 Y-31.484 E4.09112
G1 X71.646 Y-31.642 E4.15178
G1 X72.043 Y-31.721 E4.19984
G1 X72.500 Y-31.751 E4.25423
G1 X72.957 Y-31.721 E4.30862
G1 X73.354 Y-31.642 E4.35668
G1 X73.840 Y-31.484 E4.41734
G1 X74.250 Y-31.282 E4.47173
G1 X74.631 Y-31.027 E4.52612
G1 X74.975 Y-30.725 E4.58050
G1 X75.277 Y-30.381 E4.63489
G1 X75.532 Y-30.000 E4.68927
G1 X75.734 Y-29.590 E4.74366
G1 X75.882 Y-29.156 E4.79805
G1 X75.971 Y-28.707 E4.85244
G1 X76.001 Y-28.250 E4.90682
G1 X75.971 Y-27.793 E4.96121
G1 X75.882 Y-27.344 E5.01560
G1 X75.734 Y-26.910 E5.06998
G1 X75.532 Y-26.500 E5.12437
G1 X75.277 Y-26.119 E5.17875
G1 X74.975 Y-25.775 E5.23314
G1 X74.631 Y-25.473 E5.28753
G1 X74.250 Y-25.218 E5.34191
G1 X73.840 Y-25.016 E5.39630
G1 X73.406 Y-24.868 E5.45069
G1 X72.957 Y-24.779 E5.50507
G1 X72.500 Y-24.749 E5.55946
G1 X72.043 Y-24.779 E5.61385
G1 X71.594 Y-24.868 E5.66824
G1 X71.160 Y-25.016 E5.72262
G1 X70.750 Y-25.218 E5.77701
G1 X70.369 Y-25.473 E5.83139
G1 X70.025 Y-25.775 E5.88578
G1 X69.723 Y-26.119 E5.94017
G1 X69.468 Y-26.500 E5.99455
G1 X69.266 Y-26.910 E6.04894
G1 X69.118 Y-27.344 E6.10333
G1 X69.029 Y-27.793 E6.15771
G1 X69.006 Y-28.143 E6.19938
G1 X68.608 Y-28.488 F12000.000
G1 X54.678 Y-19.140 F12000.000
G1 X55.012 Y-18.333 E6.30306 F540.000
G1 X55.126 Y-17.468 E6.40673
G1 X55.012 Y-16.602 E6.51041
G1 X54.678 Y-15.796 E6.61410
G1 X54.147 Y-15.103 E6.71777
G1 X53.454 Y-14.572 E6.82145
G1 X52.647 Y-14.238 E6.92513
G1 X51.782 Y-14.124 E7.02881
G1 X50.916 Y-14.237 E7.13247
G1 X50.110 Y-14.572 E7.23616
G1 X49.417 Y-15.103 E7.33985
G1 X48.886 Y-15.796 E7.44354
G1 X48.552 Y-16.602 E7.54722
G1 X48.471 Y-17.216 E7.62076
G1 X48.438 Y-17.468 E7.65090
G1 X48.552 Y-18.333 E7.75458
G1 X48.886 Y-19.140 E7.85825
G1 X49.263 Y-19.631 E7.93179
G1 X49.417 Y-19.832 E7.96193
G1 X50.110 Y-20.364 E8.06561
G1 X50.916 Y-20.698 E8.16929
G1 X51.530 Y-20.779 E8.24284
G1 X51.782 Y-20.812 E8.27296
G1 X52.647 Y-20.698 E8.37665
G1 X53.454 Y-20.364 E8.48033
G1 X54.147 Y-19.832 E8.58401
G1 X54.613 Y-19.225 E8.67498
G1 X54.054 Y-18.779 F12000.000
G1 X54.316 Y-18.147 E8.75633 F540.000
G1 X54.406 Y-17.468 E8.83766
G1 X54.316 Y-16.789 E8.91902
G1 X54.054 Y-16.156 E9.00036
G1 X53.637 Y-15.612 E9.08171
G1 X53.094 Y-15.195 E9.16305
G1 X52.461 Y-14.933 E9.24440
G1 X51.782 Y-14.844 E9.32575
G1 X51.103 Y-14.933 E9.40709
G1 X50.470 Y-15.195 E9.48844
G1 X49.927 Y-15.612 E9.56979
G1 X49.510 Y-16.156 E9.65114
G1 X49.247 Y-16.789 E9.73249
G1 X49.179 Y-17.309 E9.79487
G1 X49.158 Y-17.468 E9.81384
G1 X49.248 Y-18.147 E9.89518
G1 X49.510 Y-18.780 E9.97653
G1 X49.829 Y-19.196 E10.03890
G1 X49.927 Y-19.323 E10.05788
G1 X50.470 Y-19.740 E10.13922
G1 X51.103 Y-20.002 E10.22057
G1 X51.624 Y-20.071 E10.28295
G1 X51.782 Y-20.091 E10.30191
G1 X52.461 Y-20.002 E10.38327
G1 X53.094 Y-19.740 E10.46461
G1 X53.637 Y-19.323 E10.54596
G1 X53.989 Y-18.864 E10.61459
G1 X53.430 Y-18.419 F12000.000
G1 X53.620 Y-17.960 E10.67361 F540.000
G1 X53.685 Y-17.468 E10.73262
G1 X53.620 Y-16.975 E10.79163
G1 X53.430 Y-16.516 E10.85065
G1 X53.128 Y-16.122 E10.90966
G1 X52.734 Y-15.819 E10.96867
G1 X52.275 Y-15.629 E11.02769
G1 X51.782 Y-15.564 E11.08670
G1 X51.289 Y-15.629 E11.14571
G1 X50.830 Y-15.819 E11.20473
G1 X50.436 Y-16.122 E11.26375
G1 X50.133 Y-16.516 E11.32276
G1 X49.943 Y-16.975 E11.38178
G1 X49.887 Y-17.403 E11.43299
G1 X49.878 Y-17.468 E11.44079
G1 X49.943 Y-17.960 E11.49980
G1 X50.133 Y-18.419 E11.55882
G1 X50.396 Y-18.761 E11.61003
G1 X50.436 Y-18.814 E11.61783
G1 X50.830 Y-19.116 E11.67685
G1 X51.289 Y-19.306 E11.73586
G1 X51.717 Y-19.363 E11.78707
G1 X51.782 Y-19.371 E11.79488
G1 X52.275 Y-19.306 E11.85389
G1 X52.734 Y-19.116 E11.91291
G1 X53.128 Y-18.814 E11.97192
G1 X53.365 Y-18.504 E12.01821
G1 X53.927 Y-18.398 F12000.000
G1 F1800.000 E11.01821
G1 Z1.400 F12000.000
G92 E0
G1 X-69.118 Y20.844 F12000.000
G1 Z0.400 F12000.000
G1 E1.00000 F1800.000
G1 X-69.029 Y21.293 E1.05439 F540.000
G1 X-68.999 Y21.750 E1.10877
G1 X-69.029 Y22.207 E1.16316
G1 X-69.118 Y22.656 E1.21754
G1 X-69.266 Y23.090 E1.27193
G1 X-69.468 Y23.500 E1.32632
G1 X-69.723 Y23.881 E1.38070
G1 X-70.025 Y24.225 E1.43509
G1 X-70.369 Y24.527 E1.48948
G1 X-70.750 Y24.782 E1.54386
G1 X-71.160 Y24.984 E1.59825
G1 X-71.594 Y25.132 E1.65264
G1 X-72.043 Y25.221 E1.70702
G1 X-72.500 Y25.251 E1.76141
G1 X-72.957 Y25.221 E1.81580
G1 X-73.406 Y25.132 E1.87018
G1 X-73.840 Y24.984 E1.92457
G1 X-74.250 Y24.782 E1.97896
G1 X-74.631 Y24.527 E2.03334
G1 X-74.975 Y24.225 E2.08773
G1 X-75.277 Y23.881 E2.14212
G1 X-75.532 Y23.500 E2.19650
G1 X-75.711 Y23.137 E2.24456
G1 X-75.882 Y22.656 E2.30523
G1 X-75.971 Y22.207 E2.35961
G1 X-75.997 Y21.803 E2.40768
G1 X-75.971 Y21.293 E2.46834
G1 X-75.882 Y20.844 E2.52272
G1 X-75.751 Y20.461 E2.57079
G1 X-75.532 Y20.000 E2.63145
G1 X-75.277 Y19.619 E2.68584
G1 X-75.011 Y19.315 E2.73390
G1 X-74.631 Y18.973 E2.79456
G1 X-74.250 Y18.718 E2.84895
G1 X-73.840 Y18.516 E2.90333
G1 X-73.406 Y18.368 E2.95772
G1 X-72.904 Y18.276 E3.01838
G1 X-72.500 Y18.249 E3.06644
G1 X-72.043 Y18.279 E3.12083
G1 X-71.594 Y18.368 E3.17522
G1 X-71.211 Y18.498 E3.22328
G1 X-70.750 Y18.718 E3.28394
G1 X-70.369 Y18.973 E3.33833
G1 X-70.065 Y19.239 E3.38639
G1 X-69.723 Y19.619 E3.44705
G1 X-69.468 Y20.000 E3.50144
G1 X-69.266 Y20.410 E3.55583
G1 X-69.153 Y20.742 E3.59750
G1 X-68.679 Y20.972 F12000.000
G1 X0.040 Y-33.250 F12000.000
G1 X68.969 Y22.489 F12000.000
G1 X69.048 Y22.489 E3.60681 F540.000
G1 X68.999 Y21.750 E3.69471
G1 X69.029 Y21.293 E3.74910
G1 X69.118 Y20.844 E3.80348
G1 X69.266 Y20.410 E3.85787
G1 X69.468 Y20.000 E3.91226
G1 X69.723 Y19.619 E3.96665
G1 X69.989 Y19.315 E4.01471
G1 X70.369 Y18.973 E4.07537
G1 X70.750 Y18.718 E4.12976
G1 X71.160 Y18.516 E4.18414
G1 X71.594 Y18.368 E4.23853
G1 X72.043 Y18.279 E4.29292
G1 X72.500 Y18.249 E4.34730
G1 X72.957 Y18.279 E4.40169
G1 X73.406 Y18.368 E4.45607
G1 X73.840 Y18.516 E4.51046
G1 X74.250 Y18.718 E4.56485
G1 X74.631 Y18.973 E4.61924
G1 X74.975 Y19.275 E4.67362
G1 X75.277 Y19.619 E4.72801
G1 X75.532 Y20.000 E4.78240
G1 X75.734 Y20.410 E4.83678
G1 X75.882 Y20.844 E4.89117
G1 X75.971 Y21.293 E4.94556
G1 X76.001 Y21.750 E4.99995
G1 X75.971 Y22.207 E5.05433
G1 X75.882 Y22.656 E5.10872
G1 X75.734 Y23.090 E5.16310
G1 X75.532 Y23.500 E5.21749
G1 X75.277 Y23.881 E5.27188
G1 X74.975 Y24.225 E5.32626
G1 X74.631 Y24.527 E5.38065
G1 X74.250 Y24.782 E5.43504
G1 X73.840 Y24.984 E5.48942
G1 X73.406 Y25.132 E5.54381
G1 X72.957 Y25.221 E5.59820
G1 X72.500 Y25.251 E5.65258
G1 X72.043 Y25.221 E5.70697
G1 X71.543 Y25.114 E5.76763
G1 X71.160 Y24.984 E5.81569
G1 X70.750 Y24.782 E5.87008
G1 X70.369 Y24.527 E5.92447
G1 X70.025 Y24.225 E5.97885
G1 X69.723 Y23.881 E6.03324
G1 X69.468 Y23.500 E6.08763
G1 X69.017 Y22.585 E6.20889
G1 X68.957 Y22.411 F12000.000
G1 X67.619 Y21.060 F12000.000
G1 X66.672 Y21.060 E6.32136 F1080.000
G1 X68.229 Y24.216 E6.73927
G1 X68.587 Y24.753 E6.81589
G1 X69.012 Y25.238 E6.89251
G1 X69.497 Y25.663 E6.96913
G1 X70.034 Y26.021 E7.04576
G1 X70.613 Y26.307 E7.12238
G1 X71.223 Y26.514 E7.19901
G1 X71.856 Y26.640 E7.27563
G1 X72.500 Y26.682 E7.35225
G1 X73.144 Y26.640 E7.42888
G1 X73.777 Y26.514 E7.50550
G1 X74.388 Y26.307 E7.58212
G1 X74.966 Y26.021 E7.65875
G1 X75.672 Y25.550 E7.75952
G1 X75.672 Y29.707 E8.25317
G1 X75.646 Y30.098 E8.29981
G1 X75.578 Y30.441 E8.34126
G1 X75.466 Y30.771 E8.38273
G1 X75.311 Y31.084 E8.42419
G1 X75.117 Y31.375 E8.46565
G1 X74.887 Y31.637 E8.50711
G1 X74.625 Y31.867 E8.54857
G1 X74.334 Y32.061 E8.59004
G1 X74.021 Y32.216 E8.63149
G1 X73.691 Y32.328 E8.67295
G1 X73.348 Y32.396 E8.71442
G1 X72.956 Y32.422 E8.76105
G1 X27.828 Y32.422 E14.12071
G1 X27.828 Y26.094 E14.87228
G1 X28.435 Y26.054 E14.94451
G1 X28.863 Y25.969 E14.99627
G1 X29.275 Y25.829 E15.04802
G1 X29.666 Y25.636 E15.09978
G1 X30.029 Y25.394 E15.15156
G1 X30.356 Y25.106 E15.20333
G1 X30.644 Y24.779 E15.25507
G1 X30.886 Y24.416 E15.30683
G1 X31.078 Y24.025 E15.35858
G1 X31.219 Y23.613 E15.41036
G1 X31.304 Y23.185 E15.46213
G1 X31.328 Y22.810 E15.50677
G1 X31.328 Y-0.810 E18.31198
G1 X31.304 Y-1.185 E18.35661
G1 X31.219 Y-1.612 E18.40840
G1 X31.079 Y-2.025 E18.46018
G1 X30.886 Y-2.416 E18.51194
G1 X30.644 Y-2.778 E18.56370
G1 X30.356 Y-3.106 E18.61547
G1 X30.028 Y-3.394 E18.66725
G1 X29.666 Y-3.636 E18.71900
G1 X29.275 Y-3.829 E18.77076
G1 X28.863 Y-3.969 E18.82253
G1 X28.435 Y-4.054 E18.87432
G1 X28.060 Y-4.078 E18.91897
G1 X-14.060 Y-4.078 E23.92129
G1 X-14.435 Y-4.054 E23.96593
G1 X-14.862 Y-3.969 E24.01771
G1 X-15.275 Y-3.829 E24.06949
G1 X-15.666 Y-3.636 E24.12127
G1 X-16.029 Y-3.394 E24.17302
G1 X-16.356 Y-3.106 E24.22477
G1 X-16.644 Y-2.779 E24.27654
G1 X-16.886 Y-2.416 E24.32832
G1 X-17.079 Y-2.025 E24.38008
G1 X-17.219 Y-1.612 E24.43185
G1 X-17.304 Y-1.185 E24.48361
G1 X-17.328 Y-0.810 E24.52826
G1 X-17.328 Y22.810 E27.33346
G1 X-17.304 Y23.185 E27.37808
G1 X-17.219 Y23.613 E27.42988
G1 X-17.079 Y24.025 E27.48163
G1 X-16.886 Y24.416 E27.53340
G1 X-16.644 Y24.779 E27.58518
G1 X-16.356 Y25.106 E27.63694
G1 X-16.029 Y25.394 E27.68870
G1 X-15.666 Y25.636 E27.74047
G1 X-15.275 Y25.829 E27.79224
G1 X-14.863 Y25.969 E27.84397
G1 X-14.435 Y26.054 E27.89575
G1 X-13.828 Y26.094 E27.96798
G1 X-13.828 Y32.422 E28.71954
G1 X-72.956 Y32.422 E35.74191
G1 X-73.348 Y32.396 E35.78854
G1 X-73.691 Y32.328 E35.83001
G1 X-74.021 Y32.216 E35.87147
G1 X-74.334 Y32.061 E35.91293
G1 X-74.625 Y31.867 E35.95439
G1 X-74.887 Y31.637 E35.99585
G1 X-75.117 Y31.375 E36.03731
G1 X-75.311 Y31.084 E36.07878
G1 X-75.466 Y30.771 E36.12023
G1 X-75.578 Y30.441 E36.16169
G1 X-75.646 Y30.098 E36.20316
G1 X-75.672 Y29.706 E36.24979
G1 X-75.672 Y25.550 E36.74344
G1 X-74.966 Y26.021 E36.84422
G1 X-74.388 Y26.307 E36.92084
G1 X-73.777 Y26.514 E36.99747
G1 X-73.144 Y26.640 E37.07410
G1 X-72.500 Y26.682 E37.15071
G1 X-71.856 Y26.640 E37.22734
G1 X-71.223 Y26.514 E37.30397
G1 X-70.612 Y26.307 E37.38059
G1 X-70.034 Y26.021 E37.45721
G1 X-69.497 Y25.663 E37.53384
G1 X-69.012 Y25.238 E37.61046
G1 X-68.587 Y24.753 E37.68708
G1 X-68.229 Y24.216 E37.76370
G1 X-68.008 Y23.769 E37.82289
G1 X-67.943 Y23.637 E37.84033
G1 X-67.736 Y23.027 E37.91695
G1 X-67.610 Y22.394 E37.99358
G1 X-67.568 Y21.750 E38.07020
G1 X-67.610 Y21.106 E38.14682
G1 X-67.736 Y20.473 E38.22344
G1 X-67.943 Y19.863 E38.30007
G1 X-68.229 Y19.284 E38.37670
G1 X-68.587 Y18.747 E38.45332
G1 X-69.012 Y18.262 E38.52994
