; generated by Slic3r 1.0.0RC2 on 2014-02-10 at 22:32:56

; layer_height = 0.25
; perimeters = 3
; top_solid_layers = 3
; bottom_solid_layers = 3
; fill_density = 0.4
; perimeter_speed = 60
; infill_speed = 100
; travel_speed = 200
; nozzle_diameter = 0.4
; filament_diameter = 1.75
; extrusion_multiplier = 1
; perimeters extrusion width = 0.40mm
; infill extrusion width = 0.53mm
; solid infill extrusion width = 0.53mm
; top infill extrusion width = 0.53mm
; first layer extrusion width = 0.50mm

G21 ; set units to millimeters
M107
M190 S70 ; wait for bed temperature to be reached
M104 S210 ; set temperature
G28 ; home all axes
G1 Z5 F5000 ; lift nozzle
M109 S210 ; wait for temperature to be reached
G90 ; use absolute coordinates
G92 E0
M82 ; use absolute distances for extrusion
M204 S9000
G1 F1800.000 E-3.00000
G1 Z1.250 F12000.000
G92 E0
G1 X11.040 Y19.540 F12000.000
G1 Z0.250 F12000.000
G1 E3.00000 F1800.000
G1 X9.740 Y20.230 E3.07320 F1080.000
G1 X8.820 Y20.650 E3.12351
G1 X8.340 Y20.850 E3.14937
G1 X7.040 Y21.320 E3.21813
G1 X6.070 Y21.620 E3.26863
G1 X4.590 Y21.980 E3.34439
G1 X3.120 Y22.230 E3.41855
G1 X2.710 Y22.280 E3.43910
G1 X1.280 Y22.410 E3.51051
G1 X0.260 Y22.450 E3.56129
G1 X-0.290 Y22.450 E3.58864
G1 X-1.710 Y22.380 E3.65936
G1 X-3.130 Y22.230 E3.73038
G1 X-4.130 Y22.070 E3.78075
G1 X-4.600 Y21.980 E3.80455
G1 X-6.080 Y21.620 E3.88031
G1 X-7.050 Y21.320 E3.93081
G1 X-8.350 Y20.850 E3.99957
G1 X-9.750 Y20.230 E4.07572
G1 X-11.030 Y19.560 E4.14758
G1 X-11.460 Y19.310 E4.17232
G1 X-12.700 Y18.520 E4.24545
G1 X-13.530 Y17.920 E4.29639
G1 X-14.630 Y17.030 E4.36677
G1 X-15.680 Y16.080 E4.43720
G1 X-16.090 Y15.670 E4.46604
G1 X-16.780 Y14.920 E4.51673
G1 X-17.680 Y13.840 E4.58665
G1 X-18.540 Y12.670 E4.65888
G1 X-19.340 Y11.410 E4.73311
G1 X-19.550 Y11.040 E4.75427
G1 X-20.240 Y9.740 E4.82748
G1 X-20.660 Y8.820 E4.87778
G1 X-21.350 Y6.980 E4.97552
G1 X-21.760 Y5.580 E5.04808
G1 X-21.990 Y4.590 E5.09863
G1 X-22.240 Y3.120 E5.17280
G1 X-22.290 Y2.710 E5.19334
G1 X-22.390 Y1.700 E5.24382
G1 X-22.450 Y0.190 E5.31899
G1 X-22.420 Y-1.230 E5.38963
G1 X-22.390 Y-1.710 E5.41355
G1 X-22.240 Y-3.110 E5.48358
G1 X-22.080 Y-4.120 E5.53445
G1 X-21.990 Y-4.600 E5.55874
G1 X-21.630 Y-6.080 E5.63450
G1 X-21.330 Y-7.050 E5.68500
G1 X-20.860 Y-8.350 E5.75375
G1 X-20.240 Y-9.750 E5.82991
G1 X-19.550 Y-11.050 E5.90311
G1 X-18.800 Y-12.290 E5.97519
G1 X-18.540 Y-12.680 E5.99851
G1 X-17.710 Y-13.810 E6.06824
G1 X-16.760 Y-14.970 E6.14282
G1 X-16.060 Y-15.720 E6.19385
G1 X-15.680 Y-16.090 E6.22023
G1 X-14.630 Y-17.040 E6.29066
G1 X-13.530 Y-17.930 E6.36103
G1 X-12.700 Y-18.530 E6.41197
G1 X-12.260 Y-18.820 E6.43818
G1 X-11.070 Y-19.540 E6.50736
G1 X-10.190 Y-20.020 E6.55722
G1 X-8.830 Y-20.660 E6.63198
G1 X-8.350 Y-20.860 E6.65784
G1 X-7.050 Y-21.330 E6.72660
G1 X-6.080 Y-21.630 E6.77710
G1 X-4.600 Y-21.990 E6.85286
G1 X-3.130 Y-22.240 E6.92703
G1 X-1.710 Y-22.390 E6.99805
G1 X-1.230 Y-22.420 E7.02197
G1 X-0.020 Y-22.460 E7.08219
G1 X1.210 Y-22.420 E7.14340
G1 X1.700 Y-22.390 E7.16781
G1 X3.120 Y-22.240 E7.23883
G1 X4.590 Y-21.990 E7.31300
G1 X5.580 Y-21.760 E7.36355
G1 X6.980 Y-21.350 E7.43611
G1 X7.410 Y-21.200 E7.45876
G1 X8.820 Y-20.660 E7.53386
G1 X9.740 Y-20.240 E7.58416
G1 X11.410 Y-19.340 E7.67852
G1 X12.670 Y-18.540 E7.75276
G1 X13.490 Y-17.950 E7.80300
G1 X14.620 Y-17.040 E7.87517
G1 X15.670 Y-16.090 E7.94559
G1 X16.080 Y-15.680 E7.97443
G1 X16.770 Y-14.930 E8.02512
G1 X17.670 Y-13.850 E8.09505
G1 X17.940 Y-13.500 E8.11703
G1 X18.530 Y-12.680 E8.16728
G1 X19.330 Y-11.420 E8.24152
G1 X20.230 Y-9.750 E8.33587
G1 X20.850 Y-8.350 E8.41203
G1 X21.200 Y-7.400 E8.46239
G1 X21.620 Y-6.080 E8.53128
G1 X21.750 Y-5.590 E8.55650
G1 X21.980 Y-4.600 E8.60705
G1 X22.230 Y-3.130 E8.68122
G1 X22.410 Y-1.300 E8.77268
G1 X22.450 Y-0.290 E8.82295
G1 X22.450 Y0.260 E8.85031
G1 X22.410 Y1.280 E8.90108
G1 X22.280 Y2.710 E8.97250
G1 X22.070 Y4.120 E9.04340
G1 X21.980 Y4.590 E9.06721
G1 X21.620 Y6.070 E9.14297
G1 X21.320 Y7.040 E9.19347
G1 X20.850 Y8.340 E9.26222
G1 X20.230 Y9.740 E9.33838
G1 X19.540 Y11.040 E9.41158
G1 X18.790 Y12.280 E9.48366
G1 X18.530 Y12.670 E9.50698
G1 X17.670 Y13.840 E9.57920
G1 X16.770 Y14.920 E9.64912
G1 X16.080 Y15.670 E9.69981
G1 X15.670 Y16.080 E9.72865
G1 X14.620 Y17.030 E9.79908
G1 X13.490 Y17.940 E9.87125
G1 X12.670 Y18.530 E9.92149
G1 X12.280 Y18.790 E9.94480
G1 X11.102 Y19.505 E10.01332
G1 X10.820 Y19.120 F12000.000
G1 X9.930 Y19.600 E10.06361 F1080.000
G1 X8.620 Y20.210 E10.13549
G1 X8.170 Y20.400 E10.15978
G1 X6.890 Y20.860 E10.22743
G1 X5.480 Y21.280 E10.30061
G1 X4.490 Y21.510 E10.35116
G1 X4.040 Y21.600 E10.37399
G1 X2.660 Y21.810 E10.44342
G1 X1.650 Y21.910 E10.49390
G1 X0.240 Y21.970 E10.56409
G1 X-0.270 Y21.970 E10.58946
G1 X-1.660 Y21.910 E10.65866
G1 X-2.670 Y21.810 E10.70914
G1 X-4.050 Y21.600 E10.77857
G1 X-5.490 Y21.280 E10.85194
G1 X-5.930 Y21.160 E10.87463
G1 X-7.230 Y20.750 E10.94242
G1 X-8.180 Y20.400 E10.99278
G1 X-9.910 Y19.620 E11.08717
G1 X-11.210 Y18.910 E11.16085
G1 X-12.070 Y18.370 E11.21135
G1 X-13.250 Y17.530 E11.28340
G1 X-14.610 Y16.420 E11.37071
G1 X-15.360 Y15.730 E11.42140
G1 X-15.740 Y15.350 E11.44813
G1 X-16.430 Y14.600 E11.49882
G1 X-17.310 Y13.540 E11.56734
G1 X-18.150 Y12.390 E11.63818
G1 X-18.390 Y12.030 E11.65970
G1 X-19.130 Y10.820 E11.73024
G1 X-19.610 Y9.930 E11.78054
G1 X-20.220 Y8.620 E11.85241
G1 X-20.400 Y8.200 E11.87514
G1 X-20.760 Y7.240 E11.92614
G1 X-21.180 Y5.880 E11.99693
G1 X-21.520 Y4.490 E12.06811
G1 X-21.610 Y4.040 E12.09093
G1 X-21.820 Y2.660 E12.16036
G1 X-21.950 Y1.200 E12.23327
G1 X-21.980 Y0.180 E12.28402
G1 X-21.950 Y-1.210 E12.35318
G1 X-21.920 Y-1.660 E12.37561
G1 X-21.820 Y-2.660 E12.42559
G1 X-21.610 Y-4.040 E12.49502
G1 X-21.290 Y-5.490 E12.56888
G1 X-21.170 Y-5.930 E12.59156
G1 X-20.760 Y-7.230 E12.65936
G1 X-20.410 Y-8.180 E12.70972
G1 X-20.220 Y-8.630 E12.73401
G1 X-19.610 Y-9.940 E12.80589
G1 X-19.130 Y-10.830 E12.85618
G1 X-18.390 Y-12.040 E12.92673
G1 X-18.150 Y-12.400 E12.94825
G1 X-17.340 Y-13.510 E13.01660
G1 X-16.410 Y-14.640 E13.08939
G1 X-15.710 Y-15.390 E13.14042
G1 X-15.360 Y-15.740 E13.16504
G1 X-14.610 Y-16.430 E13.21573
G1 X-13.250 Y-17.540 E13.30304
G1 X-12.420 Y-18.140 E13.35398
G1 X-12.010 Y-18.410 E13.37840
G1 X-10.840 Y-19.120 E13.44647
G1 X-9.960 Y-19.600 E13.49633
G1 X-8.630 Y-20.220 E13.56931
G1 X-8.180 Y-20.410 E13.59361
G1 X-6.900 Y-20.870 E13.66126
G1 X-5.490 Y-21.290 E13.73444
G1 X-4.500 Y-21.520 E13.78499
G1 X-4.050 Y-21.610 E13.80781
G1 X-2.670 Y-21.820 E13.87724
G1 X-1.210 Y-21.950 E13.95015
G1 X-0.210 Y-21.980 E13.99991
G1 X1.200 Y-21.950 E14.07006
G1 X1.650 Y-21.920 E14.09249
G1 X2.660 Y-21.820 E14.14297
G1 X4.040 Y-21.610 E14.21240
G1 X5.480 Y-21.290 E14.28577
G1 X5.880 Y-21.180 E14.30640
G1 X7.240 Y-20.760 E14.37720
G1 X8.200 Y-20.400 E14.42820
G1 X9.930 Y-19.610 E14.52279
G1 X10.820 Y-19.130 E14.57309
G1 X12.030 Y-18.390 E14.64363
G1 X12.390 Y-18.150 E14.66515
G1 X13.540 Y-17.310 E14.73599
G1 X14.600 Y-16.430 E14.80451
G1 X15.350 Y-15.740 E14.85520
G1 X15.730 Y-15.360 E14.88193
G1 X16.420 Y-14.610 E14.93262
G1 X17.300 Y-13.550 E15.00114
G1 X18.140 Y-12.400 E15.07197
G1 X18.380 Y-12.040 E15.09349
G1 X19.120 Y-10.830 E15.16404
G1 X19.600 Y-9.940 E15.21433
G1 X20.210 Y-8.630 E15.28621
G1 X20.400 Y-8.180 E15.31051
G1 X20.860 Y-6.900 E15.37816
G1 X21.280 Y-5.490 E15.45133
G1 X21.510 Y-4.500 E15.50189
G1 X21.600 Y-4.050 E15.52471
G1 X21.810 Y-2.670 E15.59414
G1 X21.910 Y-1.660 E15.64462
G1 X21.970 Y-0.270 E15.71382
G1 X21.970 Y0.240 E15.73919
G1 X21.910 Y1.650 E15.80938
G1 X21.810 Y2.660 E15.85987
G1 X21.600 Y4.040 E15.92929
G1 X21.280 Y5.480 E16.00267
G1 X21.160 Y5.920 E16.02535
G1 X20.750 Y7.220 E16.09315
G1 X20.400 Y8.170 E16.14351
G1 X20.210 Y8.620 E16.16780
G1 X19.600 Y9.930 E16.23968
G1 X19.120 Y10.820 E16.28997
G1 X18.380 Y12.030 E16.36052
G1 X18.140 Y12.390 E16.38204
G1 X17.300 Y13.540 E16.45287
G1 X16.420 Y14.600 E16.52139
G1 X15.730 Y15.350 E16.57208
G1 X15.350 Y15.730 E16.59881
G1 X14.600 Y16.420 E16.64950
G1 X13.540 Y17.300 E16.71803
G1 X12.390 Y18.140 E16.78886
G1 X12.030 Y18.380 E16.81038
G1 X10.882 Y19.084 E16.87736
G1 F1800.000 E13.87736
G1 Z1.250 F12000.000
G92 E0
G1 X2.205 Y3.819 F12000.000
G1 Z0.250 F12000.000
G1 E3.00000 F1800.000
G1 X1.687 Y4.074 E3.02870 F540.000
G1 X1.141 Y4.259 E3.05738
G1 X0.576 Y4.372 E3.08606
G1 X0.000 Y4.410 E3.11475
G1 X-0.576 Y4.372 E3.14345
G1 X-1.141 Y4.259 E3.17213
G1 X-1.687 Y4.074 E3.20083
G1 X-2.205 Y3.819 E3.22952
G1 X-3.007 Y3.283 E3.27751
G1 X-3.007 Y-3.283 E3.60407
G1 X-2.205 Y-3.819 E3.65206
G1 X-1.687 Y-4.074 E3.68076
G1 X-1.141 Y-4.259 E3.70945
G1 X-0.575 Y-4.372 E3.73814
G1 X0.000 Y-4.410 E3.76683
G1 X0.491 Y-4.377 E3.79132
G1 X1.141 Y-4.259 E3.82416
G1 X1.687 Y-4.074 E3.85286
G1 X2.205 Y-3.819 E3.88155
G1 X2.684 Y-3.498 E3.91024
G1 X3.118 Y-3.118 E3.93893
G1 X3.498 Y-2.684 E3.96762
G1 X3.819 Y-2.205 E3.99631
G1 X4.074 Y-1.687 E4.02500
G1 X4.259 Y-1.141 E4.05370
G1 X4.372 Y-0.575 E4.08238
G1 X4.410 Y0.000 E4.11107
G1 X4.372 Y0.576 E4.13976
G1 X4.259 Y1.141 E4.16845
G1 X4.074 Y1.688 E4.19714
G1 X3.819 Y2.205 E4.22583
G1 X3.498 Y2.685 E4.25453
G1 X3.118 Y3.118 E4.28321
G1 X2.684 Y3.498 E4.31190
G1 X2.265 Y3.779 E4.33702
G1 X1.965 Y3.404 F12000.000
G1 X1.504 Y3.631 E4.36259 F540.000
G1 X1.017 Y3.796 E4.38816
G1 X0.513 Y3.896 E4.41372
G1 X0.000 Y3.930 E4.43929
G1 X-0.513 Y3.896 E4.46486
G1 X-1.017 Y3.796 E4.49043
G1 X-1.504 Y3.631 E4.51600
G1 X-1.965 Y3.404 E4.54157
G1 X-2.529 Y3.027 E4.57528
G1 X-2.529 Y-3.027 E4.87640
G1 X-1.965 Y-3.404 E4.91011
G1 X-1.504 Y-3.631 E4.93568
G1 X-1.017 Y-3.796 E4.96125
G1 X-0.513 Y-3.896 E4.98682
G1 X0.000 Y-3.930 E5.01239
G1 X0.460 Y-3.900 E5.03532
G1 X1.017 Y-3.796 E5.06350
G1 X1.504 Y-3.631 E5.08908
G1 X1.965 Y-3.404 E5.11465
G1 X2.392 Y-3.118 E5.14022
G1 X2.779 Y-2.779 E5.16578
G1 X3.118 Y-2.392 E5.19136
G1 X3.404 Y-1.965 E5.21693
G1 X3.631 Y-1.504 E5.24250
G1 X3.796 Y-1.017 E5.26807
G1 X3.897 Y-0.513 E5.29364
G1 X3.930 Y0.000 E5.31921
G1 X3.896 Y0.513 E5.34478
G1 X3.796 Y1.017 E5.37034
G1 X3.631 Y1.504 E5.39591
G1 X3.404 Y1.965 E5.42149
G1 X3.118 Y2.393 E5.44706
G1 X2.779 Y2.779 E5.47263
G1 X2.392 Y3.118 E5.49819
G1 X2.025 Y3.364 E5.52019
G1 X1.725 Y2.988 F12000.000
G1 X1.320 Y3.188 E5.54264 F540.000
G1 X0.893 Y3.333 E5.56509
G1 X0.450 Y3.421 E5.58754
G1 X0.000 Y3.451 E5.60999
G1 X-0.450 Y3.421 E5.63244
G1 X-0.893 Y3.333 E5.65489
G1 X-1.320 Y3.188 E5.67734
G1 X-1.725 Y2.988 E5.69979
G1 X-2.050 Y2.771 E5.71921
G1 X-2.050 Y-2.771 E5.99489
G1 X-1.725 Y-2.988 E6.01431
G1 X-1.320 Y-3.188 E6.03677
G1 X-0.893 Y-3.333 E6.05921
G1 X-0.450 Y-3.421 E6.08167
G1 X0.000 Y-3.451 E6.10411
G1 X0.450 Y-3.421 E6.12656
G1 X0.893 Y-3.333 E6.14901
G1 X1.320 Y-3.188 E6.17146
G1 X1.725 Y-2.988 E6.19391
G1 X2.101 Y-2.737 E6.21636
G1 X2.440 Y-2.440 E6.23881
G1 X2.737 Y-2.101 E6.26126
G1 X2.988 Y-1.725 E6.28371
G1 X3.188 Y-1.320 E6.30616
G1 X3.333 Y-0.893 E6.32861
G1 X3.421 Y-0.450 E6.35106
G1 X3.451 Y0.000 E6.37351
G1 X3.421 Y0.450 E6.39596
G1 X3.333 Y0.893 E6.41841
G1 X3.188 Y1.320 E6.44086
G1 X2.988 Y1.725 E6.46331
G1 X2.737 Y2.101 E6.48576
G1 X2.440 Y2.440 E6.50821
G1 X2.101 Y2.737 E6.53066
G1 X1.785 Y2.948 E6.54953
G1 X1.715 Y3.440 F12000.000
G1 X6.321 Y12.818 F12000.000
G1 X5.469 Y13.204 E6.59605 F1080.000
G1 X4.594 Y13.534 E6.64257
G1 X3.699 Y13.805 E6.68909
G1 X2.788 Y14.018 E6.73561
G1 X1.865 Y14.170 E6.78213
G1 X0.935 Y14.262 E6.82864
G1 X0.000 Y14.292 E6.87516
G1 X-0.935 Y14.262 E6.92168
G1 X-1.866 Y14.170 E6.96820
G1 X-2.788 Y14.018 E7.01472
G1 X-3.699 Y13.805 E7.06124
G1 X-4.594 Y13.534 E7.10775
G1 X-5.469 Y13.204 E7.15427
G1 X-6.321 Y12.818 E7.20079
G1 X-7.146 Y12.377 E7.24731
G1 X-7.940 Y11.884 E7.29383
G1 X-8.701 Y11.339 E7.34035
G1 X-9.424 Y10.746 E7.38686
G1 X-10.106 Y10.106 E7.43338
G1 X-10.745 Y9.424 E7.47990
G1 X-11.339 Y8.701 E7.52642
G1 X-11.884 Y7.940 E7.57294
G1 X-12.377 Y7.146 E7.61946
G1 X-12.818 Y6.321 E7.66598
G1 X-13.204 Y5.469 E7.71249
G1 X-13.534 Y4.594 E7.75901
G1 X-13.805 Y3.699 E7.80553
G1 X-14.018 Y2.788 E7.85205
G1 X-14.170 Y1.866 E7.89857
G1 X-14.262 Y0.935 E7.94509
G1 X-14.292 Y-0.000 E7.99160
G1 X-14.262 Y-0.935 E8.03812
G1 X-14.170 Y-1.866 E8.08464
G1 X-14.018 Y-2.788 E8.13116
G1 X-13.805 Y-3.699 E8.17768
G1 X-13.534 Y-4.594 E8.22420
G1 X-13.204 Y-5.469 E8.27071
G1 X-12.818 Y-6.321 E8.31723
G1 X-12.377 Y-7.146 E8.36375
G1 X-11.884 Y-7.940 E8.41027
G1 X-11.339 Y-8.701 E8.45679
G1 X-10.745 Y-9.424 E8.50331
G1 X-10.106 Y-10.106 E8.54982
G1 X-9.424 Y-10.745 E8.59634
G1 X-8.701 Y-11.339 E8.64286
G1 X-7.940 Y-11.884 E8.68938
G1 X-7.146 Y-12.377 E8.73590
G1 X-6.321 Y-12.818 E8.78242
G1 X-5.469 Y-13.204 E8.82894
G1 X-4.594 Y-13.534 E8.87545
G1 X-3.699 Y-13.805 E8.92197
G1 X-2.788 Y-14.018 E8.96849
G1 X-1.866 Y-14.170 E9.01501
G1 X-0.935 Y-14.262 E9.06153
G1 X-0.000 Y-14.292 E9.10804
G1 X0.935 Y-14.262 E9.15456
G1 X1.866 Y-14.170 E9.20108
G1 X2.788 Y-14.018 E9.24760
G1 X3.699 Y-13.805 E9.29412
G1 X4.594 Y-13.534 E9.34064
G1 X5.469 Y-13.204 E9.38716
G1 X6.321 Y-12.818 E9.43367
G1 X7.146 Y-12.377 E9.48019
G1 X7.940 Y-11.884 E9.52671
G1 X8.701 Y-11.339 E9.57323
G1 X9.424 Y-10.745 E9.61975
G1 X10.106 Y-10.106 E9.66627
G1 X10.746 Y-9.424 E9.71278
G1 X11.339 Y-8.701 E9.75930
G1 X11.884 Y-7.940 E9.80582
G1 X12.377 Y-7.146 E9.85234
G1 X12.818 Y-6.321 E9.89886
G1 X13.204 Y-5.469 E9.94538
G1 X13.534 Y-4.594 E9.99190
G1 X13.805 Y-3.699 E10.03841
G1 X14.018 Y-2.788 E10.08493
G1 X14.170 Y-1.866 E10.13145
G1 X14.262 Y-0.935 E10.17797
G1 X14.292 Y-0.000 E10.22449
G1 X14.262 Y0.935 E10.27101
G1 X14.170 Y1.866 E10.31752
G1 X14.018 Y2.788 E10.36404
G1 X13.805 Y3.699 E10.41056
G1 X13.534 Y4.594 E10.45708
G1 X13.204 Y5.469 E10.50360
G1 X12.818 Y6.321 E10.55012
G1 X12.377 Y7.146 E10.59663
G1 X11.884 Y7.940 E10.64315
G1 X11.339 Y8.701 E10.68967
G1 X10.746 Y9.424 E10.73619
G1 X10.106 Y10.106 E10.78271
G1 X9.424 Y10.746 E10.82923
G1 X8.701 Y11.339 E10.87574
G1 X7.940 Y11.884 E10.92226
G1 X7.146 Y12.377 E10.96878
G1 X6.385 Y12.785 E11.01173
G1 X6.533 Y13.248 F12000.000
G1 X5.653 Y13.647 E11.05981 F1080.000
G1 X4.748 Y13.987 E11.10788
G1 X3.823 Y14.268 E11.15596
G1 X2.882 Y14.487 E11.20404
G1 X1.928 Y14.645 E11.25211
G1 X0.966 Y14.739 E11.30019
G1 X0.000 Y14.771 E11.34827
G1 X-0.966 Y14.739 E11.39634
G1 X-1.928 Y14.645 E11.44442
G1 X-2.882 Y14.487 E11.49250
G1 X-3.823 Y14.268 E11.54057
G1 X-4.748 Y13.987 E11.58865
G1 X-5.653 Y13.647 E11.63673
G1 X-6.533 Y13.248 E11.68480
G1 X-7.386 Y12.792 E11.73288
G1 X-8.206 Y12.282 E11.78096
G1 X-8.992 Y11.719 E11.82903
G1 X-9.739 Y11.105 E11.87711
G1 X-10.445 Y10.445 E11.92519
G1 X-11.105 Y9.739 E11.97326
G1 X-11.719 Y8.992 E12.02134
G1 X-12.282 Y8.206 E12.06942
G1 X-12.792 Y7.386 E12.11749
G1 X-13.248 Y6.533 E12.16557
G1 X-13.647 Y5.653 E12.21365
G1 X-13.987 Y4.748 E12.26172
G1 X-14.268 Y3.823 E12.30980
G1 X-14.487 Y2.882 E12.35788
G1 X-14.645 Y1.928 E12.40595
G1 X-14.739 Y0.966 E12.45403
G1 X-14.771 Y-0.000 E12.50211
G1 X-14.739 Y-0.966 E12.55018
G1 X-14.645 Y-1.928 E12.59826
G1 X-14.487 Y-2.882 E12.64634
G1 X-14.268 Y-3.823 E12.69441
G1 X-13.987 Y-4.748 E12.74249
G1 X-13.647 Y-5.653 E12.79057
G1 X-13.248 Y-6.533 E12.83865
G1 X-12.792 Y-7.386 E12.88672
G1 X-12.282 Y-8.206 E12.93480
G1 X-11.719 Y-8.992 E12.98288
G1 X-11.105 Y-9.739 E13.03095
G1 X-10.445 Y-10.445 E13.07903
G1 X-9.739 Y-11.105 E13.12711
G1 X-8.992 Y-11.719 E13.17518
G1 X-8.206 Y-12.282 E13.22326
G1 X-7.386 Y-12.792 E13.27134
G1 X-6.533 Y-13.248 E13.31941
G1 X-5.653 Y-13.647 E13.36749
G1 X-4.748 Y-13.987 E13.41557
G1 X-3.823 Y-14.268 E13.46364
G1 X-2.882 Y-14.487 E13.51172
G1 X-1.928 Y-14.645 E13.55980
G1 X-0.966 Y-14.739 E13.60787
G1 X-0.000 Y-14.771 E13.65595
G1 X0.966 Y-14.739 E13.70403
G1 X1.928 Y-14.645 E13.75210
G1 X2.882 Y-14.487 E13.80018
G1 X3.823 Y-14.268 E13.84826
G1 X4.748 Y-13.987 E13.89633
G1 X5.653 Y-13.647 E13.94441
G1 X6.533 Y-13.248 E13.99249
G1 X7.386 Y-12.792 E14.04056
G1 X8.206 Y-12.282 E14.08864
G1 X8.992 Y-11.719 E14.13672
G1 X9.739 Y-11.105 E14.18480
G1 X10.445 Y-10.445 E14.23287
G1 X11.105 Y-9.739 E14.28095
G1 X11.719 Y-8.992 E14.32903
G1 X12.282 Y-8.206 E14.37710
G1 X12.792 Y-7.386 E14.42518
