; generated by Slic3r 1.0.0RC2 on 2014-02-18 at 23:55:06

; layer_height = 0.25
; perimeters = 3
; top_solid_layers = 3
; bottom_solid_layers = 3
; fill_density = 0.4
; perimeter_speed = 50
; infill_speed = 60
; travel_speed = 120
; nozzle_diameter = 0.4
; filament_diameter = 1.75
; extrusion_multiplier = 1.1
; perimeters extrusion width = 0.40mm
; infill extrusion width = 0.53mm
; solid infill extrusion width = 0.53mm
; top infill extrusion width = 0.53mm
; first layer extrusion width = 0.50mm

G21 ; set units to millimeters
M107
M190 S58 ; wait for bed temperature to be reached
M104 S190 ; set temperature
G28 ; home all axes
G1 Z5 F5000 ; lift nozzle
M207 S1 F30 Z1
M208 S1 F30
M109 S190 ; wait for temperature to be reached
G90 ; use absolute coordinates
G92 E0
M82 ; use absolute distances for extrusion
M204 S9000
G1 Z0.250 F7200.000
G1 X-0.445 Y8.435 F7200.000
G1 X-0.895 Y8.405 E0.02468 F1200.000
G1 X-1.795 Y8.285 E0.07435
G1 X-2.245 Y8.195 E0.09946
G1 X-2.995 Y8.005 E0.14179
G1 X-3.435 Y7.865 E0.16705
G1 X-4.495 Y7.425 E0.22985
G1 X-4.905 Y7.215 E0.25505
G1 X-5.555 Y6.835 E0.29624
G1 X-5.935 Y6.585 E0.32113
G1 X-6.715 Y5.995 E0.37464
G1 X-7.055 Y5.695 E0.39945
G1 X-7.735 Y5.005 E0.45245
G1 X-8.035 Y4.655 E0.47767
G1 X-8.495 Y4.055 E0.51904
G1 X-8.755 Y3.675 E0.54423
G1 X-9.265 Y2.795 E0.59988
G1 X-9.465 Y2.385 E0.62483
G1 X-9.785 Y1.625 E0.66995
G1 X-9.935 Y1.195 E0.69487
G1 X-10.185 Y0.265 E0.74756
G1 X-10.275 Y-0.185 E0.77267
G1 X-10.395 Y-1.095 E0.82288
G1 X-10.425 Y-1.555 E0.84811
G1 X-10.425 Y-2.465 E0.89789
G1 X-10.395 Y-2.915 E0.92257
G1 X-10.275 Y-3.815 E0.97225
G1 X-10.185 Y-4.265 E0.99735
G1 X-9.945 Y-5.145 E1.04726
G1 X-9.795 Y-5.585 E1.07269
G1 X-9.465 Y-6.395 E1.12055
G1 X-9.265 Y-6.805 E1.14551
G1 X-8.755 Y-7.685 E1.20115
G1 X-8.495 Y-8.065 E1.22634
G1 X-7.975 Y-8.735 E1.27275
G1 X-7.675 Y-9.075 E1.29756
G1 X-7.055 Y-9.695 E1.34553
G1 X-6.715 Y-9.995 E1.37034
G1 X-6.045 Y-10.515 E1.41674
G1 X-5.665 Y-10.775 E1.44193
G1 X-4.785 Y-11.285 E1.49758
G1 X-4.375 Y-11.485 E1.52254
G1 X-3.565 Y-11.815 E1.57039
G1 X-3.125 Y-11.965 E1.59582
G1 X-2.225 Y-12.215 E1.64693
G1 X-1.765 Y-12.305 E1.67257
G1 X-0.895 Y-12.415 E1.72055
G1 X-0.455 Y-12.445 E1.74468
G1 X0.465 Y-12.445 E1.79502
G1 X0.925 Y-12.415 E1.82024
G1 X1.835 Y-12.295 E1.87046
G1 X2.285 Y-12.205 E1.89557
G1 X3.215 Y-11.955 E1.94825
G1 X3.645 Y-11.805 E1.97317
G1 X4.405 Y-11.485 E2.01829
G1 X4.815 Y-11.285 E2.04325
G1 X5.695 Y-10.775 E2.09890
G1 X6.075 Y-10.515 E2.12409
G1 X6.675 Y-10.055 E2.16545
G1 X7.025 Y-9.755 E2.19067
G1 X7.715 Y-9.075 E2.24368
G1 X8.015 Y-8.735 E2.26848
G1 X8.605 Y-7.955 E2.32199
G1 X8.855 Y-7.575 E2.34688
G1 X9.235 Y-6.925 E2.38807
G1 X9.445 Y-6.515 E2.41328
G1 X9.885 Y-5.455 E2.47607
G1 X10.025 Y-5.015 E2.50133
G1 X10.215 Y-4.265 E2.54366
G1 X10.305 Y-3.815 E2.56877
G1 X10.425 Y-2.915 E2.61845
G1 X10.455 Y-2.465 E2.64312
G1 X10.455 Y-1.555 E2.69291
G1 X10.425 Y-1.095 E2.71813
G1 X10.305 Y-0.185 E2.76835
G1 X10.215 Y0.265 E2.79346
G1 X10.015 Y1.055 E2.83805
G1 X9.875 Y1.485 E2.86279
G1 X9.445 Y2.505 E2.92335
G1 X9.235 Y2.915 E2.94855
G1 X8.855 Y3.565 E2.98975
G1 X8.605 Y3.945 E3.01464
G1 X8.005 Y4.735 E3.06891
G1 X7.695 Y5.085 E3.09449
G1 X7.085 Y5.695 E3.14169
G1 X6.745 Y5.995 E3.16650
G1 X5.965 Y6.585 E3.22001
G1 X5.585 Y6.835 E3.24489
G1 X4.935 Y7.215 E3.28609
G1 X4.525 Y7.425 E3.31129
G1 X3.505 Y7.855 E3.37185
G1 X3.075 Y7.995 E3.39660
G1 X2.285 Y8.195 E3.44118
G1 X1.835 Y8.285 E3.46629
G1 X0.925 Y8.405 E3.51651
G1 X0.465 Y8.435 E3.54173
G1 X-0.373 Y8.435 E3.58759
G1 X-0.415 Y7.955 F7200.000
G1 X-0.865 Y7.925 E3.61227 F1200.000
G1 X-1.705 Y7.815 E3.65862
G1 X-2.155 Y7.725 E3.68373
G1 X-2.845 Y7.545 E3.72274
G1 X-3.285 Y7.405 E3.74800
G1 X-4.275 Y7.005 E3.80642
G1 X-4.685 Y6.795 E3.83163
G1 X-5.295 Y6.435 E3.87038
G1 X-5.675 Y6.185 E3.89527
G1 X-6.405 Y5.635 E3.94527
G1 X-6.745 Y5.335 E3.97008
G1 X-7.375 Y4.695 E4.01922
G1 X-7.675 Y4.345 E4.04444
G1 X-8.105 Y3.785 E4.08307
G1 X-8.365 Y3.405 E4.10826
G1 X-8.835 Y2.585 E4.15997
G1 X-9.035 Y2.175 E4.18493
G1 X-9.335 Y1.465 E4.22710
G1 X-9.485 Y1.035 E4.25201
G1 X-9.715 Y0.175 E4.30072
G1 X-9.805 Y-0.275 E4.32583
G1 X-9.915 Y-1.125 E4.37272
G1 X-9.945 Y-1.585 E4.39794
G1 X-9.945 Y-2.435 E4.44445
G1 X-9.915 Y-2.885 E4.46912
G1 X-9.805 Y-3.725 E4.51547
G1 X-9.715 Y-4.175 E4.54058
G1 X-9.495 Y-4.995 E4.58703
G1 X-9.345 Y-5.435 E4.61247
G1 X-9.035 Y-6.185 E4.65687
G1 X-8.835 Y-6.595 E4.68183
G1 X-8.365 Y-7.415 E4.73354
G1 X-8.105 Y-7.795 E4.75873
G1 X-7.615 Y-8.425 E4.80240
G1 X-7.315 Y-8.765 E4.82721
G1 X-6.745 Y-9.335 E4.87131
G1 X-6.405 Y-9.635 E4.89612
G1 X-5.775 Y-10.125 E4.93978
G1 X-5.395 Y-10.385 E4.96498
G1 X-4.575 Y-10.855 E5.01669
G1 X-4.165 Y-11.055 E5.04165
G1 X-3.415 Y-11.365 E5.08605
G1 X-2.975 Y-11.515 E5.11148
G1 X-2.125 Y-11.745 E5.15966
G1 X-1.665 Y-11.835 E5.18530
G1 X-0.865 Y-11.935 E5.22941
G1 X-0.425 Y-11.965 E5.25354
G1 X0.435 Y-11.965 E5.30060
G1 X0.895 Y-11.935 E5.32582
G1 X1.745 Y-11.825 E5.37271
G1 X2.195 Y-11.735 E5.39782
G1 X3.055 Y-11.505 E5.44652
G1 X3.485 Y-11.355 E5.47144
G1 X4.195 Y-11.055 E5.51361
G1 X4.605 Y-10.855 E5.53857
G1 X5.425 Y-10.385 E5.59028
G1 X5.805 Y-10.125 E5.61547
G1 X6.365 Y-9.695 E5.65410
G1 X6.715 Y-9.395 E5.67932
G1 X7.355 Y-8.765 E5.72846
G1 X7.655 Y-8.425 E5.75327
G1 X8.205 Y-7.695 E5.80327
G1 X8.455 Y-7.315 E5.82816
G1 X8.815 Y-6.705 E5.86691
G1 X9.025 Y-6.295 E5.89212
G1 X9.425 Y-5.305 E5.95054
G1 X9.565 Y-4.865 E5.97580
G1 X9.745 Y-4.175 E6.01481
G1 X9.835 Y-3.725 E6.03992
G1 X9.945 Y-2.885 E6.08627
G1 X9.975 Y-2.435 E6.11095
G1 X9.975 Y-1.585 E6.15745
G1 X9.945 Y-1.125 E6.18267
G1 X9.835 Y-0.275 E6.22957
G1 X9.745 Y0.175 E6.25468
G1 X9.555 Y0.915 E6.29648
G1 X9.415 Y1.345 E6.32122
G1 X9.025 Y2.285 E6.37690
G1 X8.815 Y2.695 E6.40210
G1 X8.455 Y3.305 E6.44085
G1 X8.205 Y3.685 E6.46574
G1 X7.645 Y4.425 E6.51651
G1 X7.335 Y4.775 E6.54209
G1 X6.775 Y5.335 E6.58542
G1 X6.435 Y5.635 E6.61023
G1 X5.705 Y6.185 E6.66024
G1 X5.325 Y6.435 E6.68513
G1 X4.715 Y6.795 E6.72388
G1 X4.305 Y7.005 E6.74908
G1 X3.365 Y7.395 E6.80476
G1 X2.935 Y7.535 E6.82951
G1 X2.195 Y7.725 E6.87131
G1 X1.745 Y7.815 E6.89641
G1 X0.895 Y7.925 E6.94331
G1 X0.435 Y7.955 E6.96853
G1 X-0.343 Y7.955 E7.01111
G1 X0.024 Y0.293 F7200.000
G1 X-0.275 Y0.273 E7.02750 F720.000
G1 X-0.569 Y0.215 E7.04389
G1 X-0.853 Y0.119 E7.06028
G1 X-1.122 Y-0.014 E7.07667
G1 X-1.371 Y-0.180 E7.09306
G1 X-1.596 Y-0.378 E7.10945
G1 X-1.793 Y-0.603 E7.12584
G1 X-1.960 Y-0.852 E7.14224
G1 X-2.092 Y-1.121 E7.15863
G1 X-2.189 Y-1.405 E7.17502
G1 X-2.247 Y-1.698 E7.19141
G1 X-2.267 Y-1.997 E7.20780
G1 X-2.247 Y-2.296 E7.22419
G1 X-2.189 Y-2.590 E7.24058
G1 X-2.092 Y-2.874 E7.25697
G1 X-1.960 Y-3.142 E7.27337
G1 X-1.793 Y-3.392 E7.28976
G1 X-1.596 Y-3.617 E7.30615
G1 X-1.371 Y-3.814 E7.32254
G1 X-1.122 Y-3.981 E7.33893
G1 X-0.853 Y-4.113 E7.35532
G1 X-0.569 Y-4.210 E7.37171
G1 X-0.275 Y-4.268 E7.38810
G1 X0.024 Y-4.288 E7.40449
G1 X0.323 Y-4.268 E7.42089
G1 X0.616 Y-4.210 E7.43728
G1 X0.900 Y-4.113 E7.45367
G1 X1.169 Y-3.981 E7.47006
G1 X1.418 Y-3.814 E7.48645
G1 X1.643 Y-3.617 E7.50284
G1 X1.841 Y-3.392 E7.51923
G1 X2.007 Y-3.142 E7.53563
G1 X2.140 Y-2.874 E7.55201
G1 X2.236 Y-2.590 E7.56841
G1 X2.294 Y-2.296 E7.58480
G1 X2.314 Y-1.997 E7.60119
G1 X2.294 Y-1.698 E7.61758
G1 X2.236 Y-1.405 E7.63397
G1 X2.140 Y-1.121 E7.65036
G1 X2.007 Y-0.852 E7.66675
G1 X1.841 Y-0.603 E7.68315
G1 X1.643 Y-0.378 E7.69954
G1 X1.418 Y-0.180 E7.71593
G1 X1.169 Y-0.014 E7.73232
G1 X0.900 Y0.119 E7.74871
G1 X0.616 Y0.215 E7.76510
G1 X0.323 Y0.273 E7.78149
G1 X0.095 Y0.288 E7.79396
G1 X0.024 Y0.773 F7200.000
G1 X-0.338 Y0.749 E7.81378 F720.000
G1 X-0.693 Y0.678 E7.83360
G1 X-1.036 Y0.562 E7.85343
G1 X-1.361 Y0.402 E7.87325
G1 X-1.663 Y0.200 E7.89307
G1 X-1.935 Y-0.039 E7.91290
G1 X-2.174 Y-0.311 E7.93272
G1 X-2.375 Y-0.612 E7.95254
G1 X-2.535 Y-0.937 E7.97237
G1 X-2.652 Y-1.280 E7.99219
G1 X-2.723 Y-1.636 E8.01201
G1 X-2.746 Y-1.997 E8.03184
G1 X-2.723 Y-2.359 E8.05166
G1 X-2.652 Y-2.714 E8.07148
G1 X-2.535 Y-3.057 E8.09131
G1 X-2.375 Y-3.382 E8.11113
G1 X-2.174 Y-3.683 E8.13095
G1 X-1.935 Y-3.956 E8.15078
G1 X-1.663 Y-4.195 E8.17060
G1 X-1.361 Y-4.396 E8.19042
G1 X-1.036 Y-4.556 E8.21025
G1 X-0.693 Y-4.673 E8.23007
G1 X-0.338 Y-4.743 E8.24989
G1 X0.024 Y-4.767 E8.26972
G1 X0.385 Y-4.743 E8.28954
G1 X0.741 Y-4.673 E8.30937
G1 X1.084 Y-4.556 E8.32919
G1 X1.409 Y-4.396 E8.34901
G1 X1.710 Y-4.195 E8.36883
G1 X1.982 Y-3.956 E8.38866
G1 X2.221 Y-3.683 E8.40848
G1 X2.422 Y-3.382 E8.42830
G1 X2.583 Y-3.057 E8.44813
G1 X2.699 Y-2.714 E8.46795
G1 X2.770 Y-2.359 E8.48777
G1 X2.794 Y-1.997 E8.50760
G1 X2.770 Y-1.636 E8.52742
G1 X2.699 Y-1.280 E8.54724
G1 X2.583 Y-0.937 E8.56707
G1 X2.422 Y-0.612 E8.58689
G1 X2.221 Y-0.311 E8.60671
G1 X1.982 Y-0.039 E8.62654
G1 X1.710 Y0.200 E8.64636
G1 X1.409 Y0.402 E8.66618
G1 X1.084 Y0.562 E8.68601
G1 X0.741 Y0.678 E8.70583
G1 X0.385 Y0.749 E8.72565
G1 X0.095 Y0.768 E8.74155
G1 X0.024 Y1.252 F7200.000
G1 X-0.400 Y1.224 E8.76480 F720.000
G1 X-0.817 Y1.141 E8.78806
G1 X-1.220 Y1.005 E8.81132
G1 X-1.601 Y0.817 E8.83457
G1 X-1.954 Y0.581 E8.85783
G1 X-2.274 Y0.300 E8.88108
G1 X-2.554 Y-0.019 E8.90434
G1 X-2.790 Y-0.373 E8.92759
G1 X-2.978 Y-0.754 E8.95085
G1 X-3.115 Y-1.156 E8.97410
G1 X-3.198 Y-1.573 E8.99736
G1 X-3.226 Y-1.997 E9.02062
G1 X-3.198 Y-2.421 E9.04387
G1 X-3.115 Y-2.838 E9.06713
G1 X-2.978 Y-3.241 E9.09038
G1 X-2.790 Y-3.622 E9.11364
G1 X-2.554 Y-3.975 E9.13689
G1 X-2.274 Y-4.295 E9.16015
G1 X-1.954 Y-4.575 E9.18340
G1 X-1.601 Y-4.811 E9.20666
G1 X-1.220 Y-4.999 E9.22991
G1 X-0.817 Y-5.136 E9.25317
G1 X-0.400 Y-5.219 E9.27643
G1 X0.024 Y-5.247 E9.29968
G1 X0.448 Y-5.219 E9.32294
G1 X0.865 Y-5.136 E9.34619
G1 X1.267 Y-4.999 E9.36945
G1 X1.648 Y-4.811 E9.39270
G1 X2.002 Y-4.575 E9.41596
G1 X2.321 Y-4.295 E9.43921
G1 X2.602 Y-3.975 E9.46247
G1 X2.838 Y-3.622 E9.48572
G1 X3.026 Y-3.241 E9.50898
G1 X3.162 Y-2.838 E9.53223
G1 X3.245 Y-2.421 E9.55549
G1 X3.273 Y-1.997 E9.57874
G1 X3.245 Y-1.573 E9.60200
G1 X3.162 Y-1.156 E9.62526
G1 X3.026 Y-0.754 E9.64851
G1 X2.838 Y-0.373 E9.67177
G1 X2.602 Y-0.019 E9.69502
G1 X2.321 Y0.300 E9.71828
G1 X2.002 Y0.581 E9.74153
G1 X1.648 Y0.817 E9.76479
G1 X1.267 Y1.005 E9.78804
G1 X0.865 Y1.141 E9.81130
G1 X0.448 Y1.224 E9.83455
G1 X0.095 Y1.247 E9.85388
G1 X-0.181 Y0.880 F7200.000
G1 X-1.142 Y-0.415 F7200.000
G1 X-1.558 Y-0.832 E9.88659 F1200.000
G1 X-1.937 Y-1.897 F7200.000
G1 X-0.076 Y-0.037 E10.03268 F1200.000
G1 X0.546 Y-0.102 E10.06740
G1 X-1.872 Y-2.519 E10.25725
G1 X-1.667 Y-3.001 E10.28631
G1 X1.027 Y-0.307 E10.49783
G1 X1.397 Y-0.624 E10.52488
G1 X-1.350 Y-3.371 E10.74062
G1 X-0.980 Y-3.687 E10.76767
G1 X1.714 Y-0.994 E10.97919
G1 X1.919 Y-1.475 E11.00825
G1 X-0.498 Y-3.893 E11.19809
G1 X0.124 Y-3.958 E11.23282
G1 X1.984 Y-2.097 E11.37891
G1 X1.606 Y-3.163 F7200.000
G1 X1.189 Y-3.579 E11.41161 F1200.000
M106 S255
M104 S185 ; set temperature
M140 S56 ; set bed temperature
M204 S9000
G1 Z0.500 F7200.000
G1 X1.542 Y-3.843 F7200.000
M204 S9000
G1 X1.788 Y-3.628 E11.42655 F600.000
G1 X2.003 Y-3.382 E11.44149
G1 X2.185 Y-3.111 E11.45643
G1 X2.330 Y-2.818 E11.47138
G1 X2.435 Y-2.508 E11.48632
G1 X2.498 Y-2.188 E11.50126
G1 X2.520 Y-1.862 E11.51620
G1 X2.498 Y-1.536 E11.53115
G1 X2.435 Y-1.215 E11.54609
G1 X2.330 Y-0.906 E11.56103
G1 X2.185 Y-0.613 E11.57597
G1 X2.003 Y-0.341 E11.59092
G1 X1.788 Y-0.096 E11.60586
G1 X1.542 Y0.120 E11.62080
G1 X1.271 Y0.301 E11.63574
G1 X0.978 Y0.446 E11.65069
G1 X0.668 Y0.551 E11.66563
G1 X0.348 Y0.615 E11.68057
G1 X0.022 Y0.636 E11.69551
G1 X-0.304 Y0.615 E11.71046
G1 X-0.625 Y0.551 E11.72540
G1 X-0.934 Y0.446 E11.74034
G1 X-1.227 Y0.301 E11.75528
G1 X-1.499 Y0.120 E11.77023
G1 X-1.744 Y-0.096 E11.78517
G1 X-1.960 Y-0.341 E11.80011
G1 X-2.141 Y-0.613 E11.81505
G1 X-2.286 Y-0.906 E11.83000
G1 X-2.391 Y-1.215 E11.84494
G1 X-2.455 Y-1.536 E11.85988
G1 X-2.476 Y-1.862 E11.87482
G1 X-2.455 Y-2.188 E11.88977
G1 X-2.391 Y-2.508 E11.90471
G1 X-2.286 Y-2.818 E11.91965
G1 X-2.141 Y-3.111 E11.93459
G1 X-1.960 Y-3.382 E11.94954
G1 X-1.744 Y-3.628 E11.96448
G1 X-1.499 Y-3.843 E11.97942
G1 X-1.227 Y-4.025 E11.99436
G1 X-0.934 Y-4.170 E12.00931
G1 X-0.625 Y-4.275 E12.02425
G1 X-0.304 Y-4.338 E12.03919
G1 X0.022 Y-4.360 E12.05413
G1 X0.348 Y-4.338 E12.06908
G1 X0.668 Y-4.275 E12.08402
G1 X0.978 Y-4.170 E12.09896
G1 X1.271 Y-4.025 E12.11390
G1 X1.493 Y-3.877 E12.12610
M204 S9000
G1 X1.786 Y-4.161 F7200.000
M204 S9000
G1 X2.071 Y-3.911 E12.14344 F600.000
G1 X2.321 Y-3.626 E12.16078
G1 X2.532 Y-3.311 E12.17812
G1 X2.700 Y-2.971 E12.19546
G1 X2.822 Y-2.612 E12.21280
G1 X2.896 Y-2.240 E12.23015
G1 X2.920 Y-1.862 E12.24748
G1 X2.896 Y-1.483 E12.26483
G1 X2.822 Y-1.112 E12.28217
G1 X2.700 Y-0.752 E12.29951
G1 X2.532 Y-0.412 E12.31685
G1 X2.321 Y-0.097 E12.33419
G1 X2.072 Y0.188 E12.35153
G1 X1.786 Y0.438 E12.36887
G1 X1.471 Y0.649 E12.38621
G1 X1.131 Y0.816 E12.40355
G1 X0.772 Y0.938 E12.42089
G1 X0.400 Y1.012 E12.43823
G1 X0.022 Y1.037 E12.45557
G1 X-0.357 Y1.012 E12.47291
G1 X-0.728 Y0.938 E12.49025
G1 X-1.088 Y0.816 E12.50759
G1 X-1.428 Y0.649 E12.52493
G1 X-1.743 Y0.438 E12.54227
G1 X-2.028 Y0.188 E12.55961
G1 X-2.278 Y-0.097 E12.57695
G1 X-2.489 Y-0.412 E12.59429
G1 X-2.656 Y-0.752 E12.61163
G1 X-2.778 Y-1.112 E12.62897
G1 X-2.852 Y-1.483 E12.64632
G1 X-2.877 Y-1.862 E12.66366
G1 X-2.852 Y-2.240 E12.68100
G1 X-2.778 Y-2.612 E12.69834
G1 X-2.656 Y-2.971 E12.71568
G1 X-2.489 Y-3.311 E12.73302
G1 X-2.278 Y-3.626 E12.75036
G1 X-2.028 Y-3.911 E12.76770
G1 X-1.743 Y-4.161 E12.78504
G1 X-1.428 Y-4.372 E12.80238
G1 X-1.087 Y-4.540 E12.81972
G1 X-0.728 Y-4.662 E12.83706
G1 X-0.357 Y-4.736 E12.85440
G1 X0.022 Y-4.760 E12.87174
G1 X0.400 Y-4.736 E12.88908
G1 X0.772 Y-4.662 E12.90642
G1 X1.131 Y-4.540 E12.92376
G1 X1.471 Y-4.372 E12.94110
G1 X1.737 Y-4.195 E12.95570
M204 S9000
G1 X2.030 Y-4.480 F7200.000
M204 S9000
G1 X2.355 Y-4.195 E12.97544 F600.000
G1 X2.640 Y-3.870 E12.99518
G1 X2.879 Y-3.512 E13.01491
G1 X3.070 Y-3.124 E13.03465
G1 X3.209 Y-2.716 E13.05439
G1 X3.293 Y-2.292 E13.07413
G1 X3.321 Y-1.862 E13.09387
G1 X3.293 Y-1.431 E13.11361
G1 X3.209 Y-1.008 E13.13335
G1 X3.070 Y-0.599 E13.15308
G1 X2.879 Y-0.212 E13.17282
G1 X2.639 Y0.147 E13.19256
G1 X2.355 Y0.471 E13.21230
G1 X2.030 Y0.756 E13.23204
G1 X1.672 Y0.996 E13.25177
G1 X1.285 Y1.187 E13.27151
G1 X0.876 Y1.325 E13.29125
G1 X0.452 Y1.410 E13.31099
G1 X0.022 Y1.438 E13.33073
G1 X-0.409 Y1.410 E13.35047
G1 X-0.832 Y1.325 E13.37021
G1 X-1.241 Y1.187 E13.38994
G1 X-1.628 Y0.996 E13.40968
G1 X-1.987 Y0.756 E13.42942
G1 X-2.311 Y0.471 E13.44916
G1 X-2.596 Y0.147 E13.46890
G1 X-2.836 Y-0.212 E13.48864
G1 X-3.027 Y-0.599 E13.50837
G1 X-3.165 Y-1.008 E13.52811
G1 X-3.250 Y-1.431 E13.54785
G1 X-3.278 Y-1.862 E13.56759
G1 X-3.250 Y-2.292 E13.58733
G1 X-3.165 Y-2.716 E13.60707
G1 X-3.027 Y-3.124 E13.62681
G1 X-2.836 Y-3.512 E13.64654
G1 X-2.596 Y-3.870 E13.66628
G1 X-2.311 Y-4.195 E13.68602
G1 X-1.987 Y-4.480 E13.70576
G1 X-1.628 Y-4.719 E13.72550
G1 X-1.241 Y-4.910 E13.74524
G1 X-0.832 Y-5.049 E13.76497
G1 X-0.409 Y-5.133 E13.78471
G1 X0.022 Y-5.161 E13.80445
G1 X0.452 Y-5.133 E13.82419
G1 X0.876 Y-5.049 E13.84393
G1 X1.284 Y-4.910 E13.86367
G1 X1.672 Y-4.719 E13.88341
G1 X1.981 Y-4.513 E13.90040
M204 S9000
G1 X1.970 Y-4.084 F7200.000
G1 X-0.091 Y-4.066 F7200.000
M204 S9000
G1 X-2.182 Y-1.974 E14.08506 F600.000
G1 X-2.109 Y-1.275 E14.12895
G1 X0.609 Y-3.993 E14.36892
G1 X1.150 Y-3.762 E14.40566
G1 X-1.878 Y-0.734 E14.67302
G1 X-1.523 Y-0.317 E14.70721
G1 X1.566 Y-3.406 E14.97991
G1 X1.922 Y-2.990 E15.01410
G1 X-1.106 Y0.038 E15.28146
G1 X-0.565 Y0.269 E15.31819
G1 X2.153 Y-2.449 E15.55816
G1 X2.226 Y-1.749 E15.60205
G1 X0.134 Y0.342 E15.78671
M204 S9000
G1 X1.332 Y-0.083 F7200.000
M204 S9000
G1 X1.800 Y-0.551 E15.82804 F600.000
M204 S9000
G1 X-1.288 Y-3.640 F7200.000
M204 S9000
G1 X-1.757 Y-3.172 E15.86938 F600.000
M204 S9000
G1 Z0.750 F7200.000
G1 X-1.962 Y-3.247 F7200.000
M204 S9000
G1 X-1.746 Y-3.492 E15.88432 F600.000
G1 X-1.501 Y-3.708 E15.89927
G1 X-1.229 Y-3.889 E15.91421
G1 X-0.936 Y-4.034 E15.92915
G1 X-0.627 Y-4.139 E15.94409
G1 X-0.306 Y-4.203 E15.95904
