; generated by Slic3r 1.0.0RC2 on 2014-02-19 at 18:13:24

; layer_height = 0.25
; perimeters = 2
; top_solid_layers = 3
; bottom_solid_layers = 3
; fill_density = 0
; perimeter_speed = 80
; infill_speed = 60
; travel_speed = 120
; nozzle_diameter = 0.4
; filament_diameter = 1.75
; extrusion_multiplier = 1.0
; perimeters extrusion width = 0.40mm
; infill extrusion width = 0.53mm
; solid infill extrusion width = 0.53mm
; top infill extrusion width = 0.53mm
; first layer extrusion width = 0.50mm

G21 ; set units to millimeters
M107
M190 S60 ; wait for bed temperature to be reached
M104 S190 ; set temperature
G28 ; home all axes
G1 Z5 F5000 ; lift nozzle
M207 S1 F30 Z1
M208 S1 F30
M109 S190 ; wait for temperature to be reached
G90 ; use absolute coordinates
G92 E0
M82 ; use absolute distances for extrusion
M204 S9000
G1 Z0.250 F7200.000
G1 X23.270 Y-18.268 F7200.000
G1 X23.250 Y18.302 E1.81893 F1920.000
G1 X23.220 Y18.932 E1.85031
G1 X22.960 Y21.812 E1.99413
G1 X22.820 Y22.692 E2.03846
G1 X22.680 Y23.292 E2.06910
G1 X21.830 Y26.242 E2.22180
G1 X21.600 Y26.892 E2.25609
G1 X21.320 Y27.512 E2.28993
G1 X19.810 Y30.422 E2.45299
G1 X19.450 Y31.032 E2.48822
G1 X19.030 Y31.602 E2.52344
G1 X16.920 Y34.202 E2.68999
G1 X16.450 Y34.732 E2.72522
G1 X15.920 Y35.212 E2.76079
G1 X13.320 Y37.332 E2.92765
G1 X12.740 Y37.762 E2.96356
G1 X12.120 Y38.122 E2.99922
G1 X9.200 Y39.632 E3.16272
G1 X8.570 Y39.912 E3.19701
G1 X7.920 Y40.142 E3.23131
G1 X4.890 Y41.012 E3.38810
G1 X4.260 Y41.162 E3.42032
G1 X3.620 Y41.252 E3.45246
G1 X0.640 Y41.532 E3.60134
G1 X-0.010 Y41.562 E3.63370
G1 X-0.660 Y41.532 E3.66606
G1 X-3.630 Y41.252 E3.81444
G1 X-4.270 Y41.162 E3.84659
G1 X-4.900 Y41.012 E3.87880
G1 X-7.930 Y40.142 E4.03560
G1 X-8.580 Y39.912 E4.06989
G1 X-9.210 Y39.632 E4.10418
G1 X-12.130 Y38.122 E4.26769
G1 X-12.750 Y37.762 E4.30335
G1 X-13.330 Y37.332 E4.33926
G1 X-15.930 Y35.212 E4.50612
G1 X-16.460 Y34.732 E4.54168
G1 X-16.930 Y34.202 E4.57692
G1 X-19.040 Y31.602 E4.74346
G1 X-19.460 Y31.042 E4.77828
G1 X-19.810 Y30.432 E4.81326
G1 X-21.280 Y27.602 E4.97188
G1 X-21.660 Y26.732 E5.01910
G1 X-21.860 Y26.142 E5.05008
G1 X-22.710 Y23.202 E5.20230
G1 X-22.870 Y22.562 E5.23512
G1 X-22.960 Y21.902 E5.26825
G1 X-23.230 Y18.932 E5.41658
G1 X-23.260 Y18.302 E5.44795
G1 X-23.280 Y-18.268 E7.26688
G1 X-23.190 Y-20.168 E7.36149
G1 X-23.040 Y-21.538 E7.43004
G1 X-22.870 Y-22.598 E7.48344
G1 X-22.730 Y-23.308 E7.51943
G1 X-22.330 Y-24.828 E7.59761
G1 X-22.110 Y-25.538 E7.63458
G1 X-21.720 Y-26.638 E7.69263
G1 X-21.140 Y-27.998 E7.76617
G1 X-20.760 Y-28.788 E7.80977
G1 X-20.230 Y-29.778 E7.86563
G1 X-19.550 Y-30.888 E7.93037
G1 X-18.750 Y-32.048 E8.00046
G1 X-17.970 Y-33.058 E8.06393
G1 X-17.460 Y-33.658 E8.10310
G1 X-16.340 Y-34.828 E8.18366
G1 X-15.400 Y-35.718 E8.24804
G1 X-14.800 Y-36.228 E8.28721
G1 X-13.520 Y-37.198 E8.36709
G1 X-12.630 Y-37.808 E8.42076
G1 X-11.880 Y-38.278 E8.46478
G1 X-10.530 Y-39.018 E8.54135
G1 X-9.740 Y-39.398 E8.58496
G1 X-8.380 Y-39.978 E8.65850
G1 X-7.280 Y-40.368 E8.71655
G1 X-6.570 Y-40.588 E8.75352
G1 X-5.050 Y-40.988 E8.83169
G1 X-4.340 Y-41.128 E8.86769
G1 X-2.970 Y-41.338 E8.93662
G1 X-1.910 Y-41.448 E8.98963
G1 X-0.890 Y-41.508 E9.04045
G1 X0.190 Y-41.528 E9.09418
G1 X1.100 Y-41.498 E9.13946
G1 X2.260 Y-41.418 E9.19730
G1 X2.960 Y-41.338 E9.23234
G1 X4.080 Y-41.168 E9.28869
G1 X5.040 Y-40.978 E9.33736
G1 X6.560 Y-40.588 E9.41541
G1 X7.270 Y-40.368 E9.45238
G1 X8.370 Y-39.978 E9.51043
G1 X9.730 Y-39.398 E9.58397
G1 X10.520 Y-39.018 E9.62757
G1 X11.870 Y-38.278 E9.70415
G1 X12.620 Y-37.808 E9.74817
G1 X13.510 Y-37.198 E9.80184
G1 X14.790 Y-36.228 E9.88172
G1 X15.390 Y-35.718 E9.92089
G1 X16.330 Y-34.828 E9.98527
G1 X17.450 Y-33.658 E10.06583
G1 X17.960 Y-33.058 E10.10500
G1 X18.740 Y-32.048 E10.16847
G1 X19.540 Y-30.888 E10.23856
G1 X20.010 Y-30.138 E10.28258
G1 X20.590 Y-29.098 E10.34181
G1 X21.130 Y-27.998 E10.40276
G1 X21.540 Y-27.058 E10.45377
G1 X21.710 Y-26.638 E10.47630
G1 X22.100 Y-25.538 E10.53435
G1 X22.320 Y-24.828 E10.57132
G1 X22.600 Y-23.778 E10.62537
G1 X22.720 Y-23.308 E10.64950
G1 X22.860 Y-22.598 E10.68550
G1 X23.030 Y-21.538 E10.73889
G1 X23.150 Y-20.528 E10.78948
G1 X23.230 Y-19.368 E10.84731
G1 X23.267 Y-18.340 E10.89849
G1 X22.790 Y-18.268 F7200.000
G1 X22.770 Y18.302 E12.71743 F1920.000
G1 X22.740 Y18.882 E12.74631
G1 X22.480 Y21.762 E12.89014
G1 X22.350 Y22.592 E12.93193
G1 X22.220 Y23.152 E12.96052
G1 X21.370 Y26.102 E13.11322
G1 X21.160 Y26.712 E13.14531
G1 X20.890 Y27.292 E13.17713
G1 X19.380 Y30.202 E13.34020
G1 X19.050 Y30.772 E13.37296
G1 X18.660 Y31.302 E13.40568
G1 X16.550 Y33.902 E13.57223
G1 X16.110 Y34.402 E13.60536
G1 X15.610 Y34.842 E13.63849
G1 X13.010 Y36.962 E13.80535
G1 X12.470 Y37.362 E13.83877
G1 X11.900 Y37.692 E13.87153
G1 X8.980 Y39.202 E14.03504
G1 X8.390 Y39.472 E14.06731
G1 X7.790 Y39.682 E14.09893
G1 X4.760 Y40.552 E14.25572
G1 X4.170 Y40.692 E14.28589
G1 X3.580 Y40.772 E14.31550
G1 X0.600 Y41.052 E14.46437
G1 X-0.010 Y41.082 E14.49475
G1 X-0.620 Y41.052 E14.52513
G1 X-3.590 Y40.772 E14.67351
G1 X-4.180 Y40.692 E14.70312
G1 X-4.770 Y40.552 E14.73328
G1 X-7.800 Y39.682 E14.89008
G1 X-8.400 Y39.472 E14.92170
G1 X-8.990 Y39.202 E14.95397
G1 X-11.910 Y37.692 E15.11747
G1 X-12.480 Y37.362 E15.15023
G1 X-13.020 Y36.962 E15.18366
G1 X-15.620 Y34.842 E15.35052
G1 X-16.120 Y34.402 E15.38365
G1 X-16.560 Y33.902 E15.41677
G1 X-18.670 Y31.302 E15.58332
G1 X-19.060 Y30.772 E15.61605
G1 X-19.390 Y30.212 E15.64838
G1 X-20.860 Y27.382 E15.80700
G1 X-21.220 Y26.562 E15.85154
G1 X-21.400 Y26.012 E15.88032
G1 X-22.250 Y23.072 E16.03254
G1 X-22.400 Y22.472 E16.06330
G1 X-22.480 Y21.862 E16.09390
G1 X-22.750 Y18.892 E16.24224
G1 X-22.780 Y18.302 E16.27162
G1 X-22.800 Y-18.458 E18.10001
G1 X-22.720 Y-20.138 E18.18366
G1 X-22.570 Y-21.468 E18.25023
G1 X-22.440 Y-22.278 E18.29104
G1 X-22.260 Y-23.208 E18.33815
G1 X-21.870 Y-24.688 E18.41428
G1 X-21.650 Y-25.398 E18.45125
G1 X-21.270 Y-26.468 E18.50772
G1 X-20.710 Y-27.788 E18.57904
G1 X-20.330 Y-28.578 E18.62265
G1 X-19.810 Y-29.548 E18.67739
G1 X-19.140 Y-30.638 E18.74103
G1 X-18.370 Y-31.758 E18.80863
G1 X-17.610 Y-32.748 E18.87071
G1 X-17.100 Y-33.348 E18.90987
G1 X-16.010 Y-34.488 E18.98832
G1 X-15.090 Y-35.358 E19.05130
G1 X-14.490 Y-35.868 E19.09047
G1 X-13.250 Y-36.808 E19.16786
G1 X-12.380 Y-37.398 E19.22015
G1 X-11.290 Y-38.068 E19.28379
G1 X-10.320 Y-38.588 E19.33853
G1 X-9.530 Y-38.968 E19.38213
G1 X-8.210 Y-39.528 E19.45345
G1 X-7.140 Y-39.908 E19.50993
G1 X-6.430 Y-40.128 E19.54690
G1 X-4.950 Y-40.518 E19.62302
G1 X-4.020 Y-40.698 E19.67014
G1 X-2.920 Y-40.868 E19.72550
G1 X-1.880 Y-40.978 E19.77752
G1 X-0.870 Y-41.038 E19.82784
G1 X-0.200 Y-41.058 E19.86118
G1 X0.860 Y-41.038 E19.91391
G1 X1.870 Y-40.978 E19.96424
G1 X2.910 Y-40.868 E20.01625
G1 X4.010 Y-40.698 E20.07161
G1 X4.950 Y-40.508 E20.11931
G1 X5.360 Y-40.418 E20.14019
G1 X6.420 Y-40.128 E20.19485
G1 X7.130 Y-39.908 E20.23182
G1 X8.200 Y-39.528 E20.28830
G1 X9.520 Y-38.968 E20.35962
G1 X10.310 Y-38.588 E20.40322
G1 X11.620 Y-37.868 E20.47757
G1 X12.600 Y-37.248 E20.53525
G1 X13.240 Y-36.808 E20.57388
G1 X14.480 Y-35.868 E20.65127
G1 X15.080 Y-35.358 E20.69044
G1 X16.000 Y-34.488 E20.75342
G1 X17.090 Y-33.348 E20.83187
G1 X17.600 Y-32.748 E20.87104
G1 X18.360 Y-31.758 E20.93312
G1 X18.980 Y-30.868 E20.98707
G1 X19.600 Y-29.888 E21.04474
G1 X20.320 Y-28.578 E21.11910
G1 X20.700 Y-27.788 E21.16270
G1 X21.100 Y-26.868 E21.21260
G1 X21.640 Y-25.398 E21.29049
G1 X21.860 Y-24.688 E21.32746
G1 X22.140 Y-23.658 E21.38055
G1 X22.250 Y-23.208 E21.40359
G1 X22.430 Y-22.278 E21.45070
G1 X22.560 Y-21.468 E21.49151
G1 X22.680 Y-20.478 E21.54111
G1 X22.760 Y-19.338 E21.59795
G1 X22.790 Y-18.340 E21.64762
G1 X8.518 Y5.283 F7200.000
G1 X11.007 Y7.304 E21.80712 F1920.000
G1 X13.028 Y9.793 E21.96657
G1 X14.461 Y12.559 E22.12154
G1 X15.311 Y15.526 E22.27506
G1 X15.565 Y18.297 E22.41342
G1 X15.286 Y21.199 E22.55844
G1 X14.470 Y24.036 E22.70529
G1 X13.025 Y26.825 E22.86152
G1 X11.003 Y29.314 E23.02102
G1 X8.515 Y31.336 E23.18047
G1 X5.728 Y32.779 E23.33657
G1 X2.834 Y33.611 E23.48636
G1 X0.002 Y33.871 E23.62779
G1 X-2.831 Y33.611 E23.76932
G1 X-5.729 Y32.778 E23.91928
G1 X-8.518 Y31.333 E24.07552
G1 X-11.007 Y29.311 E24.23501
G1 X-13.024 Y26.827 E24.39416
G1 X-14.488 Y23.981 E24.55337
G1 X-15.304 Y21.142 E24.70029
G1 X-15.564 Y18.310 E24.84173
G1 X-15.304 Y15.477 E24.98326
G1 X-14.470 Y12.579 E25.13321
G1 X-13.025 Y9.790 E25.28945
G1 X-11.003 Y7.301 E25.44894
G1 X-8.515 Y5.280 E25.60840
G1 X-5.735 Y3.839 E25.76415
G1 X-2.891 Y3.022 E25.91130
G1 X-0.002 Y2.744 E26.05565
G1 X2.831 Y3.004 E26.19718
G1 X5.729 Y3.838 E26.34714
G1 X8.454 Y5.250 E26.49980
G1 X8.783 Y4.881 F7200.000
G1 X11.345 Y6.963 E26.66403 F1344.000
G1 X13.427 Y9.526 E26.82825
G1 X14.913 Y12.390 E26.98875
G1 X15.783 Y15.438 E27.14638
G1 X16.046 Y18.297 E27.28918
G1 X15.784 Y21.148 E27.43160
G1 X15.751 Y21.312 E27.43991
G1 X14.916 Y24.219 E27.59034
G1 X13.427 Y27.091 E27.75124
G1 X11.345 Y29.653 E27.91547
G1 X8.782 Y31.735 E28.07969
G1 X5.911 Y33.224 E28.24055
G1 X2.924 Y34.083 E28.39513
G1 X0.001 Y34.352 E28.54115
G1 X-2.923 Y34.083 E28.68721
G1 X-5.911 Y33.223 E28.84184
G1 X-8.783 Y31.734 E29.00274
G1 X-11.345 Y29.652 E29.16697
G1 X-13.426 Y27.091 E29.33111
G1 X-14.877 Y24.292 E29.48790
G1 X-14.940 Y24.139 E29.49615
G1 X-15.776 Y21.232 E29.64658
G1 X-16.044 Y18.309 E29.79261
G1 X-15.776 Y15.384 E29.93867
G1 X-14.916 Y12.397 E30.09330
G1 X-13.427 Y9.525 E30.25420
G1 X-11.345 Y6.962 E30.41843
G1 X-8.782 Y4.880 E30.58265
G1 X-5.912 Y3.393 E30.74342
G1 X-3.004 Y2.556 E30.89394
G1 X-2.840 Y2.524 E30.90224
G1 X-0.001 Y2.263 E31.04407
G1 X2.923 Y2.532 E31.19013
G1 X5.911 Y3.392 E31.34476
G1 X8.719 Y4.848 E31.50209
G1 X8.740 Y5.358 F7200.000
G1 X5.668 Y-3.744 F7200.000
G1 X4.979 Y-3.491 E31.53863 F1920.000
G1 X4.309 Y-3.281 E31.57355
G1 X3.523 Y-3.078 E31.61391
G1 X2.855 Y-2.937 E31.64786
G1 X2.072 Y-2.813 E31.68731
G1 X1.416 Y-2.738 E31.72013
G1 X0.644 Y-2.688 E31.75862
G1 X-0.000 Y-2.673 E31.79066
G1 X-0.651 Y-2.688 E31.82303
G1 X-1.410 Y-2.737 E31.86086
G1 X-2.076 Y-2.813 E31.89423
G1 X-2.851 Y-2.936 E31.93324
G1 X-3.526 Y-3.078 E31.96758
G1 X-4.305 Y-3.280 E32.00761
G1 X-4.982 Y-3.492 E32.04285
G1 X-5.753 Y-3.774 E32.08372
G1 X-6.420 Y-4.058 E32.11976
G1 X-7.172 Y-4.422 E32.16130
G1 X-7.819 Y-4.777 E32.19801
G1 X-8.538 Y-5.220 E32.24002
G1 X-9.154 Y-5.646 E32.27725
G1 X-9.828 Y-6.163 E32.31952
G1 X-10.402 Y-6.654 E32.35709
G1 X-11.014 Y-7.232 E32.39899
G1 X-11.610 Y-7.863 E32.44215
G1 X-12.092 Y-8.426 E32.47897
G1 X-12.617 Y-9.110 E32.52190
G1 X-13.036 Y-9.717 E32.55855
G1 X-13.484 Y-10.444 E32.60105
G1 X-13.835 Y-11.084 E32.63733
G1 X-14.202 Y-11.842 E32.67924
G1 X-14.483 Y-12.502 E32.71494
G1 X-14.768 Y-13.280 E32.75613
G1 X-14.978 Y-13.950 E32.79104
G1 X-15.181 Y-14.735 E32.83140
G1 X-15.321 Y-15.404 E32.86536
G1 X-15.446 Y-16.187 E32.90480
G1 X-15.521 Y-16.843 E32.93763
G1 X-15.571 Y-17.615 E32.97612
G1 X-15.585 Y-18.259 E33.00815
G1 X-15.571 Y-18.909 E33.04052
G1 X-15.521 Y-19.668 E33.07835
G1 X-15.446 Y-20.335 E33.11173
G1 X-15.322 Y-21.109 E33.15073
G1 X-15.180 Y-21.785 E33.18508
G1 X-14.979 Y-22.564 E33.22510
G1 X-14.767 Y-23.240 E33.26034
G1 X-14.484 Y-24.012 E33.30122
G1 X-14.201 Y-24.679 E33.33726
G1 X-13.837 Y-25.431 E33.37880
G1 X-13.481 Y-26.077 E33.41551
G1 X-13.038 Y-26.796 E33.45752
G1 X-12.613 Y-27.412 E33.49474
G1 X-12.096 Y-28.087 E33.53701
G1 X-11.605 Y-28.660 E33.57458
G1 X-11.026 Y-29.273 E33.61648
G1 X-10.395 Y-29.869 E33.65965
G1 X-9.833 Y-30.350 E33.69647
G1 X-9.148 Y-30.875 E33.73939
G1 X-8.542 Y-31.294 E33.77605
G1 X-7.814 Y-31.742 E33.81854
G1 X-7.175 Y-32.094 E33.85482
G1 X-6.417 Y-32.461 E33.89674
G1 X-5.756 Y-32.742 E33.93243
G1 X-4.979 Y-33.027 E33.97362
G1 X-4.305 Y-33.237 E34.00871
G1 X-3.526 Y-33.439 E34.04873
G1 X-2.855 Y-33.580 E34.08285
G1 X-2.072 Y-33.705 E34.12230
G1 X-1.416 Y-33.779 E34.15513
G1 X-0.644 Y-33.830 E34.19361
G1 X-0.000 Y-33.844 E34.22565
G1 X0.651 Y-33.829 E34.25802
G1 X1.410 Y-33.780 E34.29585
G1 X2.076 Y-33.704 E34.32923
G1 X2.851 Y-33.581 E34.36823
G1 X3.526 Y-33.439 E34.40257
G1 X4.305 Y-33.237 E34.44260
G1 X4.982 Y-33.026 E34.47784
G1 X5.753 Y-32.743 E34.51871
G1 X6.420 Y-32.459 E34.55475
G1 X7.172 Y-32.096 E34.59629
G1 X7.819 Y-31.740 E34.63300
G1 X8.538 Y-31.297 E34.67501
G1 X9.154 Y-30.872 E34.71224
G1 X9.828 Y-30.354 E34.75451
G1 X10.402 Y-29.863 E34.79208
G1 X11.014 Y-29.285 E34.83398
G1 X11.610 Y-28.654 E34.87714
G1 X12.092 Y-28.092 E34.91396
G1 X12.617 Y-27.407 E34.95689
G1 X13.036 Y-26.801 E34.99354
G1 X13.484 Y-26.073 E35.03604
G1 X13.835 Y-25.434 E35.07232
G1 X14.202 Y-24.675 E35.11423
G1 X14.483 Y-24.015 E35.14993
G1 X14.768 Y-23.237 E35.19112
G1 X14.978 Y-22.567 E35.22603
G1 X15.181 Y-21.782 E35.26639
G1 X15.321 Y-21.114 E35.30035
G1 X15.446 Y-20.331 E35.33979
G1 X15.521 Y-19.675 E35.37262
G1 X15.571 Y-18.903 E35.41111
G1 X15.585 Y-18.259 E35.44315
G1 X15.571 Y-17.608 E35.47551
G1 X15.521 Y-16.849 E35.51334
G1 X15.446 Y-16.182 E35.54672
G1 X15.322 Y-15.408 E35.58572
G1 X15.180 Y-14.732 E35.62007
G1 X14.979 Y-13.953 E35.66009
G1 X14.767 Y-13.277 E35.69533
G1 X14.484 Y-12.505 E35.73621
G1 X14.201 Y-11.839 E35.77225
G1 X13.837 Y-11.087 E35.81379
G1 X13.481 Y-10.440 E35.85050
G1 X13.038 Y-9.721 E35.89251
G1 X12.613 Y-9.105 E35.92973
G1 X12.096 Y-8.431 E35.97200
G1 X11.605 Y-7.857 E36.00957
G1 X11.026 Y-7.244 E36.05147
G1 X10.395 Y-6.648 E36.09464
G1 X9.833 Y-6.167 E36.13146
G1 X9.148 Y-5.642 E36.17438
G1 X8.542 Y-5.223 E36.21104
G1 X7.814 Y-4.775 E36.25354
G1 X7.175 Y-4.424 E36.28981
G1 X6.417 Y-4.056 E36.33173
G1 X5.736 Y-3.768 E36.36850
G1 X5.931 Y-3.330 F7200.000
G1 X5.133 Y-3.037 E36.41076 F1344.000
G1 X4.438 Y-2.820 E36.44695
G1 X3.633 Y-2.612 E36.48835
G1 X2.939 Y-2.466 E36.52358
G1 X2.137 Y-2.338 E36.56399
G1 X1.455 Y-2.261 E36.59814
G1 X0.665 Y-2.210 E36.63749
G1 X-0.000 Y-2.195 E36.67059
G1 X-0.668 Y-2.210 E36.70381
G1 X-1.453 Y-2.261 E36.74293
G1 X-2.138 Y-2.338 E36.77726
G1 X-2.938 Y-2.466 E36.81753
G1 X-3.634 Y-2.612 E36.85289
G1 X-4.437 Y-2.820 E36.89418
G1 X-5.134 Y-3.038 E36.93047
G1 X-5.930 Y-3.329 E36.97263
G1 X-6.616 Y-3.621 E37.00973
G1 X-7.392 Y-3.997 E37.05260
G1 X-8.057 Y-4.362 E37.09035
G1 X-8.800 Y-4.820 E37.13374
G1 X-9.432 Y-5.257 E37.17197
G1 X-10.130 Y-5.791 E37.21568
G1 X-10.718 Y-6.295 E37.25421
G1 X-11.357 Y-6.898 E37.29789
G1 X-11.966 Y-7.543 E37.34201
G1 X-12.466 Y-8.127 E37.38028
G1 X-13.003 Y-8.828 E37.42421
G1 X-13.438 Y-9.457 E37.46225
G1 X-13.897 Y-10.203 E37.50580
G1 X-14.261 Y-10.866 E37.54341
G1 X-14.638 Y-11.644 E37.58640
G1 X-14.929 Y-12.328 E37.62339
G1 X-15.221 Y-13.126 E37.66565
G1 X-15.438 Y-13.820 E37.70184
G1 X-15.647 Y-14.626 E37.74324
G1 X-15.793 Y-15.319 E37.77847
G1 X-15.920 Y-16.122 E37.81888
G1 X-15.998 Y-16.804 E37.85303
G1 X-16.049 Y-17.593 E37.89238
G1 X-16.064 Y-18.259 E37.92548
G1 X-16.049 Y-18.926 E37.95870
G1 X-15.998 Y-19.711 E37.99782
G1 X-15.920 Y-20.397 E38.03215
G1 X-15.793 Y-21.197 E38.07242
G1 X-15.647 Y-21.892 E38.10778
G1 X-15.439 Y-22.696 E38.14907
G1 X-15.221 Y-23.392 E38.18537
G1 X-14.929 Y-24.188 E38.22752
G1 X-14.637 Y-24.875 E38.26462
G1 X-14.262 Y-25.650 E38.30749
G1 X-13.896 Y-26.316 E38.34524
G1 X-13.439 Y-27.058 E38.38863
G1 X-13.002 Y-27.691 E38.42686
G1 X-12.467 Y-28.388 E38.47057
G1 X-11.964 Y-28.977 E38.50910
G1 X-11.361 Y-29.615 E38.55278
G1 X-10.716 Y-30.224 E38.59690
G1 X-10.131 Y-30.725 E38.63517
G1 X-9.430 Y-31.262 E38.67910
G1 X-8.801 Y-31.697 E38.71714
G1 X-8.056 Y-32.156 E38.76069
G1 X-7.393 Y-32.520 E38.79830
G1 X-6.615 Y-32.897 E38.84129
G1 X-5.931 Y-33.188 E38.87828
G1 X-5.133 Y-33.480 E38.92054
G1 X-4.437 Y-33.697 E38.95679
G1 X-3.634 Y-33.906 E38.99807
G1 X-2.939 Y-34.051 E39.03336
G1 X-2.137 Y-34.179 E39.07378
G1 X-1.455 Y-34.256 E39.10792
G1 X-0.665 Y-34.308 E39.14727
G1 X-0.000 Y-34.323 E39.18037
G1 X0.668 Y-34.308 E39.21359
G1 X1.453 Y-34.257 E39.25271
G1 X2.138 Y-34.179 E39.28705
G1 X2.938 Y-34.051 E39.32731
G1 X3.634 Y-33.906 E39.36268
G1 X4.437 Y-33.697 E39.40396
G1 X5.134 Y-33.480 E39.44026
G1 X5.930 Y-33.188 E39.48241
