; generated by Slic3r 1.0.0RC2 on 2014-02-19 at 18:13:44

; layer_height = 0.25
; perimeters = 3
; top_solid_layers = 3
; bottom_solid_layers = 3
; fill_density = 0.35
; perimeter_speed = 40
; infill_speed = 60
; travel_speed = 90
; nozzle_diameter = 0.4
; filament_diameter = 1.75
; extrusion_multiplier = 1.0
; perimeters extrusion width = 0.40mm
; infill extrusion width = 0.53mm
; solid infill extrusion width = 0.53mm
; top infill extrusion width = 0.53mm
; first layer extrusion width = 0.50mm

G21 ; set units to millimeters
M107
M190 S60 ; wait for bed temperature to be reached
M104 S190 ; set temperature
G28 ; home all axes
G1 Z5 F5000 ; lift nozzle
M207 S1 F30 Z1
M208 S1 F30
M109 S190 ; wait for temperature to be reached
G90 ; use absolute coordinates
G92 E0
M82 ; use absolute distances for extrusion
M204 S9000
G1 Z0.250 F5400.000
G1 X10.920 Y17.972 F5400.000
G1 X6.030 Y20.442 E0.27249 F960.000
G1 X5.280 Y20.782 E0.31345
G1 X4.310 Y21.112 E0.36441
G1 X3.300 Y21.302 E0.41552
G1 X-14.180 Y23.282 E1.29051
G1 X-15.380 Y23.312 E1.35022
G1 X-15.710 Y23.292 E1.36666
G1 X-16.660 Y23.172 E1.41429
G1 X-17.590 Y22.922 E1.46219
G1 X-22.330 Y21.262 E1.71199
G1 X-22.940 Y21.012 E1.74478
G1 X-23.830 Y20.532 E1.79507
G1 X-25.160 Y19.522 E1.87814
G1 X-26.220 Y18.242 E1.96080
G1 X-26.480 Y17.832 E1.98494
G1 X-26.960 Y16.932 E2.03568
G1 X-27.300 Y15.972 E2.08633
G1 X-27.490 Y15.292 E2.12145
G1 X-27.680 Y14.352 E2.16915
G1 X-27.800 Y13.462 E2.21382
G1 X-27.870 Y12.692 E2.25227
G1 X-28.280 Y-5.528 E3.15874
G1 X-28.280 Y-8.548 E3.30895
G1 X-28.060 Y-10.268 E3.39520
G1 X-27.420 Y-11.888 E3.48183
G1 X-25.080 Y-16.168 E3.72445
G1 X-24.510 Y-17.118 E3.77956
G1 X-24.010 Y-17.818 E3.82234
G1 X-23.560 Y-18.378 E3.85807
G1 X-23.150 Y-18.838 E3.88872
G1 X-22.650 Y-19.358 E3.92460
G1 X-22.070 Y-19.908 E3.96436
G1 X-21.500 Y-20.378 E4.00111
G1 X-20.910 Y-20.808 E4.03742
G1 X-20.290 Y-21.218 E4.07439
G1 X-19.710 Y-21.568 E4.10808
G1 X-19.050 Y-21.918 E4.14524
G1 X-18.330 Y-22.248 E4.18464
G1 X-17.640 Y-22.518 E4.22149
G1 X-16.880 Y-22.768 E4.26128
G1 X-16.160 Y-22.958 E4.29832
G1 X-14.780 Y-23.208 E4.36808
G1 X-13.940 Y-23.298 E4.41010
G1 X-12.930 Y-23.338 E4.46037
G1 X3.030 Y-23.338 E5.25420
G1 X4.040 Y-23.298 E5.30447
G1 X4.890 Y-23.208 E5.34699
G1 X6.250 Y-22.958 E5.41576
G1 X6.970 Y-22.768 E5.45280
G1 X7.690 Y-22.528 E5.49055
G1 X8.390 Y-22.258 E5.52787
G1 X9.150 Y-21.918 E5.56928
G1 X9.810 Y-21.568 E5.60644
G1 X10.390 Y-21.218 E5.64013
G1 X11.010 Y-20.808 E5.67710
G1 X11.640 Y-20.338 E5.71619
G1 X12.200 Y-19.868 E5.75256
G1 X12.740 Y-19.358 E5.78950
G1 X13.370 Y-18.708 E5.83453
G1 X26.400 Y-4.408 E6.79677
G1 X27.490 Y-2.818 E6.89265
G1 X28.100 Y-0.988 E6.98860
G1 X28.150 Y-0.718 E7.00226
G1 X28.260 Y0.252 E7.05081
G1 X28.240 Y1.222 E7.09907
G1 X28.190 Y1.742 E7.12505
G1 X28.040 Y2.622 E7.16945
G1 X27.790 Y3.482 E7.21400
G1 X27.520 Y4.212 E7.25271
G1 X27.050 Y5.222 E7.30812
G1 X26.430 Y6.142 E7.36330
G1 X25.760 Y6.982 E7.41674
G1 X25.000 Y7.792 E7.47199
G1 X18.390 Y13.792 E7.91601
G1 X17.700 Y14.342 E7.95989
G1 X16.940 Y14.802 E8.00408
G1 X10.983 Y17.939 E8.33891
G1 X10.700 Y17.542 F5400.000
G1 X5.460 Y20.182 E8.63075 F960.000
G1 X5.090 Y20.342 E8.65080
G1 X4.190 Y20.652 E8.69815
G1 X3.250 Y20.832 E8.74575
G1 X-14.230 Y22.812 E9.62074
G1 X-15.350 Y22.842 E9.67646
G1 X-15.680 Y22.822 E9.69291
G1 X-16.570 Y22.702 E9.73758
G1 X-17.430 Y22.462 E9.78199
G1 X-22.170 Y20.802 E10.03179
G1 X-22.740 Y20.572 E10.06236
G1 X-23.590 Y20.112 E10.11043
G1 X-24.830 Y19.182 E10.18752
G1 X-25.810 Y17.982 E10.26458
G1 X-26.070 Y17.572 E10.28873
G1 X-26.520 Y16.732 E10.33613
G1 X-26.840 Y15.842 E10.38317
G1 X-27.030 Y15.162 E10.41829
G1 X-27.210 Y14.292 E10.46248
G1 X-27.330 Y13.402 E10.50715
G1 X-27.390 Y12.682 E10.54308
G1 X-27.800 Y-5.538 E11.44954
G1 X-27.800 Y-8.548 E11.59926
G1 X-27.600 Y-10.148 E11.67946
G1 X-27.000 Y-11.658 E11.76028
G1 X-24.660 Y-15.938 E12.00289
G1 X-24.100 Y-16.868 E12.05689
G1 X-23.640 Y-17.518 E12.09650
G1 X-23.190 Y-18.078 E12.13223
G1 X-22.810 Y-18.508 E12.16077
G1 X-22.310 Y-19.028 E12.19665
G1 X-21.760 Y-19.538 E12.23396
G1 X-21.190 Y-20.008 E12.27071
G1 X-20.640 Y-20.408 E12.30453
G1 X-20.020 Y-20.818 E12.34150
G1 X-19.490 Y-21.138 E12.37230
G1 X-18.830 Y-21.488 E12.40945
G1 X-18.150 Y-21.798 E12.44662
G1 X-17.460 Y-22.068 E12.48348
G1 X-16.750 Y-22.298 E12.52060
G1 X-16.030 Y-22.488 E12.55764
G1 X-15.430 Y-22.618 E12.58817
G1 X-14.700 Y-22.738 E12.62497
G1 X-13.920 Y-22.818 E12.66397
G1 X-12.930 Y-22.858 E12.71325
G1 X3.030 Y-22.858 E13.50707
G1 X4.020 Y-22.818 E13.55636
G1 X4.820 Y-22.738 E13.59634
G1 X5.540 Y-22.618 E13.63265
G1 X6.840 Y-22.298 E13.69924
G1 X7.520 Y-22.078 E13.73479
G1 X8.220 Y-21.808 E13.77211
G1 X8.930 Y-21.488 E13.81084
G1 X9.590 Y-21.138 E13.84800
G1 X10.120 Y-20.818 E13.87879
G1 X10.740 Y-20.408 E13.91576
G1 X11.330 Y-19.968 E13.95237
G1 X11.890 Y-19.498 E13.98873
G1 X12.400 Y-19.028 E14.02323
G1 X13.020 Y-18.378 E14.06791
G1 X26.050 Y-4.078 E15.03015
G1 X27.060 Y-2.598 E15.11927
G1 X27.630 Y-0.898 E15.20845
G1 X27.680 Y-0.628 E15.22211
G1 X27.780 Y0.272 E15.26715
G1 X27.760 Y1.172 E15.31193
G1 X27.710 Y1.692 E15.33791
G1 X27.580 Y2.522 E15.37970
G1 X27.340 Y3.322 E15.42124
G1 X27.070 Y4.052 E15.45995
G1 X26.630 Y4.982 E15.51113
G1 X26.050 Y5.842 E15.56272
G1 X25.380 Y6.682 E15.61616
G1 X24.670 Y7.442 E15.66789
G1 X18.060 Y13.442 E16.11191
G1 X17.420 Y13.952 E16.15261
G1 X16.720 Y14.382 E16.19348
G1 X10.764 Y17.510 E16.52808
G1 X7.415 Y10.564 F5400.000
G1 X4.945 Y9.341 E16.66521 F960.000
G1 X4.157 Y9.113 E16.70600
G1 X3.109 Y9.234 E16.75847
G1 X2.403 Y10.044 E16.81191
G1 X2.186 Y10.855 E16.85369
G1 X2.065 Y13.149 E16.96794
G1 X1.377 Y12.939 E17.00368
G1 X1.377 Y12.970 E17.00526
G1 X-3.095 Y10.708 E17.25454
G1 X-4.405 Y10.210 E17.32424
G1 X-5.116 Y10.072 E17.36026
G1 X-5.870 Y10.095 E17.39780
G1 X-6.660 Y10.423 E17.44033
G1 X-7.270 Y11.147 E17.48740
G1 X-7.531 Y12.447 E17.55338
G1 X-7.567 Y13.551 E17.60832
G1 X-9.512 Y12.543 E17.71732
G1 X-10.425 Y12.283 E17.76450
G1 X-11.399 Y12.246 E17.81301
G1 X-12.333 Y12.522 E17.86144
G1 X-13.128 Y13.011 E17.90789
G1 X-14.221 Y14.063 E17.98332
G1 X-15.070 Y14.952 E18.04447
G1 X-16.033 Y13.853 E18.11716
G1 X-16.571 Y13.392 E18.15239
G1 X-17.306 Y13.048 E18.19277
G1 X-18.151 Y13.005 E18.23486
G1 X-19.567 Y13.429 E18.30839
G1 X-19.697 Y12.450 E18.35752
G1 X-19.728 Y10.427 E18.45815
G1 X-19.518 Y8.337 E18.56265
G1 X-19.342 Y7.501 E18.60513
G1 X-19.141 Y6.901 E18.63660
G1 X-18.970 Y6.604 E18.65368
G1 X-18.894 Y6.531 E18.65890
G1 X-18.346 Y6.308 E18.68831
G1 X-17.387 Y6.067 E18.73754
G1 X-16.684 Y5.750 E18.77588
G1 X-15.962 Y5.210 E18.82070
G1 X-14.874 Y3.795 E18.90951
G1 X-13.112 Y0.777 E19.08333
G1 X-12.377 Y1.856 E19.14829
G1 X-11.426 Y2.788 E19.21449
G1 X-10.448 Y2.931 E19.26366
G1 X-9.680 Y2.659 E19.30418
G1 X-8.219 Y1.507 E19.39675
G1 X-5.910 Y2.736 E19.52683
G1 X-5.120 Y2.932 E19.56733
G1 X-4.252 Y2.867 E19.61061
G1 X-3.479 Y2.486 E19.65347
G1 X-2.866 Y1.949 E19.69404
G1 X-1.671 Y0.349 E19.79334
G1 X-0.764 Y1.025 E19.84964
G1 X0.157 Y1.173 E19.89603
G1 X1.028 Y0.928 E19.94102
G1 X1.789 Y0.416 E19.98665
G1 X4.920 Y-2.770 E20.20882
G1 X5.420 Y-3.179 E20.24097
G1 X5.774 Y-3.382 E20.26125
G1 X5.994 Y-3.433 E20.27250
G1 X6.573 Y-3.133 E20.30492
G1 X7.239 Y-2.583 E20.34790
G1 X8.417 Y-1.965 E20.41404
G1 X9.435 Y-2.552 E20.47250
G1 X10.069 Y-3.605 E20.53360
G1 X10.172 Y-3.723 E20.54142
G1 X10.250 Y-3.776 E20.54610
G1 X10.387 Y-3.812 E20.55318
G1 X10.739 Y-3.797 E20.57067
G1 X11.387 Y-3.621 E20.60408
G1 X12.261 Y-3.269 E20.65094
G1 X14.407 Y-2.171 E20.77087
G1 X18.522 Y0.221 E21.00760
G1 X20.089 Y1.005 E21.09474
G1 X19.463 Y1.795 E21.14485
G1 X19.094 Y2.094 E21.16849
G1 X18.538 Y2.435 E21.20091
G1 X16.787 Y3.195 E21.29584
G1 X12.772 Y4.707 E21.50926
G1 X11.902 Y5.170 E21.55827
G1 X11.140 Y5.803 E21.60751
G1 X10.669 Y6.864 E21.66526
G1 X10.327 Y6.896 E21.68233
G1 X9.475 Y7.219 E21.72767
G1 X8.791 Y7.810 E21.77261
G1 X8.328 Y8.499 E21.81391
G1 X7.445 Y10.499 E21.92264
G1 X7.822 Y10.828 F5400.000
G1 X7.654 Y11.034 E21.93587 F960.000
G1 X7.433 Y11.033 E21.94688
G1 X7.055 Y10.920 E21.96652
G1 X4.771 Y9.789 E22.09328
G1 X4.116 Y9.599 E22.12716
G1 X3.348 Y9.688 E22.16563
G1 X2.836 Y10.274 E22.20434
G1 X2.661 Y10.930 E22.23811
G1 X2.537 Y13.281 E22.35517
G1 X2.435 Y13.672 E22.37527
G1 X2.139 Y13.672 E22.39002
G1 X1.041 Y13.337 E22.44711
G1 X-3.288 Y11.147 E22.68842
G1 X-4.536 Y10.672 E22.75485
G1 X-5.154 Y10.552 E22.78616
G1 X-5.768 Y10.571 E22.81669
G1 X-6.369 Y10.820 E22.84907
G1 X-6.825 Y11.361 E22.88424
G1 X-7.054 Y12.502 E22.94214
G1 X-7.113 Y14.326 E23.03286
G1 X-9.690 Y12.990 E23.17723
G1 X-10.500 Y12.759 E23.21914
G1 X-11.339 Y12.727 E23.26089
G1 X-12.136 Y12.963 E23.30225
G1 X-12.834 Y13.392 E23.34297
G1 X-13.882 Y14.401 E23.41534
G1 X-15.086 Y15.661 E23.50201
G1 X-16.370 Y14.194 E23.59900
G1 X-16.833 Y13.798 E23.62929
G1 X-17.424 Y13.521 E23.66177
G1 X-18.093 Y13.487 E23.69508
G1 X-19.803 Y14.000 E23.78389
G1 X-19.923 Y13.808 E23.79515
G1 X-20.069 Y13.284 E23.82221
G1 X-20.175 Y12.486 E23.86226
G1 X-20.207 Y10.407 E23.96566
G1 X-19.991 Y8.263 E24.07281
G1 X-19.805 Y7.376 E24.11793
G1 X-19.580 Y6.703 E24.15318
G1 X-19.351 Y6.306 E24.17599
G1 X-19.160 Y6.122 E24.18916
G1 X-18.496 Y5.852 E24.22485
G1 X-17.545 Y5.613 E24.27362
G1 X-16.929 Y5.335 E24.30724
G1 X-16.301 Y4.866 E24.34618
G1 X-15.272 Y3.527 E24.43020
G1 X-13.542 Y0.565 E24.60083
G1 X-13.143 Y0.049 E24.63327
G1 X-12.624 Y0.643 E24.67245
G1 X-12.008 Y1.548 E24.72692
G1 X-11.202 Y2.337 E24.78301
G1 X-10.496 Y2.440 E24.81853
G1 X-9.914 Y2.234 E24.84921
G1 X-8.573 Y1.177 E24.93415
G1 X-8.362 Y1.069 E24.94596
G1 X-8.198 Y1.039 E24.95423
G1 X-8.020 Y1.070 E24.96322
G1 X-5.738 Y2.286 E25.09184
G1 X-5.079 Y2.449 E25.12557
G1 X-4.381 Y2.397 E25.16043
G1 X-3.747 Y2.084 E25.19555
G1 X-3.219 Y1.622 E25.23048
G1 X-1.715 Y-0.392 E25.35548
G1 X-1.356 Y-0.013 E25.38147
G1 X-0.572 Y0.572 E25.43010
G1 X0.129 Y0.684 E25.46540
G1 X0.824 Y0.488 E25.50134
G1 X1.482 Y0.046 E25.54075
G1 X4.597 Y-3.124 E25.76179
G1 X5.148 Y-3.575 E25.79721
G1 X5.598 Y-3.832 E25.82298
G1 X5.924 Y-3.907 E25.83963
G1 X6.169 Y-3.881 E25.85187
G1 X6.839 Y-3.535 E25.88939
G1 X7.506 Y-2.983 E25.93245
G1 X8.406 Y-2.511 E25.98301
G1 X9.089 Y-2.905 E26.02221
G1 X9.680 Y-3.887 E26.07924
G1 X9.853 Y-4.086 E26.09232
G1 X10.050 Y-4.218 E26.10413
G1 X10.335 Y-4.294 E26.11881
G1 X10.813 Y-4.273 E26.14258
G1 X11.540 Y-4.076 E26.18005
G1 X12.460 Y-3.704 E26.22939
G1 X14.637 Y-2.591 E26.35102
G1 X18.750 Y-0.200 E26.58765
G1 X20.572 Y0.712 E26.68901
G1 X20.552 Y0.913 E26.69906
G1 X20.351 Y1.445 E26.72733
G1 X19.805 Y2.133 E26.77102
G1 X19.371 Y2.486 E26.79885
G1 X18.759 Y2.860 E26.83452
G1 X16.967 Y3.638 E26.93170
G1 X12.969 Y5.144 E27.14417
G1 X12.170 Y5.570 E27.18920
G1 X11.532 Y6.100 E27.23045
G1 X11.203 Y6.840 E27.27074
G1 X11.286 Y7.286 E27.29330
G1 X10.437 Y7.367 E27.33571
G1 X9.724 Y7.637 E27.37364
G1 X9.153 Y8.130 E27.41118
G1 X8.749 Y8.731 E27.44719
G1 X7.851 Y10.762 E27.55762
G1 X8.234 Y11.080 F5400.000
G1 X7.996 Y11.372 E27.57638 F672.000
G1 X7.727 Y11.513 E27.59145
G1 X7.361 Y11.511 E27.60964
G1 X6.879 Y11.366 E27.63471
G1 X4.597 Y10.236 E27.76136
G1 X4.076 Y10.086 E27.78833
G1 X3.587 Y10.142 E27.81281
G1 X3.270 Y10.505 E27.83678
G1 X3.136 Y11.006 E27.86253
G1 X3.012 Y13.354 E27.97950
G1 X2.902 Y13.780 E28.00138
G1 X2.729 Y14.034 E28.01668
G1 X2.471 Y14.150 E28.03078
G1 X2.067 Y14.151 E28.05083
G1 X0.862 Y13.782 E28.11354
G1 X-3.481 Y11.586 E28.35560
G1 X-4.668 Y11.134 E28.41876
G1 X-5.193 Y11.032 E28.44536
G1 X-5.666 Y11.047 E28.46888
G1 X-6.078 Y11.218 E28.49110
G1 X-6.380 Y11.576 E28.51438
G1 X-6.577 Y12.558 E28.56420
G1 X-6.644 Y14.651 E28.66837
G1 X-6.753 Y14.943 E28.68383
G1 X-7.012 Y14.917 E28.69678
G1 X-9.867 Y13.437 E28.85675
G1 X-10.576 Y13.235 E28.89341
G1 X-11.279 Y13.209 E28.92838
G1 X-11.940 Y13.404 E28.96269
G1 X-12.539 Y13.772 E28.99767
G1 X-13.542 Y14.739 E29.06697
G1 X-14.744 Y15.996 E29.15346
G1 X-15.002 Y16.124 E29.16778
G1 X-15.212 Y16.111 E29.17828
G1 X-15.448 Y15.973 E29.19186
G1 X-16.708 Y14.535 E29.28694
G1 X-17.095 Y14.204 E29.31229
G1 X-17.542 Y13.994 E29.33687
G1 X-18.035 Y13.969 E29.36139
G1 X-19.691 Y14.466 E29.44742
G1 X-19.950 Y14.455 E29.46030
G1 X-20.160 Y14.332 E29.47240
G1 X-20.366 Y14.003 E29.49170
G1 X-20.539 Y13.380 E29.52386
G1 X-20.653 Y12.521 E29.56697
G1 X-20.686 Y10.387 E29.67313
G1 X-20.465 Y8.190 E29.78293
G1 X-20.267 Y7.250 E29.83071
G1 X-20.018 Y6.506 E29.86974
G1 X-19.731 Y6.009 E29.89828
G1 X-19.426 Y5.714 E29.91940
G1 X-18.645 Y5.396 E29.96136
G1 X-17.703 Y5.160 E30.00968
G1 X-17.173 Y4.921 E30.03856
G1 X-16.641 Y4.522 E30.07164
G1 X-15.670 Y3.260 E30.15087
G1 X-13.940 Y0.296 E30.32154
G1 X-13.575 Y-0.174 E30.35116
G1 X-13.277 Y-0.410 E30.37003
G1 X-13.064 Y-0.439 E30.38075
G1 X-12.838 Y-0.330 E30.39319
G1 X-12.245 Y0.349 E30.43806
G1 X-11.639 Y1.239 E30.49160
G1 X-10.979 Y1.886 E30.53758
G1 X-10.544 Y1.950 E30.55945
G1 X-10.149 Y1.810 E30.58029
G1 X-8.832 Y0.772 E30.66367
G1 X-8.516 Y0.611 E30.68130
G1 X-8.201 Y0.553 E30.69726
G1 X-7.863 Y0.612 E30.71431
G1 X-5.565 Y1.836 E30.84380
G1 X-5.039 Y1.966 E30.87077
G1 X-4.509 Y1.926 E30.89720
G1 X-4.015 Y1.683 E30.92458
G1 X-3.572 Y1.295 E30.95388
G1 X-2.198 Y-0.546 E31.06815
G1 X-1.707 Y-0.997 E31.10130
G1 X-1.515 Y-0.876 E31.11257
G1 X-1.037 Y-0.372 E31.14711
G1 X-0.380 Y0.118 E31.18786
G1 X0.101 Y0.195 E31.21207
G1 X0.621 Y0.048 E31.23896
G1 X1.175 Y-0.324 E31.27215
G1 X4.274 Y-3.477 E31.49205
G1 X4.876 Y-3.970 E31.53075
G1 X5.421 Y-4.283 E31.56202
G1 X5.895 Y-4.392 E31.58618
G1 X6.000 Y-4.381 E31.59146
G1 X6.000 Y-4.507 E31.59775
G1 X7.104 Y-3.936 E31.65955
G1 X7.772 Y-3.384 E31.70268
G1 X8.395 Y-3.057 E31.73766
G1 X8.742 Y-3.258 E31.75760
G1 X9.291 Y-4.170 E31.81055
G1 X9.533 Y-4.448 E31.82890
G1 X9.850 Y-4.660 E31.84784
G1 X10.283 Y-4.775 E31.87011
G1 X10.887 Y-4.748 E31.90017
G1 X11.692 Y-4.530 E31.94170
G1 X12.659 Y-4.140 E31.99353
G1 X14.866 Y-3.011 E32.11685
G1 X18.977 Y-0.621 E32.35337
G1 X20.867 Y0.324 E32.45847
G1 X21.078 Y0.465 E32.47112
G1 X21.021 Y1.024 E32.49903
G1 X20.772 Y1.684 E32.53411
G1 X20.147 Y2.472 E32.58414
G1 X19.648 Y2.877 E32.61615
G1 X18.981 Y3.286 E32.65506
G1 X17.147 Y4.082 E32.75450
G1 X13.167 Y5.581 E32.96601
G1 X12.439 Y5.969 E33.00708
G1 X11.924 Y6.396 E33.04033
G1 X11.701 Y6.899 E33.06768
G1 X11.793 Y7.399 E33.09298
G1 X12.138 Y7.907 E33.12353
G1 X11.180 Y7.777 E33.17163
G1 X10.546 Y7.837 E33.20328
G1 X9.973 Y8.054 E33.23379
G1 X9.514 Y8.450 E33.26392
G1 X9.170 Y8.963 E33.29466
G1 X8.263 Y11.014 E33.40620
G1 X7.858 Y11.053 F5400.000
G1 X8.939 Y-8.292 F5400.000
G1 X-2.876 Y-8.292 E33.99384 F720.000
G1 X-2.966 Y-9.135 E34.03599
G1 X-2.966 Y-9.782 E34.06818
G1 X-2.895 Y-10.433 E34.10076
G1 X-2.752 Y-11.076 E34.13353
G1 X-2.540 Y-11.700 E34.16631
G1 X-2.263 Y-12.294 E34.19888
G1 X-1.927 Y-12.847 E34.23108
G1 X-1.541 Y-13.352 E34.26271
G1 X-1.103 Y-13.814 E34.29435
G1 X-0.610 Y-14.234 E34.32655
G1 X-0.069 Y-14.602 E34.35912
G1 X0.513 Y-14.910 E34.39190
G1 X1.126 Y-15.153 E34.42467
G1 X1.757 Y-15.327 E34.45725
G1 X2.396 Y-15.430 E34.48944
G1 X3.032 Y-15.464 E34.52108
G1 X3.667 Y-15.430 E34.55272
G1 X4.306 Y-15.327 E34.58491
G1 X4.937 Y-15.153 E34.61748
G1 X5.550 Y-14.910 E34.65026
G1 X6.132 Y-14.602 E34.68303
G1 X6.674 Y-14.234 E34.71561
G1 X7.166 Y-13.814 E34.74780
G1 X7.604 Y-13.352 E34.77944
G1 X7.990 Y-12.847 E34.81108
G1 X8.326 Y-12.294 E34.84327
G1 X8.603 Y-11.700 E34.87585
G1 X8.816 Y-11.076 E34.90862
G1 X8.958 Y-10.433 E34.94139
G1 X9.029 Y-9.782 E34.97397
G1 X9.029 Y-9.135 E35.00616
G1 X8.946 Y-8.364 E35.04474
G1 X8.922 Y-7.814 F5400.000
G1 X-6.930 Y-9.135 F5400.000
G1 X-7.020 Y-8.292 E35.08690 F720.000
G1 X-18.835 Y-8.292 E35.67454
G1 X-18.925 Y-9.135 E35.71669
G1 X-18.925 Y-9.782 E35.74888
G1 X-18.854 Y-10.433 E35.78146
G1 X-18.711 Y-11.076 E35.81423
G1 X-18.499 Y-11.700 E35.84700
G1 X-18.222 Y-12.294 E35.87958
G1 X-17.886 Y-12.847 E35.91177
G1 X-17.500 Y-13.352 E35.94341
G1 X-17.062 Y-13.814 E35.97505
G1 X-16.569 Y-14.234 E36.00724
G1 X-16.028 Y-14.602 E36.03982
G1 X-15.445 Y-14.910 E36.07259
